%
O01001
(Using high feed G1 F500. instead of G0.)
(T0 D=6. CR=0. - ZMIN=0. - flat end mill)
(T1 D=50. CR=0. - ZMIN=25. - face mill)
(T4 D=12. CR=0. - ZMIN=0. - flat end mill)
(T5 D=24. CR=0. TAPER=118deg - ZMIN=1. - drill)
N10 G90 G17
N15 G21
N20 G53 G0 Z0.

(Face2)
N25 T1 M6
N30 S5000 M3
N35 G54
N40 M8
N45 G1 X138.993 Y0.867 F500.
N50 G0 G43 Z42. H1
N55 T4
N60 G0 Z32.
N65 G1 Z30. F333.33
N70 G18 G3 X133.993 Z25. I-5. K0. F1000.
N75 G1 X132.01
N80 X-28.01
N85 G17 G2 Y29.383 I0. J14.258
N90 G1 X132.01
N95 G3 Y57.9 I0. J14.258
N100 G1 X-28.01
N105 G18 G3 X-33.01 Z30. I0. K5.
N110 G0 Z42.
N115 M9
N120 M5
N125 G53 G0 Z0.

(2D Contour2)
N130 M1
N135 T4 M6
N140 S5000 M3
N145 G54
N150 M8
N155 G17
N160 G1 X112.8 Y40.7 F500.
N165 G0 G43 Z42. H4
N170 T5
N175 G0 Z32.
N180 G1 Z28. F333.33
N185 Z1.2
N190 G18 G3 X111.6 Z0. I-1.2 K0. F1000.
N195 G1 X110.4
N200 G17 G3 X109.2 Y39.5 I0. J-1.2
N205 G1 Y7.
N210 G2 X97. Y-5.2 I-12.2 J0.
N215 G1 X7.
N220 G2 X-5.2 Y7. I0. J12.2
N225 G1 Y72.
N230 G2 X7. Y84.2 I12.2 J0.
N235 G1 X97.
N240 G2 X109.2 Y72. I0. J-12.2
N245 G1 Y39.5
N250 G2 X108.6 Y38.6 I-0.975 J0.
N255 G3 X108. Y37.7 I0.375 J-0.9
N260 G1 Y7.
N265 G2 X97. Y-4. I-11. J0.
N270 G1 X7.
N275 G2 X-4. Y7. I0. J11.
N280 G1 Y72.
N285 G2 X7. Y83. I11. J0.
N290 G1 X97.
N295 G2 X108. Y72. I0. J-11.
N300 G1 Y37.7
N305 G3 X109.2 Y36.5 I1.2 J0.
N310 G1 X110.4
N315 G18 G2 X111.6 Z1.2 I0. K1.2
N320 G0 Z42.
N325 M9
N330 M5
N335 G53 G0 Z0.

(Drill2)
N340 M1
N345 T5 M6
N350 S5000 M3
N355 G54
N360 M8
N365 G17
N370 G1 X52. Y39.5 F500.
N375 G0 G43 Z42. H5
N380 T4
N385 G0 Z32.
N390 G98 G73 X52. Y39.5 Z1. R30. Q6. F1000.
N395 G80
N400 G0 Z42.
N405 M9
N410 M5
N415 G53 G0 Z0.

(2D Contour3)
N420 M1
N425 T4 M6
N430 S5000 M3
N435 G54
N440 M8
N445 G1 X58.9 Y38.3 F500.
N450 G0 G43 Z42. H4
N455 T0
N460 G0 Z32.
N465 G1 Z28. F333.33
N470 Z2.2
N475 G18 G2 X60.1 Z1. I1.2 K0. F1000.
N480 G1 X61.3
N485 G17 G3 X62.5 Y39.5 I0. J1.2
N490 X41.5 I-10.5 J0.
N495 X62.5 I10.5 J0.
N500 X61.3 Y40.7 I-1.2 J0.
N505 G1 X60.1
N510 G18 G3 X58.9 Z2.2 I0. K1.2
N515 G0 Z42.
N520 M9
N525 M5
N530 G53 G0 Z0.

(2D Contour4)
N535 M1
N540 T0 M6
N545 S5000 M3
N550 G54
N555 M8
N560 G17
N565 G1 X64.7 Y38.9 F500.
N570 G0 G43 Z42. H0
N575 T1
N580 G0 Z32.
N585 G1 Z28. F333.33
N590 Z0.6
N595 G18 G2 X65.3 Z0. I0.6 K0. F1000.
N600 G1 X65.9
N605 G17 G3 X66.5 Y39.5 I0. J0.6
N610 X37.5 I-14.5 J0.
N615 X66.5 I14.5 J0.
N620 X65.9 Y40.1 I-0.6 J0.
N625 G1 X65.3
N630 G18 G3 X64.7 Z0.6 I0. K0.6
N635 G0 Z42.

N640 M5
N645 M9
N650 G53 G0 Z0.
N655 X52.
N660 G53 G0 Y0.
N665 M30

%
