%
O01002
(Using high feed G1 F500. instead of G0.)
(T1 D=50. CR=0. - ZMIN=-2. - face mill)
(T2 D=12. CR=6. - ZMIN=-42. - lollipop mill)
(T4 D=18. CR=0. - ZMIN=-62. - flat end mill)
N10 G90 G17
N15 G21
N20 G53 G0 Z0.

(Face1)
N25 T1 M6
N30 S5000 M3
N35 G54
N40 M8
N45 G1 X109.5 Y-41.8 F500.
N50 G0 G43 Z15. H1
N55 T4
N60 G0 Z5.
N65 G1 Z3. F333.33
N70 G18 G3 X104.5 Z-2. I-5. K0. F1000.
N75 G1 X102.01
N80 X-102.01
N85 G17 G2 Y-6.95 I0. J17.425
N90 G1 X102.01
N95 G3 Y27.9 I0. J17.425
N100 G1 X-102.01
N105 G18 G3 X-107.01 Z3. I0. K5.
N110 G0 Z15.
N115 M9
N120 M5
N125 G53 G0 Z0.

(2D Adaptive2)
N130 M1
N135 T4 M6
N140 S5000 M3
N145 G54
N150 M8
N155 G17
N160 G1 X-76.409 Y-68.822 F500.
N165 G0 G43 Z15. H4
N170 T2
N175 G0 Z5.
N180 Z-38.2
N185 G1 Z-40. F1000.
N190 Z-42.
N195 G3 X-75. Y-59.023 I-44.516 J11.403
N200 G1 Y-58.873
N205 X-75.308 Y-57.365
N210 X-75.564 Y-55.847
N215 X-75.777 Y-54.323
N220 X-75.953 Y-52.794
N225 X-76.1 Y-51.262
N230 X-76.221 Y-49.727
N235 X-76.321 Y-48.192
N240 X-76.404 Y-46.655
N245 X-76.473 Y-45.117
N250 X-76.53 Y-43.579
N255 X-76.577 Y-42.041
N260 X-76.616 Y-40.502
N265 X-76.648 Y-38.963
N270 X-76.674 Y-37.425
N275 X-76.696 Y-35.886
N280 X-76.714 Y-34.347
N285 X-76.729 Y-32.808
N290 X-76.742 Y-31.269
N295 X-76.752 Y-29.729
N300 X-76.76 Y-28.19
N305 X-76.767 Y-26.651
N310 X-76.778 Y-23.573
N315 X-76.785 Y-20.495
N320 X-76.791 Y-15.878
N325 X-76.796 Y-9.721
N330 X-76.797 Y-8.182
N335 X-76.799 Y4.131
N340 X-76.8 Y41.454
N345 X-76.765 Y41.837
N350 X-76.695 Y42.216
N355 X-76.277 Y43.697
N360 X-75.416 Y44.973
N365 X-74.337 Y46.07
N370 X-73.115 Y47.006
N375 X-71.795 Y47.798
N380 X-70.408 Y48.465
N385 X-68.975 Y49.026
N390 X-67.509 Y49.495
N395 X-66.021 Y49.887
N400 X-64.517 Y50.214
N405 X-63.002 Y50.486
N410 X-61.479 Y50.712
N415 X-59.952 Y50.899
N420 X-58.421 Y51.055
N425 X-56.887 Y51.184
N430 X-55.351 Y51.291
N435 X-53.815 Y51.379
N440 X-52.278 Y51.452
N445 X-50.74 Y51.513
N450 X-49.201 Y51.563
N455 X-47.663 Y51.604
N460 X-46.124 Y51.638
N465 X-44.585 Y51.666
N470 X-43.046 Y51.69
N475 X-41.507 Y51.709
N480 X-39.968 Y51.725
N485 X-38.429 Y51.738
N490 X-36.89 Y51.749
N495 X-35.351 Y51.758
N500 X-33.812 Y51.765
N505 X-32.273 Y51.771
N510 X-29.195 Y51.78
N515 X-26.117 Y51.787
N520 X-21.499 Y51.792
N525 X-15.343 Y51.796
N530 X-4.569 Y51.799
N535 X21.596 Y51.8
N540 X66.23
N545 X66.614 Y51.79
N550 X66.996 Y51.746
N555 X67.373 Y51.666
N560 X68.843 Y51.211
N565 X70.099 Y50.322
N570 X71.179 Y49.225
N575 X72.098 Y47.99
N580 X72.875 Y46.662
N585 X73.53 Y45.269
N590 X74.08 Y43.832
N595 X74.541 Y42.363
N600 X74.925 Y40.873
N605 X75.245 Y39.367
N610 X75.512 Y37.851
N615 X75.734 Y36.328
N620 X75.917 Y34.8
N625 X76.07 Y33.269
N630 X76.196 Y31.735
N635 X76.301 Y30.199
N640 X76.388 Y28.662
N645 X76.459 Y27.125
N650 X76.518 Y25.587
N655 X76.567 Y24.049
N660 X76.608 Y22.51
N665 X76.641 Y20.971
N670 X76.669 Y19.433
N675 X76.692 Y17.894
N680 X76.711 Y16.355
N685 X76.726 Y14.816
N690 X76.739 Y13.277
N695 X76.75 Y11.738
N700 X76.759 Y10.198
N705 X76.766 Y8.659
N710 X76.772 Y7.12
N715 X76.781 Y4.042
N720 X76.787 Y0.964
N725 X76.789 Y-0.575
N730 X76.794 Y-5.193
N735 X76.798 Y-12.888
N740 X76.8 Y-28.279
N745 Y-42.131
N750 X76.337 Y-43.599
N755 X75.496 Y-44.888
N760 X74.43 Y-45.998
N765 X73.216 Y-46.944
N770 X71.902 Y-47.746
N775 X70.519 Y-48.421
N780 X69.089 Y-48.989
N785 X67.625 Y-49.464
N790 X66.138 Y-49.861
N795 X64.635 Y-50.192
N800 X63.12 Y-50.468
N805 X61.598 Y-50.697
N810 X60.071 Y-50.887
N815 X58.54 Y-51.045
N820 X57.007 Y-51.175
N825 X55.471 Y-51.284
N830 X53.935 Y-51.373
N835 X52.398 Y-51.447
N840 X50.86 Y-51.509
N845 X49.321 Y-51.559
N850 X47.783 Y-51.601
N855 X46.244 Y-51.636
N860 X44.705 Y-51.664
N865 X43.166 Y-51.688
N870 X41.627 Y-51.708
N875 X40.088 Y-51.724
N880 X38.549 Y-51.737
N885 X37.01 Y-51.748
N890 X35.471 Y-51.757
N895 X33.932 Y-51.765
N900 X32.393 Y-51.771
N905 X29.315 Y-51.78
N910 X26.237 Y-51.786
N915 X21.619 Y-51.792
N920 X20.08 Y-51.794
N925 X12.385 Y-51.798
N930 X-3.006 Y-51.8
N935 X-30.71
N940 X-58.414
N945 X-58.799 Y-51.791
N950 X-60.328 Y-51.614
N955 X-61.706 Y-50.929
N960 X-62.913 Y-49.974
N965 X-63.956 Y-48.842
N970 X-64.85 Y-47.589
N975 X-65.611 Y-46.251
N980 X-66.256 Y-44.854
N985 X-66.8 Y-43.414
N990 X-67.259 Y-41.945
N995 X-67.645 Y-40.455
N1000 X-67.969 Y-38.951
N1005 X-68.24 Y-37.436
N1010 X-68.467 Y-35.913
N1015 X-68.656 Y-34.386
N1020 X-68.814 Y-32.855
N1025 X-68.946 Y-31.322
N1030 X-69.056 Y-29.786
N1035 X-69.148 Y-28.25
N1040 X-69.224 Y-26.713
N1045 X-69.287 Y-25.175
N1050 X-69.34 Y-23.637
N1055 X-69.384 Y-22.098
N1060 X-69.421 Y-20.56
N1065 X-69.451 Y-19.021
N1070 X-69.476 Y-17.482
N1075 X-69.497 Y-15.943
N1080 X-69.515 Y-14.404
N1085 X-69.529 Y-12.865
N1090 X-69.541 Y-11.326
N1095 X-69.551 Y-9.787
N1100 X-69.559 Y-8.248
N1105 X-69.566 Y-6.709
N1110 X-69.577 Y-3.631
N1115 X-69.584 Y-0.552
N1120 X-69.591 Y4.065
N1125 X-69.596 Y10.221
N1130 X-69.598 Y17.917
N1135 X-69.6 Y31.769
N1140 X-69.396 Y33.294
N1145 X-68.862 Y34.738
N1150 X-68.072 Y36.059
N1155 X-67.086 Y37.241
N1160 X-65.955 Y38.285
N1165 X-64.717 Y39.199
N1170 X-63.399 Y39.993
N1175 X-62.021 Y40.679
N1180 X-60.599 Y41.269
N1185 X-59.146 Y41.775
N1190 X-57.669 Y42.208
N1195 X-56.175 Y42.577
N1200 X-54.668 Y42.891
N1205 X-53.152 Y43.157
N1210 X-51.63 Y43.383
N1215 X-50.102 Y43.575
N1220 X-48.572 Y43.736
N1225 X-47.039 Y43.873
N1230 X-45.504 Y43.989
N1235 X-43.968 Y44.086
N1240 X-42.431 Y44.168
N1245 X-40.894 Y44.237
N1250 X-39.356 Y44.295
N1255 X-37.817 Y44.344
N1260 X-36.279 Y44.386
N1265 X-34.74 Y44.42
N1270 X-33.201 Y44.449
N1275 X-31.662 Y44.474
N1280 X-30.123 Y44.494
N1285 X-28.584 Y44.511
N1290 X-27.045 Y44.526
N1295 X-25.506 Y44.538
N1300 X-23.967 Y44.548
N1305 X-22.428 Y44.556
N1310 X-20.996 Y44.563
N1315 X-20.518 Y44.6
N1320 X-20.051 Y44.706
N1325 X-19.604 Y44.878
N1330 X-19.433 Y44.959
N1335 X-18.893 Y45.204
N1340 X-18.353 Y45.424
N1345 X-15.114 Y46.583
N1350 X-14.575 Y46.775
N1355 X-13.495 Y47.084
N1360 X-10.256 Y47.895
N1365 X-9.961 Y47.963
N1370 X-9.177 Y48.118
N1375 X-8.637 Y48.206
N1380 X-5.938 Y48.607
N1385 X-5.398 Y48.681
N1390 X-4.858 Y48.746
N1395 X-4.318 Y48.799
N1400 X-1.08 Y48.958
N1405 X0. Y48.999
N1410 X1.08 Y48.958
N1415 X4.318 Y48.799
N1420 X4.858 Y48.746
N1425 X5.398 Y48.681
N1430 X5.938 Y48.607
N1435 X8.637 Y48.206
N1440 X9.177 Y48.118
N1445 X9.961 Y47.963
N1450 X10.256 Y47.895
N1455 X13.495 Y47.084
N1460 X14.035 Y46.93
N1465 X15.534 Y46.582
N1470 X17.032 Y46.228
N1475 X18.543 Y45.938
N1480 X20.064 Y45.701
N1485 X21.591 Y45.506
N1490 X23.122 Y45.346
N1495 X24.655 Y45.215
N1500 X26.19 Y45.107
N1505 X27.727 Y45.018
N1510 X29.264 Y44.944
N1515 X30.802 Y44.884
N1520 X32.341 Y44.834
N1525 X33.879 Y44.793
N1530 X35.418 Y44.76
N1535 X36.957 Y44.732
N1540 X38.496 Y44.709
N1545 X40.035 Y44.69
N1550 X41.574 Y44.674
N1555 X43.113 Y44.661
N1560 X44.652 Y44.65
N1565 X46.191 Y44.642
N1570 X47.73 Y44.634
N1575 X49.269 Y44.628
N1580 X52.347 Y44.619
N1585 X55.425 Y44.613
N1590 X56.964 Y44.611
N1595 X58.483 Y44.361
N1600 X59.913 Y43.79
N1605 X61.216 Y42.972
N1610 X62.38 Y41.965
N1615 X63.407 Y40.819
N1620 X64.305 Y39.569
N1625 X65.085 Y38.242
N1630 X65.759 Y36.858
N1635 X66.338 Y35.432
N1640 X66.834 Y33.975
N1645 X67.258 Y32.496
N1650 X67.619 Y30.999
N1655 X67.927 Y29.491
N1660 X68.188 Y27.975
N1665 X68.409 Y26.451
N1670 X68.596 Y24.924
N1675 X68.755 Y23.393
N1680 X68.889 Y21.86
N1685 X69.002 Y20.325
N1690 X69.097 Y18.789
N1695 X69.178 Y17.252
N1700 X69.245 Y15.714
N1705 X69.302 Y14.176
N1710 X69.35 Y12.638
N1715 X69.39 Y11.099
N1720 X69.424 Y9.56
N1725 X69.453 Y8.021
N1730 X69.476 Y6.482
N1735 X69.496 Y4.943
N1740 X69.513 Y3.404
N1745 X69.527 Y1.865
N1750 X69.539 Y0.326
N1755 X69.549 Y-1.213
N1760 X69.557 Y-2.752
N1765 X69.564 Y-4.291
N1770 X69.575 Y-7.369
N1775 X69.579 Y-8.908
N1780 X69.585 Y-11.986
N1785 X69.591 Y-16.604
N1790 X69.596 Y-22.76
N1795 X69.599 Y-31.995
N1800 X69.343 Y-33.512
N1805 X68.767 Y-34.94
N1810 X67.944 Y-36.24
N1815 X66.934 Y-37.402
N1820 X65.786 Y-38.427
N1825 X64.534 Y-39.323
N1830 X63.206 Y-40.1
N1835 X61.821 Y-40.771
N1840 X60.394 Y-41.348
N1845 X58.937 Y-41.843
N1850 X57.457 Y-42.265
N1855 X55.96 Y-42.626
N1860 X54.452 Y-42.932
N1865 X52.935 Y-43.192
N1870 X51.412 Y-43.413
N1875 X49.884 Y-43.6
N1880 X48.353 Y-43.758
N1885 X46.82 Y-43.891
N1890 X45.285 Y-44.004
N1895 X43.749 Y-44.099
N1900 X42.212 Y-44.179
N1905 X40.674 Y-44.246
N1910 X39.136 Y-44.303
N1915 X37.598 Y-44.351
N1920 X36.059 Y-44.391
N1925 X34.52 Y-44.425
N1930 X32.981 Y-44.453
N1935 X31.442 Y-44.477
N1940 X29.904 Y-44.497
N1945 X28.364 Y-44.513
N1950 X26.825 Y-44.528
N1955 X25.286 Y-44.539
N1960 X23.747 Y-44.549
N1965 X22.208 Y-44.557
N1970 X20.997 Y-44.563
N1975 X20.519 Y-44.6
N1980 X20.051 Y-44.706
N1985 X19.604 Y-44.878
N1990 X19.433 Y-44.959
N1995 X18.893 Y-45.204
N2000 X18.353 Y-45.424
N2005 X15.114 Y-46.583
N2010 X14.575 Y-46.775
N2015 X13.495 Y-47.084
N2020 X10.256 Y-47.895
N2025 X9.961 Y-47.963
N2030 X9.177 Y-48.118
N2035 X8.637 Y-48.206
N2040 X5.938 Y-48.607
N2045 X5.398 Y-48.681
N2050 X4.858 Y-48.746
N2055 X4.318 Y-48.799
N2060 X1.08 Y-48.958
N2065 X0. Y-48.999
N2070 X-1.08 Y-48.958
N2075 X-4.318 Y-48.799
N2080 X-4.858 Y-48.746
N2085 X-5.398 Y-48.681
N2090 X-5.938 Y-48.607
N2095 X-8.637 Y-48.206
N2100 X-9.177 Y-48.118
N2105 X-9.961 Y-47.963
N2110 X-10.256 Y-47.895
N2115 X-13.495 Y-47.084
N2120 X-14.035 Y-46.93
N2125 X-15.534 Y-46.582
N2130 X-17.032 Y-46.228
N2135 X-18.543 Y-45.938
N2140 X-20.064 Y-45.701
N2145 X-21.591 Y-45.506
N2150 X-23.122 Y-45.346
N2155 X-24.655 Y-45.215
N2160 X-26.19 Y-45.107
N2165 X-27.727 Y-45.018
N2170 X-29.264 Y-44.944
N2175 X-30.802 Y-44.884
N2180 X-32.341 Y-44.834
N2185 X-33.879 Y-44.793
N2190 X-35.418 Y-44.76
N2195 X-36.957 Y-44.732
N2200 X-38.496 Y-44.709
N2205 X-40.035 Y-44.69
N2210 X-41.574 Y-44.674
N2215 X-43.113 Y-44.661
N2220 X-44.652 Y-44.65
N2225 X-46.191 Y-44.642
N2230 X-47.73 Y-44.634
N2235 X-49.269 Y-44.628
N2240 X-50.796 Y-44.433
N2245 X-52.246 Y-43.918
N2250 X-53.579 Y-43.148
N2255 X-54.777 Y-42.182
N2260 X-55.84 Y-41.069
N2265 X-56.773 Y-39.845
N2270 X-57.587 Y-38.539
N2275 X-58.292 Y-37.171
N2280 X-58.9 Y-35.757
N2285 X-59.424 Y-34.31
N2290 X-59.872 Y-32.837
N2295 X-60.256 Y-31.347
N2300 X-60.583 Y-29.843
N2305 X-60.862 Y-28.329
N2310 X-61.1 Y-26.809
N2315 X-61.301 Y-25.283
N2320 X-61.472 Y-23.753
N2325 X-61.617 Y-22.221
N2330 X-61.739 Y-20.687
N2335 X-61.843 Y-19.151
N2340 X-61.931 Y-17.615
N2345 X-62.005 Y-16.077
N2350 X-62.067 Y-14.539
N2355 X-62.12 Y-13.001
N2360 X-62.164 Y-11.463
N2365 X-62.202 Y-9.924
N2370 X-62.233 Y-8.385
N2375 X-62.26 Y-6.846
N2380 X-62.282 Y-5.307
N2385 X-62.301 Y-3.768
N2390 X-62.317 Y-2.229
N2395 X-62.33 Y-0.69
N2400 X-62.341 Y0.849
N2405 X-62.351 Y2.388
N2410 X-62.359 Y3.927
N2415 X-62.365 Y5.466
N2420 X-62.376 Y8.544
N2425 X-62.383 Y11.622
N2430 X-62.39 Y16.24
N2435 X-62.395 Y22.396
N2440 X-62.36 Y23.935
N2445 X-62.051 Y25.443
N2450 X-61.479 Y26.871
N2455 X-60.685 Y28.19
N2460 X-59.714 Y29.384
N2465 X-58.605 Y30.451
N2470 X-57.39 Y31.396
N2475 X-56.095 Y32.227
N2480 X-54.737 Y32.953
N2485 X-53.334 Y33.584
N2490 X-51.895 Y34.132
N2495 X-50.431 Y34.604
N2500 X-48.946 Y35.012
N2505 X-47.448 Y35.362
N2510 X-45.938 Y35.663
N2515 X-44.421 Y35.921
N2520 X-42.898 Y36.141
N2525 X-41.37 Y36.329
N2530 X-39.839 Y36.49
N2535 X-38.306 Y36.627
N2540 X-36.772 Y36.744
N2545 X-35.236 Y36.844
N2550 X-33.699 Y36.928
N2555 X-33.264 Y36.949
N2560 X-32.842 Y36.995
N2565 X-32.43 Y37.093
N2570 X-32.033 Y37.241
N2575 X-31.657 Y37.437
N2580 X-31.308 Y37.679
N2585 X-30.568 Y38.263
N2590 X-30.229 Y38.526
N2595 X-28.069 Y40.128
N2600 X-27.53 Y40.508
N2605 X-26.99 Y40.887
N2610 X-26.883 Y40.957
N2615 X-23.751 Y42.836
N2620 X-23.277 Y43.113
N2625 X-23.211 Y43.15
N2630 X-22.671 Y43.424
N2635 X-22.199 Y43.652
N2640 X-19.604 Y44.878
N2645 X-19.598 Y44.883 Z-41.999
N2650 G2 X-17.808 Y47.058 Z-41.8 I17.651 J-12.705
N2655 X-14.188 Y50.154 I15.86 J-14.88
N2660 X-13.285 Y50.463 I1.013 J-1.488
N2665 G1 X7.083 Y51.705
N2670 G2 X8.018 Y51.508 I0.11 J-1.797
N2675 X11.987 Y48.875 I-9.965 J-19.33
N2680 X14.028 Y46.934 Z-41.999 I-13.935 J-16.697
N2685 G1 X14.035 Y46.93 Z-42.
N2690 X14.575 Y46.775
N2695 X16.194 Y46.197
N2700 X18.353 Y45.424
N2705 X18.893 Y45.204
N2710 X19.433 Y44.959
N2715 X21.592 Y43.939
N2720 X22.199 Y43.652
N2725 X22.671 Y43.424
N2730 X23.211 Y43.15
N2735 X23.277 Y43.113
N2740 X23.751 Y42.836
N2745 X25.37 Y41.865
N2750 X26.728 Y41.141
N2755 X28.094 Y40.506
N2760 X29.537 Y39.971
N2765 X31.011 Y39.53
N2770 X32.507 Y39.167
N2775 X34.017 Y38.867
N2780 X35.536 Y38.618
N2785 X37.061 Y38.412
N2790 X38.59 Y38.241
N2795 X40.123 Y38.1
N2800 X41.658 Y37.982
N2805 X43.194 Y37.884
N2810 X44.73 Y37.803
N2815 X46.268 Y37.735
N2820 X47.806 Y37.679
N2825 X49.339 Y37.543
N2830 X50.825 Y37.141
N2835 X52.221 Y36.493
N2840 X53.504 Y35.642
N2845 X54.661 Y34.628
N2850 X55.694 Y33.487
N2855 X56.607 Y32.248
N2860 X57.409 Y30.934
N2865 X58.11 Y29.564
N2870 X58.719 Y28.15
N2875 X59.246 Y26.705
N2880 X59.702 Y25.234
N2885 X60.095 Y23.746
N2890 X60.433 Y22.245
N2895 X60.723 Y20.733
N2900 X60.972 Y19.214
N2905 X61.184 Y17.69
N2910 X61.366 Y16.162
N2915 X61.521 Y14.63
N2920 X61.653 Y13.097
N2925 X61.766 Y11.562
N2930 X61.862 Y10.026
N2935 X61.944 Y8.489
N2940 X62.013 Y6.951
N2945 X62.072 Y5.413
N2950 X62.122 Y3.875
N2955 X62.165 Y2.337
N2960 X62.201 Y0.798
N2965 X62.232 Y-0.741
N2970 X62.258 Y-2.28
N2975 X62.28 Y-3.819
N2980 X62.298 Y-5.358
N2985 X62.314 Y-6.897
N2990 X62.327 Y-8.436
N2995 X62.339 Y-9.975
N3000 X62.348 Y-11.514
N3005 X62.356 Y-13.053
N3010 X62.363 Y-14.592
N3015 X62.374 Y-17.67
N3020 X62.381 Y-20.748
N3025 X62.384 Y-22.287
N3030 X62.368 Y-23.826
N3035 X62.082 Y-25.339
N3040 X61.528 Y-26.775
N3045 X60.748 Y-28.101
N3050 X59.788 Y-29.304
N3055 X58.688 Y-30.381
N3060 X57.479 Y-31.334
N3065 X56.189 Y-32.172
N3070 X54.835 Y-32.905
N3075 X53.435 Y-33.543
N3080 X51.998 Y-34.096
N3085 X50.535 Y-34.574
N3090 X49.052 Y-34.986
N3095 X47.555 Y-35.34
N3100 X46.046 Y-35.644
N3105 X44.529 Y-35.904
N3110 X43.006 Y-36.127
N3115 X41.479 Y-36.318
N3120 X39.948 Y-36.48
N3125 X38.415 Y-36.619
N3130 X36.881 Y-36.737
N3135 X35.345 Y-36.837
N3140 X33.808 Y-36.923
N3145 X33.262 Y-36.949
N3150 X32.841 Y-36.995
N3155 X32.429 Y-37.093
N3160 X32.032 Y-37.241
N3165 X31.656 Y-37.437
N3170 X31.308 Y-37.679
N3175 X30.568 Y-38.263
N3180 X30.229 Y-38.526
N3185 X28.069 Y-40.128
N3190 X27.53 Y-40.508
N3195 X26.99 Y-40.887
N3200 X26.883 Y-40.957
N3205 X23.751 Y-42.836
N3210 X23.277 Y-43.113
N3215 X23.211 Y-43.15
N3220 X22.671 Y-43.424
N3225 X22.199 Y-43.652
N3230 X19.604 Y-44.878
N3235 X19.597 Y-44.885 Z-41.999
N3240 G2 X18.153 Y-47.3 Z-41.8 I-17.409 J8.774
N3245 X15.546 Y-50.31 I-15.965 J11.189
N3250 X14.422 Y-50.796 I-1.233 J1.311
N3255 G1 X-8.172 Y-52.174
N3260 G2 X-9.346 Y-51.829 I-0.11 J1.797
N3265 X-12.3 Y-49.157 I11.534 J15.717
N3270 X-14.027 Y-46.936 Z-41.999 I14.487 J13.046
N3275 G1 X-14.035 Y-46.93 Z-42.
N3280 X-14.575 Y-46.775
N3285 X-16.194 Y-46.197
N3290 X-18.353 Y-45.424
N3295 X-18.893 Y-45.204
N3300 X-19.433 Y-44.959
N3305 X-21.592 Y-43.939
N3310 X-22.199 Y-43.652
N3315 X-22.671 Y-43.424
N3320 X-23.211 Y-43.15
N3325 X-23.277 Y-43.113
N3330 X-23.751 Y-42.836
N3335 X-25.37 Y-41.865
N3340 X-26.728 Y-41.141
N3345 X-28.094 Y-40.506
N3350 X-29.537 Y-39.971
N3355 X-31.011 Y-39.53
N3360 X-32.507 Y-39.167
N3365 X-34.017 Y-38.867
N3370 X-35.536 Y-38.618
N3375 X-37.061 Y-38.412
N3380 X-38.59 Y-38.241
N3385 X-40.123 Y-38.1
N3390 X-41.655 Y-37.955
N3395 X-43.148 Y-37.58
N3400 X-44.561 Y-36.97
N3405 X-45.867 Y-36.156
N3410 X-47.054 Y-35.176
N3415 X-48.119 Y-34.065
N3420 X-49.064 Y-32.85
N3425 X-49.898 Y-31.557
N3430 X-50.63 Y-30.203
N3435 X-51.269 Y-28.802
N3440 X-51.824 Y-27.367
N3445 X-52.305 Y-25.905
N3450 X-52.72 Y-24.423
N3455 X-53.079 Y-22.926
N3460 X-53.387 Y-21.418
N3465 X-53.652 Y-19.902
N3470 X-53.88 Y-18.38
N3475 X-54.075 Y-16.853
N3480 X-54.241 Y-15.323
N3485 X-54.384 Y-13.791
N3490 X-54.506 Y-12.257
N3495 X-54.609 Y-10.721
N3500 X-54.698 Y-9.184
N3505 X-54.774 Y-7.647
N3510 X-54.838 Y-6.109
N3515 X-54.893 Y-4.571
N3520 X-54.939 Y-3.033
N3525 X-54.979 Y-1.494
N3530 X-55.012 Y0.044
N3535 X-55.041 Y1.583
N3540 X-55.065 Y3.122
N3545 X-55.086 Y4.661
N3550 X-55.103 Y6.2
N3555 X-55.118 Y7.739
N3560 X-55.131 Y9.278
N3565 X-55.141 Y10.817
N3570 X-55.15 Y12.356
N3575 X-55.158 Y13.896
N3580 X-55.163 Y15.435
N3585 X-54.973 Y16.962
N3590 X-54.531 Y18.436
N3595 X-53.858 Y19.821
N3600 X-52.993 Y21.093
N3605 X-51.973 Y22.246
N3610 X-50.831 Y23.278
N3615 X-49.595 Y24.194
N3620 X-48.284 Y25.002
N3625 X-46.918 Y25.71
N3630 X-45.509 Y26.329
N3635 X-44.067 Y26.868
N3640 X-42.601 Y27.336
N3645 X-41.285 Y27.694
N3650 X-40.87 Y27.838
N3655 X-40.477 Y28.036
N3660 X-40.114 Y28.284
N3665 X-39.787 Y28.578
N3670 X-39.503 Y28.912
N3675 X-38.163 Y30.718
N3680 X-37.786 Y31.185
N3685 X-37.726 Y31.257
N3690 X-37.246 Y31.798
N3695 X-35.087 Y34.181
N3700 X-34.801 Y34.49
N3705 X-34.547 Y34.733
N3710 X-34.007 Y35.241
N3715 X-33.649 Y35.568
N3720 X-31.848 Y37.201
N3725 X-31.308 Y37.679
N3730 X-31.304 Y37.685 Z-41.999
N3735 G2 X-30.245 Y40.296 Z-41.8 I29.254 J-10.35
N3740 X-24.189 Y49.078 I28.194 J-12.961
N3745 X-23.038 Y49.612 I1.284 J-1.261
N3750 G1 X15.436 Y52.454
N3755 G2 X16.653 Y52.095 I0.133 J-1.795
N3760 X23.934 Y44.297 I-18.704 J-24.761
N3765 X25.365 Y41.871 Z-41.999 I-25.984 J-16.963
N3770 G1 X25.37 Y41.865 Z-42.
N3775 X26.883 Y40.957
N3780 X26.99 Y40.887
N3785 X27.658 Y40.418
N3790 X28.069 Y40.128
N3795 X30.229 Y38.526
N3800 X30.568 Y38.263
N3805 X31.308 Y37.679
N3810 X31.866 Y37.185
N3815 X32.928 Y36.222
N3820 X33.699 Y35.59
N3825 X34.6 Y34.966
N3830 X35.734 Y34.308
N3835 X37.123 Y33.645
N3840 X38.559 Y33.092
N3845 X40.027 Y32.629
N3850 X41.508 Y32.208
N3855 X42.941 Y31.646
N3860 X44.298 Y30.922
N3865 X45.561 Y30.042
N3870 X46.719 Y29.028
N3875 X47.768 Y27.901
N3880 X48.709 Y26.683
N3885 X49.547 Y25.392
N3890 X50.289 Y24.044
N3895 X50.943 Y22.651
N3900 X51.516 Y21.222
N3905 X52.018 Y19.767
N3910 X52.455 Y18.292
N3915 X52.835 Y16.8
N3920 X53.165 Y15.297
N3925 X53.45 Y13.784
N3930 X53.697 Y12.265
N3935 X53.91 Y10.741
N3940 X54.094 Y9.213
N3945 X54.252 Y7.682
N3950 X54.388 Y6.149
N3955 X54.505 Y4.614
N3960 X54.606 Y3.078
N3965 X54.692 Y1.542
N3970 X54.766 Y0.004
N3975 X54.829 Y-1.533
N3980 X54.884 Y-3.072
N3985 X54.93 Y-4.61
N3990 X54.97 Y-6.149
N3995 X55.004 Y-7.687
N4000 X55.033 Y-9.226
N4005 X55.057 Y-10.765
N4010 X55.079 Y-12.304
N4015 X55.097 Y-13.843
N4020 X55.111 Y-15.382
N4025 X54.936 Y-16.911
N4030 X54.507 Y-18.389
N4035 X53.845 Y-19.778
N4040 X52.986 Y-21.056
N4045 X51.972 Y-22.214
N4050 X50.834 Y-23.25
N4055 X49.6 Y-24.17
N4060 X48.292 Y-24.981
N4065 X46.928 Y-25.693
N4070 X45.52 Y-26.314
N4075 X44.079 Y-26.856
N4080 X42.613 Y-27.325
N4085 X41.286 Y-27.689
N4090 X40.872 Y-27.832
N4095 X40.48 Y-28.03
N4100 X40.118 Y-28.278
N4105 X39.792 Y-28.571
N4110 X39.508 Y-28.906
N4115 X38.163 Y-30.718
N4120 X37.786 Y-31.185
N4125 X37.726 Y-31.257
N4130 X37.246 Y-31.798
N4135 X35.087 Y-34.181
N4140 X34.801 Y-34.49
N4145 X34.547 Y-34.733
N4150 X34.007 Y-35.241
N4155 X33.649 Y-35.568
N4160 X31.848 Y-37.201
N4165 X31.308 Y-37.679
N4170 X31.304 Y-37.685 Z-41.999
N4175 G2 X30.245 Y-40.296 Z-41.8 I-29.254 J10.35
N4180 X24.189 Y-49.078 I-28.194 J12.961
N4185 X23.038 Y-49.612 I-1.284 J1.261
N4190 G1 X-15.436 Y-52.454
N4195 G2 X-16.653 Y-52.095 I-0.133 J1.795
N4200 X-23.934 Y-44.297 I18.704 J24.761
N4205 X-25.365 Y-41.871 Z-41.999 I25.984 J16.963
N4210 G1 X-25.37 Y-41.865 Z-42.
N4215 X-26.883 Y-40.957
N4220 X-26.99 Y-40.887
N4225 X-27.658 Y-40.418
N4230 X-28.069 Y-40.128
N4235 X-30.229 Y-38.526
N4240 X-30.568 Y-38.263
N4245 X-31.308 Y-37.679
N4250 X-31.866 Y-37.185
N4255 X-32.928 Y-36.222
N4260 X-33.713 Y-35.579
N4265 X-34.978 Y-34.702
N4270 X-36.248 Y-33.833
N4275 X-37.465 Y-32.891
N4280 X-38.609 Y-31.861
N4285 X-39.67 Y-30.746
N4290 X-40.641 Y-29.552
N4295 X-41.522 Y-28.29
N4300 X-42.316 Y-26.972
N4305 X-43.027 Y-25.606
N4310 X-43.658 Y-24.203
N4315 X-44.218 Y-22.769
N4320 X-44.711 Y-21.311
N4325 X-45.145 Y-19.835
N4330 X-45.526 Y-18.343
N4335 X-45.606 Y-17.982
N4340 X-45.633 Y-17.854
N4345 X-45.667 Y-17.71
N4350 X-45.708 Y-17.568
N4355 X-45.755 Y-17.429
N4360 X-46.591 Y-15.09
N4365 X-46.771 Y-14.551
N4370 X-46.95 Y-14.012
N4375 X-47.089 Y-13.473
N4380 X-47.764 Y-10.778
N4385 X-47.895 Y-10.239
N4390 X-48.042 Y-9.619
N4395 X-48.121 Y-9.161
N4400 X-48.207 Y-8.623
N4405 X-48.288 Y-8.084
N4410 X-48.607 Y-5.928
N4415 X-48.686 Y-5.389
N4420 X-48.751 Y-4.85
N4425 X-48.79 Y-4.311
N4430 X-48.826 Y-3.772
N4435 X-48.984 Y-0.539
N4440 Y0.539
N4445 X-48.826 Y3.772
N4450 X-48.79 Y4.311
N4455 X-48.751 Y4.85
N4460 X-48.686 Y5.389
N4465 X-48.582 Y6.105
N4470 X-48.288 Y8.084
N4475 X-48.207 Y8.623
N4480 X-48.121 Y9.161
N4485 X-48.042 Y9.619
N4490 X-47.895 Y10.239
N4495 X-47.764 Y10.778
N4500 X-47.089 Y13.473
N4505 X-46.95 Y14.012
N4510 X-46.771 Y14.551
N4515 X-46.591 Y15.09
N4520 X-45.821 Y17.245
N4525 X-45.432 Y18.323
N4530 X-45.343 Y18.561
N4535 X-44.97 Y19.401
N4540 X-44.803 Y19.764
N4545 X-43.7 Y22.095
N4550 X-43.441 Y22.634
N4555 X-43.184 Y23.139
N4560 X-42.644 Y24.071
N4565 X-41.243 Y26.407
N4570 X-40.56 Y27.484
N4575 X-40.162 Y28.023
N4580 X-39.503 Y28.912
N4585 G3 X-39.21 Y29.634 I-1.482 J1.021
N4590 G1 X-39.182 Y29.798 Z-41.992
N4595 X-39.155 Y29.961 Z-41.969
N4600 X-39.128 Y30.12 Z-41.931
N4605 X-39.102 Y30.276 Z-41.878
N4610 X-39.077 Y30.426 Z-41.811
N4615 X-39.052 Y30.569 Z-41.73
N4620 X-39.03 Y30.704 Z-41.636
N4625 X-39.008 Y30.83 Z-41.53
N4630 X-38.989 Y30.946 Z-41.413
N4635 X-38.971 Y31.051 Z-41.285
N4640 X-38.956 Y31.144 Z-41.148
N4645 X-38.942 Y31.223 Z-41.002
N4650 X-38.931 Y31.29 Z-40.85
N4655 X-38.922 Y31.342 Z-40.693
N4660 X-38.916 Y31.379 Z-40.531
N4665 X-38.912 Y31.402 Z-40.366
N4670 X-38.911 Y31.409 Z-40.2
N4675 G0 Z5.
N4680 G1 X-31.989 Y-38.613 F500.
N4685 G0 Z-38.4
N4690 G1 Z-40.2 F1000.
N4695 X-31.992 Y-38.606 Z-40.366
N4700 X-31.998 Y-38.584 Z-40.531
N4705 X-32.009 Y-38.547 Z-40.693
N4710 X-32.025 Y-38.497 Z-40.85
N4715 X-32.045 Y-38.433 Z-41.002
N4720 X-32.068 Y-38.355 Z-41.148
N4725 X-32.096 Y-38.265 Z-41.285
N4730 X-32.127 Y-38.164 Z-41.413
N4735 X-32.162 Y-38.052 Z-41.53
N4740 X-32.199 Y-37.929 Z-41.636
N4745 X-32.24 Y-37.798 Z-41.73
N4750 X-32.282 Y-37.659 Z-41.811
N4755 X-32.327 Y-37.514 Z-41.878
N4760 X-32.373 Y-37.363 Z-41.931
N4765 X-32.421 Y-37.209 Z-41.969
N4770 X-32.469 Y-37.051 Z-41.992
N4775 X-32.518 Y-36.892 Z-42.
N4780 G3 X-32.928 Y-36.222 I-1.513 J-0.465
N4785 G1 X-33.649 Y-35.568
N4790 X-34.007 Y-35.241
N4795 X-34.547 Y-34.733
N4800 X-34.801 Y-34.49
N4805 X-35.087 Y-34.181
N4810 X-37.248 Y-31.796
N4815 X-37.726 Y-31.257
N4820 X-37.786 Y-31.185
N4825 X-38.163 Y-30.718
N4830 X-40.162 Y-28.023
N4835 X-40.56 Y-27.484
N4840 X-41.243 Y-26.407
N4845 X-42.644 Y-24.071
N4850 X-43.184 Y-23.139
N4855 X-43.441 Y-22.634
N4860 X-43.724 Y-22.046
N4865 X-44.803 Y-19.764
N4870 X-44.97 Y-19.401
N4875 X-45.209 Y-18.862
N4880 G3 X-45.694 Y-18.252 I-1.618 J-0.788
N4885 G1 X-45.823 Y-18.147 Z-41.992
N4890 X-45.951 Y-18.044 Z-41.969
N4895 X-46.077 Y-17.942 Z-41.931
N4900 X-46.199 Y-17.842 Z-41.878
N4905 X-46.317 Y-17.747 Z-41.811
N4910 X-46.43 Y-17.655 Z-41.73
N4915 X-46.537 Y-17.569 Z-41.636
N4920 X-46.636 Y-17.488 Z-41.53
N4925 X-46.727 Y-17.414 Z-41.413
N4930 X-46.81 Y-17.347 Z-41.285
N4935 X-46.883 Y-17.288 Z-41.148
N4940 X-46.946 Y-17.237 Z-41.002
N4945 X-46.998 Y-17.195 Z-40.85
N4950 X-47.039 Y-17.162 Z-40.693
N4955 X-47.068 Y-17.138 Z-40.531
N4960 X-47.086 Y-17.123 Z-40.366
N4965 X-47.092 Y-17.118 Z-40.2
N4970 G0 Z5.
N4975 G1 X31.989 Y38.613 F500.
N4980 G0 Z-38.4
N4985 G1 Z-40.2 F1000.
N4990 X31.992 Y38.606 Z-40.366
N4995 X31.998 Y38.584 Z-40.531
N5000 X32.009 Y38.547 Z-40.693
N5005 X32.025 Y38.497 Z-40.85
N5010 X32.045 Y38.433 Z-41.002
N5015 X32.068 Y38.355 Z-41.148
N5020 X32.096 Y38.265 Z-41.285
N5025 X32.127 Y38.164 Z-41.413
N5030 X32.162 Y38.052 Z-41.53
N5035 X32.199 Y37.929 Z-41.636
N5040 X32.24 Y37.798 Z-41.73
N5045 X32.282 Y37.659 Z-41.811
N5050 X32.327 Y37.514 Z-41.878
N5055 X32.373 Y37.363 Z-41.931
N5060 X32.421 Y37.209 Z-41.969
N5065 X32.469 Y37.051 Z-41.992
N5070 X32.518 Y36.892 Z-42.
N5075 G3 X32.928 Y36.222 I1.513 J0.465
N5080 G1 X33.649 Y35.568
N5085 X34.007 Y35.241
N5090 X34.547 Y34.733
N5095 X34.801 Y34.49
N5100 X35.087 Y34.181
N5105 X37.248 Y31.796
N5110 X37.726 Y31.257
N5115 X37.786 Y31.185
N5120 X38.163 Y30.718
N5125 X40.162 Y28.023
N5130 X40.56 Y27.484
N5135 X41.243 Y26.407
N5140 X42.644 Y24.071
N5145 X43.184 Y23.139
N5150 X43.441 Y22.634
N5155 X43.724 Y22.046
N5160 X44.803 Y19.764
N5165 X44.97 Y19.401
N5170 X45.343 Y18.561
N5175 X45.432 Y18.323
N5180 X45.883 Y17.071
N5185 X46.591 Y15.09
N5190 X46.771 Y14.551
N5195 X46.95 Y14.012
N5200 X47.089 Y13.473
N5205 X47.764 Y10.778
N5210 X47.895 Y10.239
N5215 X48.042 Y9.619
N5220 X48.121 Y9.161
N5225 X48.207 Y8.623
N5230 X48.288 Y8.084
N5235 X48.607 Y5.928
N5240 X48.686 Y5.389
N5245 X48.751 Y4.85
N5250 X48.79 Y4.311
N5255 X48.826 Y3.772
N5260 X48.984 Y0.539
N5265 Y-0.539
N5270 X48.826 Y-3.772
N5275 X48.79 Y-4.311
N5280 X48.751 Y-4.85
N5285 X48.686 Y-5.389
N5290 X48.582 Y-6.105
N5295 X48.288 Y-8.084
N5300 X48.207 Y-8.623
N5305 X48.121 Y-9.161
N5310 X48.042 Y-9.619
N5315 X47.895 Y-10.239
N5320 X47.764 Y-10.778
N5325 X47.089 Y-13.473
N5330 X46.95 Y-14.012
N5335 X46.771 Y-14.551
N5340 X46.591 Y-15.09
N5345 X45.821 Y-17.245
N5350 X45.432 Y-18.323
N5355 X45.343 Y-18.561
N5360 X44.97 Y-19.401
N5365 X44.803 Y-19.764
N5370 X43.7 Y-22.095
N5375 X43.441 Y-22.634
N5380 X43.184 Y-23.139
N5385 X42.644 Y-24.071
N5390 X41.243 Y-26.407
N5395 X40.56 Y-27.484
N5400 X40.162 Y-28.023
N5405 X39.508 Y-28.906
N5410 G3 X39.215 Y-29.628 I1.482 J-1.021
N5415 G1 X39.187 Y-29.791 Z-41.992
N5420 X39.16 Y-29.954 Z-41.969
N5425 X39.133 Y-30.113 Z-41.931
N5430 X39.107 Y-30.269 Z-41.878
N5435 X39.082 Y-30.419 Z-41.811
N5440 X39.057 Y-30.562 Z-41.73
N5445 X39.035 Y-30.697 Z-41.636
N5450 X39.013 Y-30.823 Z-41.53
N5455 X38.994 Y-30.939 Z-41.413
N5460 X38.976 Y-31.044 Z-41.285
N5465 X38.961 Y-31.137 Z-41.148
N5470 X38.947 Y-31.217 Z-41.002
N5475 X38.936 Y-31.283 Z-40.85
N5480 X38.927 Y-31.335 Z-40.693
N5485 X38.921 Y-31.372 Z-40.531
N5490 X38.917 Y-31.395 Z-40.366
N5495 X38.916 Y-31.403 Z-40.2
N5500 G0 Z15.

(2D Contour1)
N5505 G1 X-76.8 Y64.4 F500.
N5510 G0 Z15.
N5515 Z5.
N5520 G1 Z1. F333.33
N5525 Z-60.2
N5530 G19 G2 Y62.6 Z-62. J-1.8 K0. F1000.
N5535 G1 Y60.8
N5540 G17 G3 X-75. Y59. I1.8 J0.
N5545 G1 X75.
N5550 G2 X84. Y50. I0. J-9.
N5555 G1 Y-50.
N5560 G2 X75. Y-59. I-9. J0.
N5565 G1 X-75.
N5570 G2 X-84. Y-50. I0. J9.
N5575 G1 Y50.
N5580 G2 X-75. Y59. I9. J0.
N5585 G3 X-73.2 Y60.8 I0. J1.8
N5590 G1 Y62.6
N5595 G19 G3 Y64.4 Z-60.2 J0. K1.8
N5600 G0 Z15.

(Spiral1)
N5605 G1 X-1.779 Y-0.275 F500.
N5610 G0 Z15.
N5615 Z0.
N5620 G1 Z-0.2 F333.33
N5625 X-1.771 Y-0.273 Z-0.366 F1000.
N5630 X-1.749 Y-0.27 Z-0.531
N5635 X-1.711 Y-0.264 Z-0.693
N5640 X-1.659 Y-0.256 Z-0.85
N5645 X-1.592 Y-0.246 Z-1.002
N5650 X-1.512 Y-0.233 Z-1.148
N5655 X-1.42 Y-0.219 Z-1.285
N5660 X-1.315 Y-0.203 Z-1.413
N5665 X-1.198 Y-0.185 Z-1.53
N5670 X-1.072 Y-0.165 Z-1.636
N5675 X-0.936 Y-0.145 Z-1.73
N5680 X-0.793 Y-0.122 Z-1.811
N5685 X-0.643 Y-0.099 Z-1.878
N5690 X-0.487 Y-0.075 Z-1.931
N5695 X-0.327 Y-0.05 Z-1.969
N5700 X-0.164 Y-0.025 Z-1.992
N5705 X0. Y0. Z-2.
N5710 X0.108 Y0.017
N5715 X0.209 Y0.066
N5720 X0.295 Y0.146
N5725 X0.359 Y0.252
N5730 X0.391 Y0.353
N5735 X0.402 Y0.465
N5740 X0.391 Y0.584
N5745 X0.356 Y0.705
N5750 X0.281 Y0.851
N5755 X0.212 Y0.944
N5760 X0.126 Y1.03
N5765 X-0.013 Y1.133
N5770 X-0.166 Y1.211
N5775 X-0.339 Y1.268
N5780 X-0.448 Y1.289
N5785 X-0.562 Y1.301
N5790 X-0.74 Y1.3
N5795 X-0.911 Y1.277
N5800 X-1.023 Y1.251
N5805 X-1.135 Y1.215
N5810 X-1.348 Y1.121
N5815 X-1.545 Y0.998
N5820 X-1.724 Y0.85
N5825 X-1.883 Y0.68
N5830 X-2.02 Y0.492
N5835 X-2.134 Y0.29
N5840 X-2.224 Y0.076
N5845 X-2.291 Y-0.147
N5850 X-2.334 Y-0.375
N5855 X-2.354 Y-0.607
N5860 X-2.35 Y-0.839
N5865 X-2.325 Y-1.07
N5870 X-2.277 Y-1.298
N5875 X-2.209 Y-1.52
N5880 X-2.122 Y-1.735
N5885 X-2.016 Y-1.942
N5890 X-1.893 Y-2.139
N5895 X-1.754 Y-2.325
N5900 X-1.6 Y-2.499
N5905 X-1.432 Y-2.66
N5910 X-1.253 Y-2.808
N5915 X-1.062 Y-2.941
N5920 X-0.862 Y-3.059
N5925 X-0.654 Y-3.162
N5930 X-0.439 Y-3.249
N5935 X-0.218 Y-3.321
N5940 X0.008 Y-3.377
N5945 X0.237 Y-3.416
N5950 X0.468 Y-3.44
N5955 X0.7 Y-3.448
N5960 X0.932 Y-3.44
N5965 X1.28 Y-3.4
N5970 X1.619 Y-3.326
N5975 X1.951 Y-3.22
N5980 X2.271 Y-3.083
N5985 X2.579 Y-2.917
N5990 X2.868 Y-2.725
N5995 X3.14 Y-2.507
N6000 X3.391 Y-2.265
N6005 X3.621 Y-2.003
N6010 X3.827 Y-1.723
N6015 X4.009 Y-1.426
N6020 X4.166 Y-1.114
N6025 X4.298 Y-0.791
N6030 X4.402 Y-0.459
N6035 X4.479 Y-0.119
N6040 X4.53 Y0.226
N6045 X4.554 Y0.574
N6050 X4.551 Y0.922
N6055 X4.521 Y1.269
N6060 X4.466 Y1.613
N6065 X4.385 Y1.953
N6070 X4.28 Y2.284
N6075 X4.151 Y2.608
N6080 X3.998 Y2.921
N6085 X3.824 Y3.224
N6090 X3.63 Y3.512
N6095 X3.415 Y3.787
N6100 X3.182 Y4.046
N6105 X2.932 Y4.289
N6110 X2.666 Y4.514
N6115 X2.386 Y4.721
N6120 X2.191 Y4.849
N6125 X1.992 Y4.967
N6130 X1.787 Y5.077
N6135 X1.578 Y5.178
N6140 X1.364 Y5.27
N6145 X1.147 Y5.352
N6150 X0.926 Y5.425
N6155 X0.703 Y5.489
N6160 X0.477 Y5.543
N6165 X0.249 Y5.587
N6170 X0.019 Y5.623
N6175 X-0.211 Y5.648
N6180 X-0.444 Y5.664
N6185 X-0.675 Y5.67
N6190 X-0.908 Y5.667
N6195 X-1.14 Y5.654
N6200 X-1.371 Y5.631
N6205 X-1.601 Y5.6
N6210 X-1.83 Y5.559
N6215 X-2.057 Y5.509
N6220 X-2.282 Y5.451
N6225 X-2.504 Y5.383
N6230 X-2.724 Y5.306
N6235 X-2.94 Y5.222
N6240 X-3.153 Y5.128
N6245 X-3.361 Y5.027
N6250 X-3.567 Y4.917
N6255 X-3.767 Y4.8
N6260 X-3.963 Y4.675
N6265 X-4.154 Y4.543
N6270 X-4.34 Y4.403
N6275 X-4.52 Y4.257
N6280 X-4.695 Y4.103
N6285 X-4.864 Y3.944
N6290 X-5.183 Y3.607
N6295 X-5.477 Y3.247
N6300 X-5.743 Y2.866
N6305 X-5.981 Y2.467
N6310 X-6.19 Y2.052
N6315 X-6.368 Y1.623
N6320 X-6.515 Y1.182
N6325 X-6.631 Y0.732
N6330 X-6.715 Y0.275
N6335 X-6.767 Y-0.187
N6340 X-6.787 Y-0.651
N6345 X-6.776 Y-1.115
N6350 X-6.732 Y-1.578
N6355 X-6.658 Y-2.037
N6360 X-6.553 Y-2.489
N6365 X-6.418 Y-2.934
N6370 X-6.254 Y-3.369
N6375 X-6.062 Y-3.792
N6380 X-5.843 Y-4.201
N6385 X-5.597 Y-4.596
N6390 X-5.327 Y-4.974
N6395 X-5.033 Y-5.333
N6400 X-4.717 Y-5.674
N6405 X-4.38 Y-5.993
N6410 X-4.023 Y-6.291
N6415 X-3.648 Y-6.566
N6420 X-3.258 Y-6.817
N6425 X-2.852 Y-7.044
N6430 X-2.433 Y-7.245
N6435 X-2.003 Y-7.421
N6440 X-1.563 Y-7.57
N6445 X-1.114 Y-7.692
N6450 X-0.659 Y-7.787
N6455 X-0.2 Y-7.854
N6460 X0.263 Y-7.894
N6465 X0.728 Y-7.907
N6470 X1.192 Y-7.893
N6475 X1.655 Y-7.851
N6480 X2.115 Y-7.783
N6485 X2.569 Y-7.688
N6490 X3.018 Y-7.567
N6495 X3.459 Y-7.421
N6500 X3.891 Y-7.25
N6505 X4.313 Y-7.054
N6510 X4.722 Y-6.835
N6515 X5.119 Y-6.594
N6520 X5.502 Y-6.33
N6525 X5.87 Y-6.046
N6530 X6.221 Y-5.742
N6535 X6.555 Y-5.419
N6540 X6.871 Y-5.078
N6545 X7.168 Y-4.721
N6550 X7.445 Y-4.348
N6555 X7.701 Y-3.96
N6560 X7.936 Y-3.56
N6565 X8.15 Y-3.147
N6570 X8.341 Y-2.723
N6575 X8.509 Y-2.29
N6580 X8.654 Y-1.849
N6585 X8.776 Y-1.4
N6590 X8.874 Y-0.946
N6595 X8.948 Y-0.487
N6600 X9.003 Y0.033
N6605 X9.027 Y0.579 Z-2.001
N6610 X9.02 Y1.102
N6615 X8.983 Y1.623 Z-2.002
N6620 X8.924 Y2.084 Z-2.003
N6625 X8.831 Y2.599
N6630 X8.7 Y3.135 Z-2.004
N6635 X8.61 Y3.441
N6640 X8.44 Y3.936 Z-2.005
N6645 X8.242 Y4.42 Z-2.006
N6650 X8.044 Y4.84
N6655 X7.778 Y5.332 Z-2.007
N6660 X7.492 Y5.795
N6665 X7.192 Y6.223 Z-2.008
N6670 X6.907 Y6.589 Z-2.009
N6675 X6.535 Y7.016
N6680 X6.2 Y7.36 Z-2.01
N6685 X5.861 Y7.677
N6690 X5.438 Y8.031 Z-2.011
N6695 X5.137 Y8.259
N6700 X4.673 Y8.578 Z-2.012
N6705 X4.361 Y8.77
N6710 X3.865 Y9.044 Z-2.013
N6715 X3.54 Y9.205 Z-2.014
N6720 X3.021 Y9.431
N6725 X2.681 Y9.56 Z-2.015
N6730 X2.241 Y9.707
N6735 X1.737 Y9.848 Z-2.016
N6740 X1.171 Y9.973
N6745 X0.596 Y10.065 Z-2.017
N6750 X0.192 Y10.11
N6755 X-0.383 Y10.145 Z-2.018
N6760 X-0.852 Y10.149 Z-2.019
N6765 X-1.432 Y10.125
N6770 X-1.996 Y10.069 Z-2.02
N6775 X-2.47 Y9.998 Z-2.022
N6780 X-3.011 Y9.888 Z-2.024
N6785 X-3.545 Y9.75 Z-2.025
N6790 X-4.044 Y9.593 Z-2.027
N6795 X-4.574 Y9.395 Z-2.029
N6800 X-5.014 Y9.205 Z-2.03
N6805 X-5.484 Y8.975 Z-2.032
N6810 X-5.941 Y8.722 Z-2.034
N6815 X-6.434 Y8.415 Z-2.036
N6820 X-6.891 Y8.094 Z-2.037
N6825 X-7.185 Y7.868 Z-2.039
N6830 X-7.542 Y7.57 Z-2.04
N6835 X-7.969 Y7.177 Z-2.042
N6840 X-8.375 Y6.761 Z-2.044
N6845 X-8.757 Y6.324 Z-2.045
N6850 X-9.116 Y5.867 Z-2.047
N6855 X-9.453 Y5.385 Z-2.049
N6860 X-9.636 Y5.097 Z-2.05
N6865 X-9.872 Y4.697 Z-2.052
N6870 X-10.135 Y4.195 Z-2.053
N6875 X-10.29 Y3.867 Z-2.054
N6880 X-10.472 Y3.44 Z-2.056
N6885 X-10.67 Y2.909 Z-2.058
N6890 X-10.782 Y2.564 Z-2.059
N6895 X-10.909 Y2.117 Z-2.06
N6900 X-11.045 Y1.537 Z-2.062
N6905 X-11.144 Y0.98 Z-2.064
N6910 X-11.217 Y0.403 Z-2.065
N6915 X-11.26 Y-0.176 Z-2.067
N6920 X-11.273 Y-0.757 Z-2.069
N6925 X-11.256 Y-1.337 Z-2.071
N6930 X-11.209 Y-1.916 Z-2.072
N6935 X-11.132 Y-2.492 Z-2.074
N6940 X-11.027 Y-3.063 Z-2.076
N6945 X-10.892 Y-3.628 Z-2.077
N6950 X-10.729 Y-4.186 Z-2.079
N6955 X-10.535 Y-4.741 Z-2.082
N6960 X-10.319 Y-5.272 Z-2.085
N6965 X-10.068 Y-5.812 Z-2.088
N6970 X-9.803 Y-6.312 Z-2.091
N6975 X-9.507 Y-6.812 Z-2.093
N6980 X-9.186 Y-7.296 Z-2.096
N6985 X-8.841 Y-7.764 Z-2.099
N6990 X-8.464 Y-8.225 Z-2.102
N6995 X-8.085 Y-8.645 Z-2.104
N7000 X-7.675 Y-9.057 Z-2.107
N7005 X-7.246 Y-9.448 Z-2.11
N7010 X-6.781 Y-9.831 Z-2.113
N7015 X-6.332 Y-10.165 Z-2.115
N7020 X-5.851 Y-10.489 Z-2.118
N7025 X-5.354 Y-10.79 Z-2.121
N7030 X-4.843 Y-11.066 Z-2.124
N7035 X-4.319 Y-11.318 Z-2.126
N7040 X-3.784 Y-11.544 Z-2.129
N7045 X-3.211 Y-11.753 Z-2.132
N7050 X-2.684 Y-11.918 Z-2.134
N7055 X-2.094 Y-12.072 Z-2.137
N7060 X-1.554 Y-12.185 Z-2.14
N7065 X-0.952 Y-12.283 Z-2.143
N7070 X-0.404 Y-12.345 Z-2.145
N7075 X0.176 Y-12.384 Z-2.148
N7080 X0.756 Y-12.396 Z-2.15
N7085 X1.337 Y-12.38 Z-2.153
N7090 X1.945 Y-12.335 Z-2.156
N7095 X2.55 Y-12.259 Z-2.158
N7100 X3.123 Y-12.16 Z-2.161
N7105 X3.633 Y-12.049 Z-2.163
N7110 X4.195 Y-11.9 Z-2.166
N7115 X4.749 Y-11.725 Z-2.169
N7120 X5.294 Y-11.526 Z-2.171
N7125 X5.83 Y-11.301 Z-2.174
N7130 X6.394 Y-11.032 Z-2.177
N7135 X6.868 Y-10.779 Z-2.179
N7140 X7.358 Y-10.49 Z-2.183
N7145 X7.864 Y-10.159 Z-2.187
N7150 X8.343 Y-9.812 Z-2.19
N7155 X8.758 Y-9.484 Z-2.194
N7160 X9.194 Y-9.107 Z-2.197
N7165 X9.611 Y-8.713 Z-2.201
N7170 X10.043 Y-8.265 Z-2.204
N7175 X10.453 Y-7.797 Z-2.208
N7180 X10.84 Y-7.311 Z-2.212
N7185 X11.204 Y-6.806 Z-2.216
N7190 X11.543 Y-6.284 Z-2.219
N7195 X11.859 Y-5.745 Z-2.223
N7200 X12.148 Y-5.191 Z-2.227
N7205 X12.412 Y-4.622 Z-2.231
N7210 X12.649 Y-4.04 Z-2.234
N7215 X12.859 Y-3.446 Z-2.238
N7220 X13.04 Y-2.842 Z-2.242
N7225 X13.193 Y-2.228 Z-2.246
N7230 X13.315 Y-1.619 Z-2.249
N7235 X13.399 Y-1.082 Z-2.252
N7240 X13.466 Y-0.475 Z-2.256
N7245 X13.504 Y0.083 Z-2.259
N7250 X13.519 Y0.616 Z-2.262
N7255 X13.509 Y1.231 Z-2.266
N7260 X13.476 Y1.793 Z-2.269
N7265 X13.423 Y2.327 Z-2.272
N7270 X13.335 Y2.94 Z-2.276
N7275 X13.231 Y3.497 Z-2.279
N7280 X13.11 Y4.024 Z-2.282
N7285 X12.944 Y4.625 Z-2.286
N7290 X12.769 Y5.168 Z-2.289
N7295 X12.582 Y5.679 Z-2.292
N7300 X12.34 Y6.258 Z-2.296
N7305 X12.072 Y6.826 Z-2.299
N7310 X11.791 Y7.36 Z-2.303
N7315 X11.515 Y7.835 Z-2.306
N7320 X11.19 Y8.345 Z-2.309
N7325 X10.841 Y8.842 Z-2.313
N7330 X10.506 Y9.281 Z-2.316
N7335 X10.128 Y9.735 Z-2.32
N7340 X9.755 Y10.148 Z-2.324
N7345 X9.333 Y10.578 Z-2.329
N7350 X8.88 Y11.002 Z-2.333
N7355 X8.456 Y11.367 Z-2.337
N7360 X7.973 Y11.748 Z-2.342
N7365 X7.477 Y12.106 Z-2.346
N7370 X6.955 Y12.449 Z-2.351
N7375 X6.435 Y12.76 Z-2.355
N7380 X5.931 Y13.033 Z-2.359
N7385 X5.377 Y13.305 Z-2.363
N7390 X4.842 Y13.539 Z-2.368
N7395 X4.272 Y13.762 Z-2.372
N7400 X3.725 Y13.949 Z-2.376
N7405 X3.128 Y14.127 Z-2.38
N7410 X2.512 Y14.281 Z-2.385
N7415 X1.952 Y14.397 Z-2.389
N7420 X1.326 Y14.499 Z-2.393
N7425 X0.696 Y14.574 Z-2.398
N7430 X0.049 Y14.623 Z-2.402
N7435 X-0.529 Y14.641 Z-2.406
N7440 X-1.156 Y14.636 Z-2.411
N7445 X-1.792 Y14.603 Z-2.415
N7450 X-2.404 Y14.545 Z-2.419
N7455 X-3.028 Y14.459 Z-2.424
N7460 X-3.598 Y14.357 Z-2.427
N7465 X-4.226 Y14.217 Z-2.432
N7470 X-4.836 Y14.054 Z-2.436
N7475 X-5.459 Y13.857 Z-2.441
N7480 X-5.991 Y13.665 Z-2.445
N7485 X-6.59 Y13.421 Z-2.449
N7490 X-7.166 Y13.157 Z-2.453
N7495 X-7.732 Y12.868 Z-2.458
N7500 X-8.288 Y12.554 Z-2.462
N7505 X-8.782 Y12.247 Z-2.466
N7510 X-9.33 Y11.875 Z-2.47
N7515 X-9.86 Y11.48 Z-2.475
N7520 X-10.32 Y11.107 Z-2.479
N7525 X-10.803 Y10.681 Z-2.483
N7530 X-11.278 Y10.224 Z-2.488
N7535 X-11.713 Y9.769 Z-2.492
N7540 X-12.103 Y9.327 Z-2.496
N7545 X-12.488 Y8.854 Z-2.501
N7550 X-12.862 Y8.355 Z-2.506
N7555 X-13.209 Y7.85 Z-2.511
N7560 X-13.555 Y7.3 Z-2.517
N7565 X-13.884 Y6.724 Z-2.522
N7570 X-14.189 Y6.132 Z-2.527
N7575 X-14.459 Y5.551 Z-2.533
N7580 X-14.706 Y4.951 Z-2.538
N7585 X-14.912 Y4.389 Z-2.543
N7590 X-15.117 Y3.751 Z-2.548
N7595 X-15.25 Y3.277 Z-2.552
N7600 X-15.401 Y2.655 Z-2.557
N7605 X-15.513 Y2.093 Z-2.562
N7610 X-15.609 Y1.501 Z-2.566
N7615 X-15.679 Y0.944 Z-2.571
N7620 X-15.732 Y0.325 Z-2.576
N7625 X-15.756 Y-0.146 Z-2.58
N7630 X-15.766 Y-0.685 Z-2.584
N7635 X-15.76 Y-1.16 Z-2.588
N7640 X-15.73 Y-1.783 Z-2.593
N7645 X-15.677 Y-2.393 Z-2.597
N7650 X-15.592 Y-3.059 Z-2.603
N7655 X-15.491 Y-3.653 Z-2.608
N7660 X-15.354 Y-4.305 Z-2.613
N7665 X-15.199 Y-4.914 Z-2.618
N7670 X-15.012 Y-5.545 Z-2.623
N7675 X-14.814 Y-6.127 Z-2.628
N7680 X-14.573 Y-6.75 Z-2.633
N7685 X-14.344 Y-7.281 Z-2.637
N7690 X-14.049 Y-7.898 Z-2.643
N7695 X-13.76 Y-8.444 Z-2.647
N7700 X-13.433 Y-9.007 Z-2.652
N7705 X-13.131 Y-9.484 Z-2.657
N7710 X-12.796 Y-9.974 Z-2.661
N7715 X-12.416 Y-10.487 Z-2.666
N7720 X-12.05 Y-10.944 Z-2.671
N7725 X-11.68 Y-11.373 Z-2.675
N7730 X-11.246 Y-11.842 Z-2.68
N7735 X-10.817 Y-12.27 Z-2.684
N7740 X-10.317 Y-12.732 Z-2.69
N7745 X-9.835 Y-13.142 Z-2.695
N7750 X-9.301 Y-13.562 Z-2.7
N7755 X-8.814 Y-13.914 Z-2.704
N7760 X-8.266 Y-14.279 Z-2.709
N7765 X-7.753 Y-14.594 Z-2.715
N7770 X-7.239 Y-14.884 Z-2.72
N7775 X-6.659 Y-15.183 Z-2.726
N7780 X-6.123 Y-15.434 Z-2.731
N7785 X-5.549 Y-15.678 Z-2.737
N7790 X-4.901 Y-15.924 Z-2.743
N7795 X-4.283 Y-16.13 Z-2.749
N7800 X-3.657 Y-16.312 Z-2.755
N7805 X-3.034 Y-16.467 Z-2.76
N7810 X-2.402 Y-16.599 Z-2.766
N7815 X-1.759 Y-16.707 Z-2.772
N7820 X-1.173 Y-16.784 Z-2.777
N7825 X-0.526 Y-16.844 Z-2.783
N7830 X0.092 Y-16.879 Z-2.788
N7835 X0.723 Y-16.89 Z-2.794
N7840 X1.404 Y-16.876 Z-2.8
N7845 X2.01 Y-16.841 Z-2.805
N7850 X2.667 Y-16.777 Z-2.811
N7855 X3.323 Y-16.688 Z-2.816
N7860 X3.969 Y-16.575 Z-2.822
N7865 X4.62 Y-16.434 Z-2.828
N7870 X5.202 Y-16.286 Z-2.833
N7875 X5.834 Y-16.099 Z-2.839
N7880 X6.432 Y-15.899 Z-2.844
N7885 X7.034 Y-15.671 Z-2.85
N7890 X7.672 Y-15.401 Z-2.856
N7895 X8.23 Y-15.139 Z-2.861
N7900 X8.821 Y-14.835 Z-2.867
N7905 X9.345 Y-14.54 Z-2.872
N7910 X9.87 Y-14.22 Z-2.877
N7915 X10.428 Y-13.85 Z-2.883
N7920 X10.909 Y-13.507 Z-2.888
N7925 X11.4 Y-13.129 Z-2.893
N7930 X11.881 Y-12.73 Z-2.899
N7935 X12.382 Y-12.283 Z-2.904
N7940 X12.819 Y-11.862 Z-2.909
N7945 X13.251 Y-11.416 Z-2.915
N7950 X13.674 Y-10.947 Z-2.92
N7955 X14.087 Y-10.455 Z-2.926
N7960 X14.471 Y-9.961 Z-2.931
N7965 X14.842 Y-9.448 Z-2.936
N7970 X15.218 Y-8.884 Z-2.942
N7975 X15.539 Y-8.363 Z-2.947
N7980 X15.848 Y-7.818 Z-2.952
N7985 X16.144 Y-7.251 Z-2.958
N7990 X16.423 Y-6.665 Z-2.963
N7995 X16.651 Y-6.139 Z-2.969
N8000 X16.851 Y-5.636 Z-2.974
N8005 X17.059 Y-5.06 Z-2.98
N8010 X17.249 Y-4.47 Z-2.986
N8015 X17.401 Y-3.938 Z-2.991
N8020 X17.537 Y-3.398 Z-2.997
N8025 X17.656 Y-2.852 Z-3.002
N8030 X17.759 Y-2.3 Z-3.007
N8035 X17.845 Y-1.743 Z-3.013
N8040 X17.914 Y-1.183 Z-3.018
N8045 X17.965 Y-0.619 Z-3.024
N8050 X17.998 Y-0.052 Z-3.029
N8055 X18.013 Y0.516 Z-3.034
N8060 X18.01 Y1.086 Z-3.04
N8065 X17.99 Y1.656 Z-3.045
N8070 X17.951 Y2.226 Z-3.051
N8075 X17.894 Y2.796 Z-3.056
N8080 X17.819 Y3.364 Z-3.062
N8085 X17.726 Y3.93 Z-3.067
N8090 X17.615 Y4.493 Z-3.072
N8095 X17.486 Y5.054 Z-3.078
N8100 X17.339 Y5.611 Z-3.083
N8105 X17.174 Y6.163 Z-3.089
N8110 X16.992 Y6.711 Z-3.094
N8115 X16.792 Y7.253 Z-3.1
N8120 X16.575 Y7.79 Z-3.105
N8125 X16.341 Y8.32 Z-3.11
N8130 X16.09 Y8.843 Z-3.116
N8135 X15.822 Y9.358 Z-3.121
N8140 X15.538 Y9.865 Z-3.127
N8145 X15.237 Y10.364 Z-3.132
N8150 X14.92 Y10.853 Z-3.138
N8155 X14.588 Y11.333 Z-3.143
N8160 X14.24 Y11.803 Z-3.148
N8165 X13.877 Y12.262 Z-3.154
N8170 X13.499 Y12.71 Z-3.159
N8175 X13.107 Y13.146 Z-3.165
N8180 X12.701 Y13.57 Z-3.17
N8185 X12.281 Y13.981 Z-3.176
N8190 X11.847 Y14.379 Z-3.181
N8195 X11.401 Y14.764 Z-3.186
N8200 X10.942 Y15.135 Z-3.192
N8205 X10.472 Y15.492 Z-3.197
N8210 X9.989 Y15.834 Z-3.203
N8215 X9.495 Y16.162 Z-3.208
N8220 X8.991 Y16.473 Z-3.214
N8225 X8.476 Y16.769 Z-3.219
N8230 X7.952 Y17.049 Z-3.225
N8235 X7.418 Y17.313 Z-3.23
N8240 X6.876 Y17.559 Z-3.235
N8245 X6.326 Y17.789 Z-3.241
N8250 X5.768 Y18.002 Z-3.246
N8255 X5.202 Y18.197 Z-3.252
N8260 X4.631 Y18.374 Z-3.257
N8265 X4.107 Y18.519 Z-3.263
N8270 X3.551 Y18.655 Z-3.269
N8275 X2.991 Y18.775 Z-3.274
N8280 X2.351 Y18.891 Z-3.281
N8285 X1.748 Y18.979 Z-3.287
N8290 X1.211 Y19.041 Z-3.293
N8295 X0.619 Y19.092 Z-3.299
N8300 X-0.078 Y19.128 Z-3.306
N8305 X-0.643 Y19.138 Z-3.312
N8310 X-1.207 Y19.132 Z-3.318
N8315 X-1.791 Y19.108 Z-3.324
N8320 X-2.432 Y19.061 Z-3.33
N8325 X-3.066 Y18.994 Z-3.337
N8330 X-3.63 Y18.916 Z-3.343
N8335 X-4.22 Y18.816 Z-3.349
N8340 X-4.91 Y18.674 Z-3.356
N8345 X-5.463 Y18.542 Z-3.362
N8350 X-6.018 Y18.392 Z-3.367
N8355 X-6.591 Y18.218 Z-3.373
N8360 X-7.263 Y17.989 Z-3.381
N8365 X-7.795 Y17.788 Z-3.386
N8370 X-8.349 Y17.559 Z-3.392
N8375 X-8.868 Y17.326 Z-3.398
N8380 X-9.486 Y17.025 Z-3.405
N8385 X-10.014 Y16.745 Z-3.411
N8390 X-10.533 Y16.45 Z-3.417
N8395 X-11.077 Y16.117 Z-3.423
N8400 X-11.606 Y15.769 Z-3.43
N8405 X-12.094 Y15.426 Z-3.436
N8410 X-12.553 Y15.081 Z-3.441
N8415 X-13.019 Y14.71 Z-3.447
N8420 X-13.51 Y14.293 Z-3.454
N8425 X-13.95 Y13.895 Z-3.46
N8430 X-14.389 Y13.472 Z-3.466
N8435 X-14.791 Y13.061 Z-3.471
N8440 X-15.258 Y12.552 Z-3.478
N8445 X-15.612 Y12.139 Z-3.483
N8450 X-15.946 Y11.73 Z-3.489
N8455 X-16.298 Y11.272 Z-3.495
N8460 X-16.651 Y10.785 Z-3.5
N8465 X-16.995 Y10.277 Z-3.507
N8470 X-17.322 Y9.76 Z-3.513
N8475 X-17.518 Y9.432 Z-3.517
N8480 X-17.798 Y8.938 Z-3.522
N8485 X-18.085 Y8.396 Z-3.528
N8490 X-18.348 Y7.858 Z-3.534
N8495 X-18.633 Y7.227 Z-3.541
N8500 X-18.886 Y6.608 Z-3.547
N8505 X-19.099 Y6.039 Z-3.553
N8510 X-19.294 Y5.463 Z-3.559
N8515 X-19.472 Y4.879 Z-3.565
N8520 X-19.639 Y4.265 Z-3.571
N8525 X-19.78 Y3.673 Z-3.577
N8530 X-19.904 Y3.077 Z-3.583
N8535 X-20.005 Y2.503 Z-3.589
N8540 X-20.1 Y1.843 Z-3.596
N8545 X-20.165 Y1.266 Z-3.602
N8550 X-20.22 Y0.596 Z-3.61
N8555 X-20.249 Y0.015 Z-3.616
N8560 X-20.263 Y-0.667 Z-3.623
N8565 X-20.256 Y-1.253 Z-3.63
N8570 X-20.226 Y-1.942 Z-3.637
N8575 X-20.181 Y-2.531 Z-3.644
N8580 X-20.118 Y-3.137 Z-3.65
N8585 X-20.038 Y-3.726 Z-3.657
N8590 X-19.937 Y-4.338 Z-3.663
N8595 X-19.826 Y-4.906 Z-3.67
N8600 X-19.726 Y-5.353 Z-3.675
N8605 X-19.589 Y-5.907 Z-3.681
N8610 X-19.423 Y-6.498 Z-3.687
N8615 X-19.248 Y-7.059 Z-3.694
N8620 X-19.062 Y-7.601 Z-3.7
N8625 X-18.844 Y-8.182 Z-3.706
N8630 X-18.587 Y-8.805 Z-3.714
N8635 X-18.348 Y-9.336 Z-3.72
N8640 X-18.048 Y-9.954 Z-3.727
N8645 X-17.772 Y-10.479 Z-3.733
N8650 X-17.432 Y-11.08 Z-3.741
N8655 X-17.127 Y-11.582 Z-3.747
N8660 X-16.788 Y-12.105 Z-3.754
N8665 X-16.502 Y-12.521 Z-3.76
N8670 X-16.195 Y-12.945 Z-3.765
N8675 X-15.845 Y-13.401 Z-3.771
N8680 X-15.399 Y-13.949 Z-3.779
N8685 X-14.998 Y-14.409 Z-3.785
N8690 X-14.524 Y-14.921 Z-3.792
N8695 X-14.095 Y-15.355 Z-3.799
N8700 X-13.644 Y-15.785 Z-3.805
N8705 X-13.205 Y-16.18 Z-3.811
N8710 X-12.781 Y-16.541 Z-3.817
N8715 X-12.329 Y-16.905 Z-3.823
N8720 X-11.769 Y-17.329 Z-3.831
N8725 X-11.262 Y-17.688 Z-3.837
N8730 X-10.695 Y-18.064 Z-3.845
N8735 X-10.177 Y-18.384 Z-3.851
N8740 X-9.789 Y-18.611 Z-3.856
N8745 X-9.259 Y-18.903 Z-3.862
N8750 X-8.727 Y-19.177 Z-3.868
N8755 X-8.073 Y-19.488 Z-3.876
N8760 X-7.503 Y-19.737 Z-3.882
N8765 X-6.915 Y-19.973 Z-3.889
N8770 X-6.385 Y-20.169 Z-3.895
N8775 X-5.723 Y-20.391 Z-3.902
N8780 X-5.131 Y-20.57 Z-3.908
N8785 X-4.446 Y-20.753 Z-3.916
N8790 X-3.838 Y-20.895 Z-3.922
N8795 X-3.138 Y-21.036 Z-3.93
N8800 X-2.518 Y-21.141 Z-3.936
N8805 X-1.808 Y-21.237 Z-3.943
N8810 X-1.181 Y-21.303 Z-3.95
N8815 X-0.444 Y-21.356 Z-3.958
N8820 X0.113 Y-21.378 Z-3.964
N8825 X0.723 Y-21.387 Z-3.971
N8830 X1.326 Y-21.378 Z-3.978
N8835 X1.832 Y-21.358 Z-3.984
N8840 X2.407 Y-21.32 Z-3.991
N8845 X3.026 Y-21.262 Z-3.998
N8850 X3.609 Y-21.191 Z-4.004
N8855 X4.181 Y-21.105 Z-4.011
N8860 X4.782 Y-20.998 Z-4.018
N8865 X5.367 Y-20.876 Z-4.025
N8870 X5.94 Y-20.741 Z-4.032
N8875 X6.438 Y-20.61 Z-4.037
N8880 X7.019 Y-20.44 Z-4.044
N8885 X7.591 Y-20.256 Z-4.051
N8890 X8.192 Y-20.043 Z-4.058
N8895 X8.79 Y-19.812 Z-4.065
N8900 X9.457 Y-19.529 Z-4.073
N8905 X10.023 Y-19.267 Z-4.08
N8910 X10.557 Y-19.002 Z-4.087
N8915 X11.067 Y-18.732 Z-4.094
N8920 X11.514 Y-18.481 Z-4.1
N8925 X12.034 Y-18.17 Z-4.106
N8930 X12.574 Y-17.826 Z-4.114
N8935 X13.051 Y-17.504 Z-4.12
N8940 X13.566 Y-17.134 Z-4.127
N8945 X14.029 Y-16.782 Z-4.134
N8950 X14.476 Y-16.423 Z-4.14
N8955 X14.871 Y-16.089 Z-4.146
N8960 X15.321 Y-15.689 Z-4.153
N8965 X15.734 Y-15.301 Z-4.159
N8970 X16.153 Y-14.887 Z-4.165
N8975 X16.579 Y-14.441 Z-4.172
N8980 X16.972 Y-14.008 Z-4.179
N8985 X17.298 Y-13.629 Z-4.185
N8990 X17.694 Y-13.144 Z-4.191
N8995 X18.084 Y-12.64 Z-4.198
N9000 X18.446 Y-12.141 Z-4.205
N9005 X18.787 Y-11.644 Z-4.212
N9010 X19.128 Y-11.115 Z-4.219
N9015 X19.453 Y-10.579 Z-4.226
N9020 X19.676 Y-10.189 Z-4.231
N9025 X19.964 Y-9.658 Z-4.238
N9030 X20.221 Y-9.153 Z-4.244
N9035 X20.474 Y-8.619 Z-4.25
N9040 X20.73 Y-8.041 Z-4.257
N9045 X20.947 Y-7.511 Z-4.264
N9050 X21.131 Y-7.031 Z-4.27
N9055 X21.339 Y-6.441 Z-4.276
N9060 X21.525 Y-5.863 Z-4.283
N9065 X21.693 Y-5.29 Z-4.289
N9070 X21.853 Y-4.68 Z-4.296
N9075 X21.97 Y-4.185 Z-4.302
N9080 X22.083 Y-3.651 Z-4.308
N9085 X22.197 Y-3.028 Z-4.315
N9090 X22.293 Y-2.408 Z-4.321
N9095 X22.369 Y-1.814 Z-4.328
N9100 X22.431 Y-1.181 Z-4.335
N9105 X22.469 Y-0.661 Z-4.341
N9110 X22.494 Y-0.164 Z-4.346
N9115 X22.509 Y0.41 Z-4.352
N9120 Y1.035 Z-4.359
N9125 X22.492 Y1.65 Z-4.366
N9130 X22.462 Y2.21 Z-4.373
N9135 X22.423 Y2.707 Z-4.379
N9140 X22.358 Y3.342 Z-4.386
N9145 X22.277 Y3.958 Z-4.394
N9150 X22.178 Y4.582 Z-4.401
N9155 X22.06 Y5.206 Z-4.409
N9160 X21.935 Y5.784 Z-4.416
N9165 X21.794 Y6.361 Z-4.424
N9170 X21.653 Y6.883 Z-4.43
N9175 X21.49 Y7.43 Z-4.436
N9180 X21.314 Y7.973 Z-4.443
N9185 X21.115 Y8.536 Z-4.451
N9190 X20.902 Y9.093 Z-4.458
N9195 X20.695 Y9.595 Z-4.464
N9200 X20.464 Y10.119 Z-4.47
N9205 X20.219 Y10.638 Z-4.477
N9210 X19.95 Y11.173 Z-4.485
N9215 X19.667 Y11.701 Z-4.492
N9220 X19.397 Y12.174 Z-4.498
N9225 X19.101 Y12.668 Z-4.505
N9230 X18.791 Y13.154 Z-4.512
N9235 X18.456 Y13.652 Z-4.519
N9240 X18.107 Y14.142 Z-4.526
N9245 X17.779 Y14.579 Z-4.532
N9250 X17.42 Y15.033 Z-4.539
N9255 X17.05 Y15.478 Z-4.546
N9260 X16.653 Y15.932 Z-4.553
N9265 X16.244 Y16.375 Z-4.56
N9270 X15.862 Y16.769 Z-4.567
N9275 X15.447 Y17.176 Z-4.573
N9280 X14.982 Y17.609 Z-4.58
N9285 X14.497 Y18.036 Z-4.588
N9290 X14.009 Y18.443 Z-4.596
N9295 X13.532 Y18.818 Z-4.603
N9300 X13.092 Y19.147 Z-4.609
N9305 X12.627 Y19.478 Z-4.616
N9310 X12.154 Y19.798 Z-4.622
N9315 X11.619 Y20.139 Z-4.63
N9320 X11.097 Y20.453 Z-4.637
N9325 X10.615 Y20.726 Z-4.643
N9330 X10.11 Y20.996 Z-4.65
N9335 X9.575 Y21.266 Z-4.657
N9340 X9.034 Y21.521 Z-4.664
N9345 X8.465 Y21.772 Z-4.671
N9350 X7.95 Y21.983 Z-4.678
N9355 X7.413 Y22.189 Z-4.684
N9360 X6.845 Y22.39 Z-4.691
N9365 X6.261 Y22.579 Z-4.698
N9370 X5.674 Y22.753 Z-4.706
N9375 X5.137 Y22.898 Z-4.712
N9380 X4.575 Y23.035 Z-4.718
N9385 X3.983 Y23.163 Z-4.725
N9390 X3.392 Y23.276 Z-4.733
N9395 X2.774 Y23.376 Z-4.74
N9400 X2.218 Y23.453 Z-4.746
N9405 X1.628 Y23.519 Z-4.752
N9410 X1.035 Y23.571 Z-4.759
N9415 X0.42 Y23.609 Z-4.767
N9420 X-0.196 Y23.63 Z-4.774
N9425 X-0.758 Y23.636 Z-4.78
N9430 X-1.355 Y23.627 Z-4.787
N9435 X-1.952 Y23.604 Z-4.794
N9440 X-2.568 Y23.563 Z-4.801
N9445 X-3.184 Y23.507 Z-4.808
N9450 X-3.718 Y23.445 Z-4.815
N9455 X-4.34 Y23.357 Z-4.822
N9460 X-4.972 Y23.25 Z-4.83
N9465 X-5.59 Y23.129 Z-4.838
N9470 X-6.095 Y23.017 Z-4.845
N9475 X-6.662 Y22.878 Z-4.852
N9480 X-7.281 Y22.708 Z-4.86
N9485 X-7.899 Y22.522 Z-4.868
N9490 X-8.482 Y22.328 Z-4.876
N9495 X-8.937 Y22.166 Z-4.882
N9500 X-9.522 Y21.941 Z-4.889
N9505 X-10.092 Y21.705 Z-4.897
N9510 X-10.652 Y21.456 Z-4.904
N9515 X-11.173 Y21.209 Z-4.912
N9520 X-11.618 Y20.986 Z-4.918
N9525 X-12.182 Y20.685 Z-4.926
N9530 X-12.706 Y20.389 Z-4.933
N9535 X-13.25 Y20.063 Z-4.941
N9540 X-13.718 Y19.766 Z-4.948
N9545 X-14.227 Y19.425 Z-4.956
N9550 X-14.748 Y19.056 Z-4.963
N9555 X-15.237 Y18.691 Z-4.97
N9560 X-15.579 Y18.424 Z-4.977
N9565 X-16.028 Y18.058 Z-4.983
N9570 X-16.519 Y17.636 Z-4.991
N9575 X-16.965 Y17.232 Z-4.998
N9580 X-17.417 Y16.802 Z-5.006
N9585 X-17.829 Y16.39 Z-5.014
N9590 X-18.215 Y15.985 Z-5.02
N9595 X-18.604 Y15.556 Z-5.027
N9600 X-19.02 Y15.076 Z-5.035
N9605 X-19.354 Y14.67 Z-5.042
N9610 X-19.733 Y14.187 Z-5.049
N9615 X-20.129 Y13.654 Z-5.057
N9620 X-20.468 Y13.173 Z-5.064
N9625 X-20.705 Y12.82 Z-5.07
N9630 X-21.034 Y12.31 Z-5.077
N9635 X-21.379 Y11.74 Z-5.085
N9640 X-21.686 Y11.202 Z-5.092
N9645 X-21.892 Y10.823 Z-5.098
N9650 X-22.152 Y10.32 Z-5.104
N9655 X-22.409 Y9.792 Z-5.111
N9660 X-22.686 Y9.185 Z-5.12
N9665 X-22.882 Y8.725 Z-5.126
N9670 X-23.095 Y8.194 Z-5.133
N9675 X-23.302 Y7.641 Z-5.14
N9680 X-23.518 Y7.016 Z-5.148
N9685 X-23.67 Y6.539 Z-5.154
N9690 X-23.846 Y5.942 Z-5.162
N9695 X-24.018 Y5.294 Z-5.169
N9700 X-24.156 Y4.714 Z-5.176
N9705 X-24.248 Y4.29 Z-5.182
N9710 X-24.357 Y3.731 Z-5.189
N9715 X-24.466 Y3.087 Z-5.196
N9720 X-24.556 Y2.453 Z-5.204
N9725 X-24.614 Y1.975 Z-5.211
N9730 X-24.67 Y1.397 Z-5.217
N9735 X-24.716 Y0.767 Z-5.224
N9740 X-24.746 Y0.115 Z-5.232
N9745 X-24.758 Y-0.376 Z-5.239
N9750 X-24.759 Y-0.975 Z-5.246
N9755 X-24.746 Y-1.559 Z-5.252
N9760 X-24.714 Y-2.223 Z-5.26
N9765 X-24.673 Y-2.791 Z-5.268
N9770 X-24.623 Y-3.324 Z-5.274
N9775 X-24.554 Y-3.91 Z-5.28
N9780 X-24.461 Y-4.555 Z-5.288
N9785 X-24.363 Y-5.138 Z-5.297
N9790 X-24.269 Y-5.631 Z-5.303
N9795 X-24.132 Y-6.264 Z-5.311
N9800 X-23.977 Y-6.903 Z-5.319
N9805 X-23.821 Y-7.479 Z-5.328
N9810 X-23.686 Y-7.941 Z-5.334
N9815 X-23.505 Y-8.513 Z-5.341
N9820 X-23.293 Y-9.129 Z-5.35
N9825 X-23.132 Y-9.563 Z-5.356
N9830 X-22.899 Y-10.153 Z-5.364
N9835 X-22.666 Y-10.704 Z-5.371
N9840 X-22.386 Y-11.319 Z-5.38
N9845 X-22.181 Y-11.746 Z-5.387
N9850 X-21.9 Y-12.298 Z-5.394
N9855 X-21.618 Y-12.82 Z-5.402
N9860 X-21.312 Y-13.356 Z-5.41
N9865 X-21.03 Y-13.824 Z-5.417
N9870 X-20.698 Y-14.347 Z-5.425
N9875 X-20.369 Y-14.839 Z-5.432
N9880 X-19.978 Y-15.392 Z-5.441
N9885 X-19.682 Y-15.793 Z-5.448
N9890 X-19.289 Y-16.298 Z-5.456
N9895 X-18.907 Y-16.766 Z-5.463
N9900 X-18.49 Y-17.25 Z-5.472
N9905 X-18.142 Y-17.638 Z-5.479
N9910 X-17.731 Y-18.074 Z-5.486
N9915 X-17.266 Y-18.545 Z-5.494
N9920 X-16.793 Y-18.999 Z-5.503
N9925 X-16.416 Y-19.345 Z-5.51
N9930 X-15.951 Y-19.752 Z-5.517
N9935 X-15.462 Y-20.16 Z-5.525
N9940 X-14.956 Y-20.561 Z-5.533
N9945 X-14.546 Y-20.87 Z-5.54
N9950 X-14.061 Y-21.22 Z-5.548
N9955 X-13.52 Y-21.591 Z-5.556
N9960 X-12.979 Y-21.941 Z-5.564
N9965 X-12.54 Y-22.211 Z-5.571
N9970 X-11.999 Y-22.528 Z-5.579
N9975 X-11.432 Y-22.841 Z-5.586
N9980 X-10.862 Y-23.138 Z-5.595
N9985 X-10.413 Y-23.359 Z-5.602
N9990 X-9.844 Y-23.623 Z-5.609
N9995 X-9.258 Y-23.878 Z-5.617
N10000 X-8.655 Y-24.123 Z-5.625
N10005 X-8.177 Y-24.304 Z-5.632
N10010 X-7.583 Y-24.514 Z-5.64
N10015 X-6.964 Y-24.716 Z-5.648
N10020 X-6.354 Y-24.898 Z-5.656
N10025 X-5.859 Y-25.034 Z-5.663
N10030 X-5.247 Y-25.187 Z-5.671
N10035 X-4.609 Y-25.33 Z-5.678
N10040 X-3.99 Y-25.453 Z-5.686
N10045 X-3.453 Y-25.546 Z-5.694
N10050 X-2.883 Y-25.633 Z-5.701
N10055 X-2.21 Y-25.719 Z-5.709
N10060 X-1.561 Y-25.784 Z-5.717
N10065 X-1. Y-25.828 Z-5.725
N10070 X-0.39 Y-25.861 Z-5.732
N10075 X0.257 Y-25.881 Z-5.74
N10080 X0.938 Y-25.884 Z-5.748
N10085 X1.566 Y-25.871 Z-5.757
N10090 X2.059 Y-25.85 Z-5.763
N10095 X2.702 Y-25.809 Z-5.77
N10100 X3.378 Y-25.748 Z-5.779
N10105 X4.038 Y-25.671 Z-5.788
N10110 X4.524 Y-25.604 Z-5.794
N10115 X5.186 Y-25.497 Z-5.801
N10120 X5.817 Y-25.378 Z-5.81
N10125 X6.423 Y-25.249 Z-5.819
N10130 X6.888 Y-25.14 Z-5.825
N10135 X7.526 Y-24.975 Z-5.833
N10140 X8.155 Y-24.796 Z-5.842
N10145 X8.615 Y-24.654 Z-5.849
N10150 X9.231 Y-24.449 Z-5.857
N10155 X9.825 Y-24.235 Z-5.866
N10160 X10.353 Y-24.031 Z-5.874
N10165 X10.799 Y-23.848 Z-5.88
N10170 X11.405 Y-23.585 Z-5.888
N10175 X12.001 Y-23.307 Z-5.898
N10180 X12.437 Y-23.093 Z-5.905
N10185 X13.016 Y-22.792 Z-5.913
N10190 X13.571 Y-22.486 Z-5.921
N10195 X14.063 Y-22.2 Z-5.929
N10200 X14.477 Y-21.948 Z-5.936
N10205 X15.036 Y-21.591 Z-5.944
N10210 X15.584 Y-21.221 Z-5.953
N10215 X15.982 Y-20.94 Z-5.96
N10220 X16.508 Y-20.55 Z-5.968
N10225 X17.011 Y-20.159 Z-5.976
N10230 X17.454 Y-19.797 Z-5.985
N10235 X17.819 Y-19.487 Z-5.991
N10240 X18.314 Y-19.047 Z-5.999
N10245 X18.79 Y-18.603 Z-6.008
N10250 X19.155 Y-18.246 Z-6.015
N10255 X19.617 Y-17.776 Z-6.024
N10260 X20.035 Y-17.329 Z-6.031
N10265 X20.43 Y-16.887 Z-6.04
N10270 X20.752 Y-16.511 Z-6.046
N10275 X21.161 Y-16.012 Z-6.054
N10280 X21.569 Y-15.488 Z-6.064
N10285 X21.878 Y-15.074 Z-6.071
N10290 X22.262 Y-14.533 Z-6.079
N10295 X22.605 Y-14.024 Z-6.087
N10300 X22.928 Y-13.522 Z-6.096
N10305 X23.188 Y-13.098 Z-6.102
N10310 X23.515 Y-12.538 Z-6.11
N10315 X23.831 Y-11.966 Z-6.119
N10320 X24.076 Y-11.499 Z-6.126
N10325 X24.369 Y-10.907 Z-6.134
N10330 X24.64 Y-10.325 Z-6.142
N10335 X24.876 Y-9.786 Z-6.151
N10340 X25.064 Y-9.332 Z-6.157
N10345 X25.286 Y-8.763 Z-6.165
N10350 X25.48 Y-8.229 Z-6.173
N10355 X25.646 Y-7.745 Z-6.179
N10360 X25.832 Y-7.161 Z-6.187
N10365 X25.993 Y-6.616 Z-6.195
N10370 X26.128 Y-6.121 Z-6.201
N10375 X26.277 Y-5.526 Z-6.209
N10380 X26.407 Y-4.951 Z-6.217
N10385 X26.508 Y-4.462 Z-6.224
N10390 X26.626 Y-3.818 Z-6.232
N10395 X26.711 Y-3.284 Z-6.24
N10400 X26.781 Y-2.786 Z-6.246
N10405 X26.855 Y-2.17 Z-6.253
N10410 X26.909 Y-1.607 Z-6.262
N10415 X26.949 Y-1.095 Z-6.268
N10420 X26.983 Y-0.478 Z-6.275
N10425 X27.003 Y0.113 Z-6.284
N10430 X27.009 Y0.614 Z-6.29
N10435 X27.004 Y1.272 Z-6.298
N10440 X26.987 Y1.815 Z-6.306
N10445 X26.962 Y2.32 Z-6.312
N10450 X26.915 Y2.977 Z-6.32
N10455 X26.864 Y3.52 Z-6.328
N10460 X26.806 Y4.023 Z-6.334
N10465 X26.723 Y4.643 Z-6.342
N10470 X26.631 Y5.225 Z-6.35
N10475 X26.543 Y5.719 Z-6.357
N10480 X26.416 Y6.352 Z-6.365
N10485 X26.307 Y6.843 Z-6.373
N10490 X26.18 Y7.365 Z-6.38
N10495 X26.019 Y7.971 Z-6.388
N10500 X25.858 Y8.527 Z-6.397
N10505 X25.704 Y9.024 Z-6.404
N10510 X25.505 Y9.618 Z-6.412
N10515 X25.318 Y10.14 Z-6.421
N10520 X25.123 Y10.651 Z-6.428
N10525 X24.885 Y11.235 Z-6.436
N10530 X24.665 Y11.745 Z-6.445
N10535 X24.441 Y12.236 Z-6.452
N10540 X24.166 Y12.805 Z-6.46
N10545 X23.914 Y13.3 Z-6.469
N10550 X23.659 Y13.777 Z-6.476
N10555 X23.348 Y14.329 Z-6.484
N10560 X23.065 Y14.807 Z-6.493
N10565 X22.779 Y15.268 Z-6.5
N10570 X22.434 Y15.801 Z-6.508
N10575 X22.121 Y16.26 Z-6.517
N10580 X21.806 Y16.703 Z-6.524
N10585 X21.427 Y17.214 Z-6.532
N10590 X21.085 Y17.653 Z-6.541
N10595 X20.742 Y18.076 Z-6.548
N10600 X20.33 Y18.563 Z-6.556
N10605 X19.961 Y18.98 Z-6.565
N10610 X19.592 Y19.381 Z-6.572
N10615 X19.149 Y19.842 Z-6.58
N10620 X18.754 Y20.235 Z-6.589
N10625 X18.347 Y20.625 Z-6.596
N10630 X17.884 Y21.049 Z-6.604
N10635 X17.382 Y21.488 Z-6.614
N10640 X16.938 Y21.859 Z-6.622
N10645 X16.415 Y22.275 Z-6.63
N10650 X15.893 Y22.672 Z-6.639
N10655 X15.411 Y23.02 Z-6.648
N10660 X14.921 Y23.359 Z-6.656
N10665 X14.371 Y23.721 Z-6.664
N10670 X13.948 Y23.988 Z-6.672
N10675 X13.432 Y24.298 Z-6.68
N10680 X12.873 Y24.617 Z-6.688
N10685 X12.428 Y24.86 Z-6.696
N10690 X11.895 Y25.136 Z-6.704
N10695 X11.318 Y25.419 Z-6.712
N10700 X10.853 Y25.636 Z-6.72
N10705 X10.303 Y25.878 Z-6.728
N10710 X9.71 Y26.124 Z-6.736
N10715 X9.228 Y26.312 Z-6.744
N10720 X8.663 Y26.52 Z-6.752
N10725 X8.054 Y26.728 Z-6.76
N10730 X7.561 Y26.886 Z-6.768
N10735 X7.024 Y27.046 Z-6.775
N10740 X6.399 Y27.217 Z-6.783
N10745 X5.857 Y27.354 Z-6.792
N10750 X5.263 Y27.49 Z-6.8
N10755 X4.626 Y27.621 Z-6.808
N10760 X4.126 Y27.714 Z-6.816
N10765 X3.523 Y27.812 Z-6.824
N10770 X2.856 Y27.906 Z-6.832
N10775 X2.384 Y27.963 Z-6.84
N10780 X1.791 Y28.022 Z-6.847
N10785 X1.154 Y28.072 Z-6.855
N10790 X0.473 Y28.109 Z-6.865
N10795 X-0.111 Y28.128 Z-6.874
N10800 X-0.751 Y28.134 Z-6.881
N10805 X-1.438 Y28.125 Z-6.891
N10810 X-2.065 Y28.102 Z-6.9
N10815 X-2.64 Y28.068 Z-6.907
N10820 X-3.296 Y28.016 Z-6.915
N10825 X-3.963 Y27.946 Z-6.925
N10830 X-4.556 Y27.871 Z-6.933
N10835 X-5.228 Y27.77 Z-6.942
N10840 X-5.89 Y27.655 Z-6.951
N10845 X-6.42 Y27.551 Z-6.96
N10850 X-7.057 Y27.412 Z-6.969
N10855 X-7.66 Y27.266 Z-6.977
N10860 X-8.179 Y27.128 Z-6.986
N10865 X-8.742 Y26.968 Z-6.994
N10870 X-9.354 Y26.779 Z-7.002
N10875 X-9.882 Y26.604 Z-7.012
N10880 X-10.428 Y26.41 Z-7.019
N10885 X-11.019 Y26.186 Z-7.028
N10890 X-11.567 Y25.965 Z-7.038
N10895 X-12.105 Y25.735 Z-7.045
N10900 X-12.688 Y25.471 Z-7.054
N10905 X-13.197 Y25.227 Z-7.063
N10910 X-13.718 Y24.964 Z-7.071
N10915 X-14.279 Y24.666 Z-7.08
N10920 X-14.792 Y24.379 Z-7.089
N10925 X-15.299 Y24.082 Z-7.097
N10930 X-15.845 Y23.745 Z-7.106
N10935 X-16.322 Y23.437 Z-7.115
N10940 X-16.808 Y23.109 Z-7.122
N10945 X-17.329 Y22.741 Z-7.131
N10950 X-17.801 Y22.393 Z-7.141
N10955 X-18.311 Y21.999 Z-7.149
N10960 X-18.802 Y21.601 Z-7.158
N10965 X-19.222 Y21.247 Z-7.167
N10970 X-19.678 Y20.847 Z-7.175
N10975 X-20.148 Y20.415 Z-7.183
N10980 X-20.54 Y20.039 Z-7.192
N10985 X-20.957 Y19.624 Z-7.2
N10990 X-21.416 Y19.148 Z-7.209
N10995 X-21.852 Y18.673 Z-7.219
N11000 X-22.234 Y18.24 Z-7.227
N11005 X-22.635 Y17.764 Z-7.235
N11010 X-23.001 Y17.312 Z-7.244
N11015 X-23.351 Y16.862 Z-7.252
N11020 X-23.738 Y16.341 Z-7.261
N11025 X-24.101 Y15.828 Z-7.271
N11030 X-24.421 Y15.357 Z-7.278
N11035 X-24.793 Y14.781 Z-7.287
N11040 X-25.129 Y14.235 Z-7.297
N11045 X-25.435 Y13.712 Z-7.306
N11050 X-25.74 Y13.165 Z-7.314
N11055 X-26.048 Y12.583 Z-7.324
N11060 X-26.289 Y12.102 Z-7.332
N11065 X-26.575 Y11.503 Z-7.34
N11070 X-26.774 Y11.064 Z-7.348
N11075 X-26.997 Y10.545 Z-7.355
N11080 X-27.229 Y9.974 Z-7.363
N11085 X-27.419 Y9.481 Z-7.372
N11090 X-27.647 Y8.847 Z-7.381
N11095 X-27.864 Y8.199 Z-7.39
N11100 X-28.051 Y7.592 Z-7.4
N11105 X-28.193 Y7.1 Z-7.406
N11110 X-28.359 Y6.475 Z-7.415
N11115 X-28.509 Y5.86 Z-7.425
N11120 X-28.638 Y5.274 Z-7.433
N11125 X-28.775 Y4.58 Z-7.442
N11130 X-28.858 Y4.105 Z-7.45
N11135 X-28.952 Y3.507 Z-7.458
N11140 X-29.04 Y2.857 Z-7.467
N11145 X-29.103 Y2.299 Z-7.476
N11150 X-29.161 Y1.669 Z-7.484
N11155 X-29.21 Y0.976 Z-7.493
N11160 X-29.239 Y0.367 Z-7.503
N11165 X-29.254 Y-0.186 Z-7.51
N11170 X-29.259 Y-0.804 Z-7.518
N11175 X-29.252 Y-1.335 Z-7.527
N11180 X-29.23 Y-2.023 Z-7.535
N11185 X-29.191 Y-2.706 Z-7.544
N11190 X-29.141 Y-3.343 Z-7.555
N11195 X-29.088 Y-3.873 Z-7.561
N11200 X-29.006 Y-4.559 Z-7.57
N11205 X-28.92 Y-5.155 Z-7.581
N11210 X-28.83 Y-5.711 Z-7.588
N11215 X-28.717 Y-6.323 Z-7.597
N11220 X-28.597 Y-6.908 Z-7.607
N11225 X-28.455 Y-7.535 Z-7.616
N11230 X-28.302 Y-8.146 Z-7.625
N11235 X-28.145 Y-8.721 Z-7.635
N11240 X-27.962 Y-9.339 Z-7.644
N11245 X-27.767 Y-9.951 Z-7.653
N11250 X-27.575 Y-10.513 Z-7.663
N11255 X-27.351 Y-11.124 Z-7.672
N11260 X-27.105 Y-11.751 Z-7.681
N11265 X-26.874 Y-12.306 Z-7.692
N11270 X-26.652 Y-12.81 Z-7.699
N11275 X-26.37 Y-13.417 Z-7.709
N11280 X-26.132 Y-13.903 Z-7.718
N11285 X-25.837 Y-14.475 Z-7.727
N11290 X-25.517 Y-15.065 Z-7.736
N11295 X-25.243 Y-15.544 Z-7.746
N11300 X-24.911 Y-16.1 Z-7.754
N11305 X-24.554 Y-16.668 Z-7.764
N11310 X-24.25 Y-17.131 Z-7.773
N11315 X-23.882 Y-17.667 Z-7.782
N11320 X-23.489 Y-18.212 Z-7.792
N11325 X-23.155 Y-18.656 Z-7.801
N11330 X-22.75 Y-19.172 Z-7.81
N11335 X-22.331 Y-19.683 Z-7.819
N11340 X-21.968 Y-20.108 Z-7.829
N11345 X-21.532 Y-20.597 Z-7.837
N11350 X-21.073 Y-21.089 Z-7.847
N11355 X-20.684 Y-21.489 Z-7.857
N11360 X-20.219 Y-21.948 Z-7.865
N11365 X-19.728 Y-22.412 Z-7.875
N11370 X-19.315 Y-22.786 Z-7.884
N11375 X-18.822 Y-23.216 Z-7.893
N11380 X-18.317 Y-23.636 Z-7.902
N11385 X-17.87 Y-23.993 Z-7.912
N11390 X-17.346 Y-24.394 Z-7.921
N11395 X-16.8 Y-24.793 Z-7.93
N11400 X-16.341 Y-25.113 Z-7.94
N11405 X-15.795 Y-25.479 Z-7.948
N11410 X-15.223 Y-25.843 Z-7.958
N11415 X-14.745 Y-26.134 Z-7.967
N11420 X-14.177 Y-26.465 Z-7.976
N11425 X-13.582 Y-26.793 Z-7.986
N11430 X-13.086 Y-27.054 Z-7.995
N11435 X-12.498 Y-27.348 Z-8.004
N11440 X-11.906 Y-27.627 Z-8.013
N11445 X-11.375 Y-27.865 Z-8.023
N11450 X-10.76 Y-28.125 Z-8.032
N11455 X-10.122 Y-28.379 Z-8.041
N11460 X-9.6 Y-28.573 Z-8.051
N11465 X-8.973 Y-28.793 Z-8.059
N11470 X-8.34 Y-28.999 Z-8.069
N11475 X-7.795 Y-29.164 Z-8.078
N11480 X-7.151 Y-29.345 Z-8.087
N11485 X-6.511 Y-29.51 Z-8.096
N11490 X-5.965 Y-29.638 Z-8.106
N11495 X-5.298 Y-29.781 Z-8.115
N11500 X-4.625 Y-29.91 Z-8.124
N11505 X-4.085 Y-30.001 Z-8.134
N11510 X-3.412 Y-30.101 Z-8.142
N11515 X-2.731 Y-30.187 Z-8.152
N11520 X-2.17 Y-30.246 Z-8.161
N11525 X-1.502 Y-30.302 Z-8.17
N11530 X-0.808 Y-30.345 Z-8.18
N11535 X-0.269 Y-30.367 Z-8.189
N11540 X0.409 Y-30.382 Z-8.198
N11545 X1.1 Y-30.381 Z-8.207
N11550 X1.663 Y-30.369 Z-8.217
N11555 X2.334 Y-30.34 Z-8.226
N11560 X3.015 Y-30.296 Z-8.236
N11565 X3.541 Y-30.252 Z-8.245
N11570 X4.232 Y-30.18 Z-8.255
N11575 X4.908 Y-30.093 Z-8.265
N11580 X5.448 Y-30.013 Z-8.275
N11585 X6.142 Y-29.896 Z-8.285
N11590 X6.82 Y-29.765 Z-8.295
N11595 X7.34 Y-29.654 Z-8.305
N11600 X7.996 Y-29.5 Z-8.314
N11605 X8.676 Y-29.325 Z-8.325
N11610 X9.238 Y-29.167 Z-8.335
N11615 X9.883 Y-28.971 Z-8.344
N11620 X10.521 Y-28.762 Z-8.354
N11625 X11.084 Y-28.565 Z-8.365
N11630 X11.707 Y-28.332 Z-8.374
N11635 X12.348 Y-28.076 Z-8.384
N11640 X12.885 Y-27.849 Z-8.394
N11645 X13.492 Y-27.578 Z-8.403
N11650 X14.118 Y-27.28 Z-8.414
N11655 X14.683 Y-26.997 Z-8.425
N11660 X15.25 Y-26.698 Z-8.434
N11665 X15.844 Y-26.368 Z-8.444
N11670 X16.315 Y-26.095 Z-8.453
N11675 X16.923 Y-25.725 Z-8.463
N11680 X17.507 Y-25.35 Z-8.473
N11685 X17.953 Y-25.052 Z-8.483
N11690 X18.521 Y-24.655 Z-8.492
N11695 X19.072 Y-24.252 Z-8.503
N11700 X19.522 Y-23.908 Z-8.513
N11705 X20.067 Y-23.473 Z-8.522
N11710 X20.598 Y-23.03 Z-8.533
N11715 X21.024 Y-22.66 Z-8.542
N11720 X21.538 Y-22.194 Z-8.552
N11725 X22.04 Y-21.718 Z-8.562
N11730 X22.443 Y-21.321 Z-8.572
N11735 X22.892 Y-20.86 Z-8.58
N11740 X23.327 Y-20.395 Z-8.591
N11745 X23.706 Y-19.974 Z-8.6
N11750 X24.162 Y-19.445 Z-8.609
N11755 X24.6 Y-18.914 Z-8.621
N11760 X24.953 Y-18.467 Z-8.629
N11765 X25.376 Y-17.91 Z-8.639
N11770 X25.784 Y-17.346 Z-8.65
N11775 X26.104 Y-16.884 Z-8.659
N11780 X26.466 Y-16.339 Z-8.668
N11785 X26.792 Y-15.827 Z-8.678
N11790 X27.095 Y-15.33 Z-8.686
N11795 X27.426 Y-14.762 Z-8.696
N11800 X27.701 Y-14.267 Z-8.706
N11805 X28.026 Y-13.654 Z-8.715
N11810 X28.342 Y-13.024 Z-8.726
N11815 X28.588 Y-12.508 Z-8.735
N11820 X28.872 Y-11.879 Z-8.745
N11825 X29.149 Y-11.228 Z-8.755
N11830 X29.363 Y-10.695 Z-8.765
N11835 X29.607 Y-10.048 Z-8.774
N11840 X29.842 Y-9.38 Z-8.785
N11845 X30.023 Y-8.833 Z-8.795
N11850 X30.232 Y-8.149 Z-8.805
N11855 X30.42 Y-7.485 Z-8.815
N11860 X30.565 Y-6.93 Z-8.825
N11865 X30.731 Y-6.234 Z-8.834
N11870 X30.876 Y-5.56 Z-8.844
N11875 X30.983 Y-5.009 Z-8.854
N11880 X31.103 Y-4.317 Z-8.863
N11885 X31.208 Y-3.617 Z-8.874
N11890 X31.282 Y-3.049 Z-8.884
N11895 X31.358 Y-2.352 Z-8.893
N11900 X31.419 Y-1.65 Z-8.904
N11905 X31.458 Y-1.055 Z-8.914
N11910 X31.49 Y-0.354 Z-8.923
N11915 X31.506 Y0.348 Z-8.935
N11920 X31.507 Y0.945 Z-8.946
N11925 X31.495 Y1.626 Z-8.955
N11930 X31.467 Y2.333 Z-8.966
N11935 X31.431 Y2.914 Z-8.977
N11940 X31.374 Y3.62 Z-8.987
N11945 X31.301 Y4.324 Z-8.998
N11950 X31.233 Y4.872 Z-9.008
N11955 X31.14 Y5.524 Z-9.017
N11960 X31.027 Y6.205 Z-9.029
N11965 X30.928 Y6.739 Z-9.038
N11970 X30.786 Y7.428 Z-9.048
N11975 X30.655 Y8.007 Z-9.059
N11980 X30.504 Y8.615 Z-9.068
N11985 X30.323 Y9.285 Z-9.078
N11990 X30.138 Y9.916 Z-9.09
N11995 X29.952 Y10.507 Z-9.099
N12000 X29.73 Y11.164 Z-9.11
N12005 X29.551 Y11.662 Z-9.12
N12010 X29.298 Y12.325 Z-9.129
N12015 X29.283 Y12.363 Z-9.13
N12020 X29.02 Y13.007 Z-9.141
N12025 X28.77 Y13.585 Z-9.153
N12030 X28.479 Y14.22 Z-9.162
N12035 X28.17 Y14.856 Z-9.173
N12040 X27.891 Y15.403 Z-9.184
N12045 X27.568 Y16.004 Z-9.194
N12050 X27.22 Y16.62 Z-9.205
N12055 X26.915 Y17.134 Z-9.216
N12060 X26.557 Y17.712 Z-9.225
N12065 X26.19 Y18.277 Z-9.236
N12070 X25.926 Y18.667 Z-9.244
N12075 X25.546 Y19.209 Z-9.253
N12080 X25.22 Y19.654 Z-9.264
N12085 X24.802 Y20.203 Z-9.273
N12090 X24.357 Y20.763 Z-9.284
N12095 X23.994 Y21.201 Z-9.295
N12100 X23.524 Y21.744 Z-9.305
N12105 X23.056 Y22.263 Z-9.316
N12110 X22.652 Y22.692 Z-9.326
N12115 X22.181 Y23.173 Z-9.335
N12120 X21.682 Y23.662 Z-9.347
N12125 X21.284 Y24.037 Z-9.356
N12130 X20.779 Y24.495 Z-9.365
N12135 X20.356 Y24.864 Z-9.376
N12140 X19.861 Y25.279 Z-9.385
N12145 X19.306 Y25.725 Z-9.396
N12150 X18.806 Y26.11 Z-9.407
N12155 X18.233 Y26.533 Z-9.417
N12160 X17.659 Y26.937 Z-9.428
N12165 X17.187 Y27.256 Z-9.438
N12170 X16.579 Y27.648 Z-9.448
N12175 X15.953 Y28.033 Z-9.459
N12180 X15.472 Y28.316 Z-9.469
N12185 X14.838 Y28.671 Z-9.479
N12190 X14.209 Y29.005 Z-9.491
N12195 X13.667 Y29.279 Z-9.501
N12200 X13.016 Y29.592 Z-9.511
N12205 X12.4 Y29.872 Z-9.522
N12210 X11.947 Y30.067 Z-9.53
N12215 X11.319 Y30.326 Z-9.539
N12220 X10.798 Y30.528 Z-9.55
N12225 X10.145 Y30.767 Z-9.56
N12230 X9.463 Y31.001 Z-9.571
N12235 X8.885 Y31.185 Z-9.581
N12240 X8.197 Y31.389 Z-9.591
N12245 X7.503 Y31.579 Z-9.602
N12250 X6.923 Y31.724 Z-9.613
N12255 X6.239 Y31.882 Z-9.622
N12260 X5.561 Y32.023 Z-9.634
N12265 X5.046 Y32.12 Z-9.643
N12270 X4.371 Y32.233 Z-9.652
N12275 X3.826 Y32.315 Z-9.663
N12280 X3.191 Y32.398 Z-9.672
N12285 X2.504 Y32.473 Z-9.684
N12290 X1.933 Y32.525 Z-9.695
N12295 X1.248 Y32.574 Z-9.704
N12300 X0.573 Y32.607 Z-9.717
N12305 X0.007 Y32.625 Z-9.726
N12310 X-0.704 Y32.633 Z-9.736
N12315 X-1.305 Y32.628 Z-9.748
N12320 X-1.95 Y32.61 Z-9.757
N12325 X-2.643 Y32.576 Z-9.769
N12330 X-3.216 Y32.537 Z-9.78
N12335 X-3.903 Y32.477 Z-9.789
N12340 X-4.577 Y32.404 Z-9.802
N12345 X-5.141 Y32.332 Z-9.811
N12350 X-5.822 Y32.231 Z-9.821
N12355 X-6.449 Y32.126 Z-9.833
N12360 X-7.078 Y32.008 Z-9.842
N12365 X-7.762 Y31.864 Z-9.854
N12370 X-8.32 Y31.736 Z-9.865
N12375 X-8.982 Y31.571 Z-9.874
N12380 X-9.657 Y31.387 Z-9.887
N12385 X-10.196 Y31.229 Z-9.896
N12390 X-10.856 Y31.022 Z-9.906
N12395 X-11.459 Y30.819 Z-9.918
N12400 X-12.063 Y30.602 Z-9.927
N12405 X-12.705 Y30.358 Z-9.939
N12410 X-13.136 Y30.185 Z-9.947
N12415 X-13.747 Y29.927 Z-9.957
N12420 X-14.345 Y29.661 Z-9.969
N12425 X-14.939 Y29.382 Z-9.978
N12430 X-15.58 Y29.065 Z-9.99
N12435 X-16.078 Y28.806 Z-10.
N12440 X-16.68 Y28.479 Z-10.01
N12445 X-17.289 Y28.132 Z-10.023
N12450 X-17.774 Y27.842 Z-10.032
N12455 X-18.363 Y27.475 Z-10.042
N12460 X-18.902 Y27.124 Z-10.054
N12465 X-19.435 Y26.762 Z-10.063
N12470 X-20.01 Y26.355 Z-10.075
N12475 X-20.476 Y26.01 Z-10.085
N12480 X-21.021 Y25.591 Z-10.094
N12485 X-21.559 Y25.159 Z-10.107
N12490 X-22.007 Y24.785 Z-10.117
N12495 X-22.508 Y24.35 Z-10.126
N12500 X-23.003 Y23.903 Z-10.139
N12505 X-23.486 Y23.449 Z-10.148
N12510 X-23.997 Y22.948 Z-10.16
N12515 X-24.394 Y22.544 Z-10.17
N12520 X-24.868 Y22.042 Z-10.179
N12525 X-25.345 Y21.516 Z-10.193
N12530 X-25.717 Y21.089 Z-10.201
N12535 X-26.166 Y20.553 Z-10.212
N12540 X-26.572 Y20.049 Z-10.224
N12545 X-26.969 Y19.536 Z-10.233
N12550 X-27.376 Y18.986 Z-10.244
N12555 X-27.657 Y18.594 Z-10.253
N12560 X-28.04 Y18.037 Z-10.262
N12565 X-28.393 Y17.502 Z-10.275
N12570 X-28.757 Y16.926 Z-10.284
N12575 X-29.129 Y16.31 Z-10.296
N12580 X-29.407 Y15.829 Z-10.306
N12585 X-29.749 Y15.209 Z-10.315
N12590 X-30.082 Y14.576 Z-10.328
N12595 X-30.336 Y14.068 Z-10.337
N12600 X-30.624 Y13.464 Z-10.347
N12605 X-30.902 Y12.851 Z-10.36
N12610 X-31.164 Y12.242 Z-10.369
N12615 X-31.422 Y11.605 Z-10.38
N12620 X-31.597 Y11.151 Z-10.388
N12625 X-31.84 Y10.487 Z-10.399
N12630 X-32.03 Y9.932 Z-10.411
N12635 X-32.243 Y9.27 Z-10.421
N12640 X-32.442 Y8.608 Z-10.434
N12645 X-32.573 Y8.14 Z-10.442
N12650 X-32.741 Y7.499 Z-10.452
N12655 X-32.874 Y6.951 Z-10.464
N12660 X-33.032 Y6.239 Z-10.474
N12665 X-33.143 Y5.69 Z-10.486
N12670 X-33.258 Y5.067 Z-10.496
N12675 X-33.373 Y4.365 Z-10.507
N12680 X-33.47 Y3.679 Z-10.521
N12685 X-33.553 Y2.995 Z-10.531
N12690 X-33.625 Y2.268 Z-10.543
N12695 X-33.674 Y1.659 Z-10.555
N12700 X-33.718 Y0.92 Z-10.566
N12705 X-33.744 Y0.232 Z-10.578
N12710 X-33.755 Y-0.266 Z-10.587
N12715 X-33.757 Y-0.94 Z-10.598
N12720 X-33.745 Y-1.621 Z-10.611
N12725 X-33.721 Y-2.282 Z-10.621
N12730 X-33.692 Y-2.818 Z-10.631
N12735 X-33.654 Y-3.353 Z-10.639
N12740 X-33.608 Y-3.892 Z-10.649
N12745 X-33.551 Y-4.443 Z-10.658
N12750 X-33.464 Y-5.159 Z-10.67
N12755 X-33.385 Y-5.723 Z-10.681
N12760 X-33.269 Y-6.445 Z-10.691
N12765 X-33.147 Y-7.112 Z-10.704
N12770 X-33.033 Y-7.676 Z-10.714
N12775 X-32.883 Y-8.357 Z-10.724
N12780 X-32.719 Y-9.031 Z-10.738
N12785 X-32.551 Y-9.669 Z-10.747
N12790 X-32.404 Y-10.19 Z-10.758
N12795 X-32.244 Y-10.721 Z-10.766
N12800 X-32.03 Y-11.39 Z-10.778
N12805 X-31.84 Y-11.945 Z-10.789
N12810 X-31.599 Y-12.61 Z-10.799
N12815 X-31.346 Y-13.263 Z-10.813
N12820 X-31.114 Y-13.83 Z-10.823
N12825 X-30.847 Y-14.451 Z-10.833
N12830 X-30.614 Y-14.964 Z-10.844
N12835 X-30.317 Y-15.589 Z-10.854
N12840 X-30.033 Y-16.157 Z-10.867
N12845 X-29.77 Y-16.661 Z-10.875
N12850 X-29.429 Y-17.286 Z-10.887
N12855 X-29.116 Y-17.834 Z-10.899
N12860 X-28.735 Y-18.471 Z-10.909
N12865 X-28.425 Y-18.965 Z-10.921
N12870 X-28.111 Y-19.449 Z-10.929
N12875 X-27.704 Y-20.051 Z-10.941
N12880 X-27.377 Y-20.515 Z-10.952
N12885 X-26.956 Y-21.09 Z-10.962
N12890 X-26.526 Y-21.651 Z-10.976
N12895 X-26.146 Y-22.128 Z-10.986
N12900 X-25.714 Y-22.65 Z-10.996
N12905 X-25.33 Y-23.097 Z-11.008
N12910 X-24.861 Y-23.623 Z-11.017
N12915 X-24.447 Y-24.069 Z-11.03
N12920 X-24.053 Y-24.479 Z-11.038
N12925 X-23.538 Y-24.996 Z-11.05
N12930 X-23.102 Y-25.416 Z-11.061
N12935 X-22.589 Y-25.893 Z-11.071
N12940 X-22.092 Y-26.336 Z-11.084
N12945 X-21.635 Y-26.729 Z-11.093
N12950 X-21.07 Y-27.196 Z-11.105
N12955 X-20.551 Y-27.608 Z-11.118
N12960 X-19.993 Y-28.032 Z-11.127
N12965 X-19.458 Y-28.423 Z-11.14
N12970 X-19.013 Y-28.736 Z-11.149
N12975 X-18.407 Y-29.146 Z-11.159
N12980 X-17.867 Y-29.496 Z-11.172
N12985 X-17.234 Y-29.888 Z-11.184
N12990 X-16.624 Y-30.248 Z-11.196
N12995 X-16.131 Y-30.527 Z-11.207
N13000 X-15.55 Y-30.842 Z-11.217
N13005 X-14.985 Y-31.135 Z-11.231
N13010 X-14.371 Y-31.439 Z-11.241
N13015 X-13.814 Y-31.702 Z-11.253
N13020 X-13.24 Y-31.96 Z-11.264
N13025 X-12.574 Y-32.244 Z-11.275
N13030 X-11.972 Y-32.486 Z-11.289
N13035 X-11.354 Y-32.722 Z-11.299
N13040 X-10.773 Y-32.931 Z-11.311
N13045 X-10.177 Y-33.134 Z-11.322
N13050 X-9.51 Y-33.346 Z-11.333
N13055 X-8.868 Y-33.537 Z-11.347
N13060 X-8.227 Y-33.714 Z-11.357
N13065 X-7.518 Y-33.895 Z-11.37
N13070 X-6.889 Y-34.042 Z-11.383
N13075 X-6.18 Y-34.193 Z-11.393
N13080 X-5.482 Y-34.327 Z-11.407
N13085 X-4.859 Y-34.434 Z-11.419
N13090 X-4.166 Y-34.539 Z-11.429
N13095 X-3.496 Y-34.627 Z-11.443
N13100 X-2.834 Y-34.701 Z-11.454
N13105 X-2.218 Y-34.759 Z-11.465
N13110 X-1.584 Y-34.806 Z-11.477
N13115 X-0.884 Y-34.846 Z-11.487
N13120 X-0.206 Y-34.87 Z-11.501
N13125 X0.462 Y-34.881 Z-11.512
N13130 X1.081 Y-34.88 Z-11.523
N13135 X1.718 Y-34.868 Z-11.535
N13140 X2.418 Y-34.841 Z-11.545
N13145 X3.099 Y-34.801 Z-11.559
N13150 X3.768 Y-34.749 Z-11.57
N13155 X4.492 Y-34.678 Z-11.582
N13160 X5.146 Y-34.6 Z-11.595
N13165 X5.87 Y-34.5 Z-11.606
N13170 X6.556 Y-34.391 Z-11.62
N13175 X7.201 Y-34.275 Z-11.631
N13180 X7.916 Y-34.132 Z-11.642
N13185 X8.56 Y-33.99 Z-11.656
N13190 X9.214 Y-33.833 Z-11.666
N13195 X9.919 Y-33.649 Z-11.679
N13200 X10.555 Y-33.469 Z-11.692
N13205 X11.249 Y-33.258 Z-11.702
N13210 X11.917 Y-33.039 Z-11.716
N13215 X12.441 Y-32.858 Z-11.725
N13220 X13.135 Y-32.603 Z-11.737
N13225 X13.701 Y-32.382 Z-11.75
N13230 X14.373 Y-32.106 Z-11.76
N13235 X15.017 Y-31.826 Z-11.774
N13240 X15.523 Y-31.594 Z-11.783
N13245 X16.191 Y-31.275 Z-11.795
N13250 X16.735 Y-31.001 Z-11.808
N13255 X17.386 Y-30.658 Z-11.818
N13260 X17.864 Y-30.395 Z-11.83
N13265 X18.404 Y-30.085 Z-11.839
N13270 X19.011 Y-29.722 Z-11.852
N13275 X19.457 Y-29.446 Z-11.861
N13280 X20.065 Y-29.052 Z-11.873
N13285 X20.614 Y-28.682 Z-11.886
N13290 X21.199 Y-28.271 Z-11.897
N13295 X21.788 Y-27.838 Z-11.91
N13300 X22.207 Y-27.519 Z-11.92
N13305 X22.761 Y-27.081 Z-11.93
N13310 X23.326 Y-26.615 Z-11.945
N13315 X23.826 Y-26.186 Z-11.955
N13320 X24.334 Y-25.735 Z-11.968
N13325 X24.727 Y-25.372 Z-11.977
N13330 X25.26 Y-24.862 Z-11.988
N13335 X25.613 Y-24.514 Z-11.999
N13340 X26.129 Y-23.985 Z-12.01
N13345 X26.543 Y-23.544 Z-12.024
N13350 X26.984 Y-23.057 Z-12.033
N13355 X27.38 Y-22.605 Z-12.047
N13360 X27.769 Y-22.145 Z-12.056
N13365 X28.212 Y-21.601 Z-12.069
N13370 X28.526 Y-21.202 Z-12.079
N13375 X28.955 Y-20.637 Z-12.091
N13380 X29.329 Y-20.124 Z-12.105
N13385 X29.765 Y-19.502 Z-12.117
N13390 X30.106 Y-18.994 Z-12.13
N13395 X30.383 Y-18.567 Z-12.137
N13400 X30.776 Y-17.937 Z-12.152
N13405 X31.038 Y-17.501 Z-12.161
N13410 X31.403 Y-16.869 Z-12.173
N13415 X31.749 Y-16.239 Z-12.189
N13420 X32.06 Y-15.647 Z-12.199
N13425 X32.35 Y-15.07 Z-12.212
N13430 X32.588 Y-14.575 Z-12.221
N13435 X32.883 Y-13.933 Z-12.234
N13440 X33.08 Y-13.485 Z-12.243
N13445 X33.357 Y-12.825 Z-12.255
N13450 X33.537 Y-12.374 Z-12.266
N13455 X33.797 Y-11.69 Z-12.277
N13460 X34.002 Y-11.119 Z-12.291
N13465 X34.233 Y-10.434 Z-12.302
N13470 X34.405 Y-9.895 Z-12.314
N13475 X34.576 Y-9.324 Z-12.323
N13480 X34.76 Y-8.671 Z-12.336
N13485 X34.89 Y-8.177 Z-12.345
N13490 X35.064 Y-7.465 Z-12.358
N13495 X35.19 Y-6.904 Z-12.37
N13500 X35.33 Y-6.23 Z-12.38
N13505 X35.455 Y-5.563 Z-12.395
N13510 X35.565 Y-4.905 Z-12.406
N13515 X35.65 Y-4.339 Z-12.417
N13520 X35.728 Y-3.754 Z-12.427
N13525 X35.808 Y-3.062 Z-12.44
N13530 X35.858 Y-2.552 Z-12.45
N13535 X35.918 Y-1.814 Z-12.461
N13540 X35.956 Y-1.211 Z-12.475
N13545 X35.988 Y-0.452 Z-12.486
N13550 X36.004 Y0.222 Z-12.5
N13555 X36.007 Y0.824 Z-12.51
N13560 X35.997 Y1.566 Z-12.523
N13565 X35.973 Y2.28 Z-12.538
N13570 X35.936 Y2.986 Z-12.549
N13575 X35.886 Y3.663 Z-12.562
N13580 X35.838 Y4.207 Z-12.572
N13585 X35.76 Y4.927 Z-12.584
N13590 X35.691 Y5.48 Z-12.596
N13595 X35.585 Y6.213 Z-12.606
N13600 X35.482 Y6.848 Z-12.621
N13605 X35.356 Y7.539 Z-12.632
N13610 X35.221 Y8.204 Z-12.645
N13615 X35.087 Y8.809 Z-12.656
N13620 X34.919 Y9.508 Z-12.667
N13625 X34.766 Y10.098 Z-12.681
N13630 X34.559 Y10.836 Z-12.693
N13635 X34.378 Y11.436 Z-12.706
N13640 X34.22 Y11.932 Z-12.713
N13645 X34.016 Y12.539 Z-12.726
N13650 X33.831 Y13.059 Z-12.735
N13655 X33.568 Y13.759 Z-12.749
N13660 X33.404 Y14.175 Z-12.757
N13665 X33.123 Y14.856 Z-12.77
N13670 X32.908 Y15.351 Z-12.781
N13675 X32.613 Y16.001 Z-12.791
N13680 X32.331 Y16.591 Z-12.806
N13685 X32.022 Y17.208 Z-12.816
N13690 X31.742 Y17.745 Z-12.829
N13695 X31.473 Y18.239 Z-12.837
N13700 X31.175 Y18.767 Z-12.85
N13705 X30.896 Y19.243 Z-12.859
N13710 X30.579 Y19.766 Z-12.872
N13715 X30.269 Y20.257 Z-12.882
N13720 X29.911 Y20.806 Z-12.895
N13725 X29.574 Y21.302 Z-12.907
N13730 X29.163 Y21.885 Z-12.919
N13735 X28.822 Y22.35 Z-12.932
N13740 X28.38 Y22.931 Z-12.943
N13745 X28.009 Y23.401 Z-12.958
N13750 X27.576 Y23.931 Z-12.968
N13755 X27.128 Y24.457 Z-12.983
N13760 X26.723 Y24.917 Z-12.994
N13765 X26.243 Y25.443 Z-13.006
N13770 X25.763 Y25.948 Z-13.022
N13775 X25.245 Y26.471 Z-13.034
N13780 X24.799 Y26.907 Z-13.047
N13785 X24.388 Y27.295 Z-13.057
N13790 X23.924 Y27.718 Z-13.07
N13795 X23.551 Y28.049 Z-13.078
N13800 X23.095 Y28.441 Z-13.091
N13805 X22.616 Y28.838 Z-13.101
N13810 X22.094 Y29.256 Z-13.115
N13815 X21.631 Y29.615 Z-13.126
N13820 X21.055 Y30.044 Z-13.138
N13825 X20.585 Y30.382 Z-13.151
N13830 X19.957 Y30.815 Z-13.163
N13835 X19.452 Y31.151 Z-13.177
N13840 X18.908 Y31.499 Z-13.187
N13845 X18.397 Y31.813 Z-13.2
N13850 X17.864 Y32.13 Z-13.211
N13855 X17.291 Y32.456 Z-13.224
N13860 X16.758 Y32.747 Z-13.236
N13865 X16.115 Y33.084 Z-13.247
N13870 X15.507 Y33.388 Z-13.263
N13875 X14.828 Y33.711 Z-13.275
N13880 X14.298 Y33.952 Z-13.288
N13885 X13.741 Y34.194 Z-13.297
N13890 X13.181 Y34.426 Z-13.31
N13895 X12.64 Y34.64 Z-13.32
N13900 X12.034 Y34.869 Z-13.333
N13905 X11.523 Y35.052 Z-13.343
N13910 X10.902 Y35.264 Z-13.356
N13915 X10.327 Y35.448 Z-13.367
N13920 X9.627 Y35.66 Z-13.379
N13925 X8.974 Y35.843 Z-13.394
N13930 X8.243 Y36.033 Z-13.406
N13935 X7.674 Y36.17 Z-13.419
N13940 X7.077 Y36.304 Z-13.429
N13945 X6.349 Y36.453 Z-13.444
N13950 X5.818 Y36.552 Z-13.454
N13955 X5.073 Y36.677 Z-13.467
N13960 X4.392 Y36.779 Z-13.482
N13965 X3.653 Y36.874 Z-13.494
N13970 X3.029 Y36.942 Z-13.508
N13975 X2.467 Y36.995 Z-13.516
N13980 X1.869 Y37.042 Z-13.529
N13985 X1.315 Y37.076 Z-13.538
N13990 X0.712 Y37.104 Z-13.551
N13995 X0.133 Y37.122 Z-13.56
N14000 X-0.556 Y37.132 Z-13.574
N14005 X-1.103 Y37.13 Z-13.584
N14010 X-1.856 Y37.114 Z-13.597
N14015 X-2.394 Y37.094 Z-13.609
N14020 X-3.137 Y37.053 Z-13.62
N14025 X-3.858 Y36.999 Z-13.637
N14030 X-4.508 Y36.938 Z-13.646
N14035 X-5.181 Y36.863 Z-13.661
N14040 X-5.734 Y36.792 Z-13.67
N14045 X-6.453 Y36.686 Z-13.684
N14050 X-6.954 Y36.605 Z-13.693
N14055 X-7.655 Y36.479 Z-13.707
N14060 X-8.155 Y36.38 Z-13.717
N14065 X-8.898 Y36.221 Z-13.73
N14070 X-9.511 Y36.077 Z-13.745
N14075 X-10.251 Y35.889 Z-13.757
N14080 X-10.957 Y35.695 Z-13.774
N14085 X-11.478 Y35.541 Z-13.783
N14090 X-12.026 Y35.371 Z-13.797
N14095 X-12.586 Y35.188 Z-13.806
N14100 X-13.284 Y34.945 Z-13.822
N14105 X-13.834 Y34.743 Z-13.834
N14110 X-14.527 Y34.475 Z-13.847
N14115 X-15.143 Y34.223 Z-13.863
N14120 X-15.847 Y33.919 Z-13.875
N14125 X-16.46 Y33.64 Z-13.891
N14130 X-16.996 Y33.385 Z-13.901
N14135 X-17.53 Y33.12 Z-13.914
N14140 X-18.02 Y32.869 Z-13.923
N14145 X-18.678 Y32.516 Z-13.939
N14150 X-19.181 Y32.234 Z-13.951
N14155 X-19.833 Y31.854 Z-13.964
N14160 X-20.441 Y31.484 Z-13.981
N14165 X-21.075 Y31.08 Z-13.993
N14170 X-21.639 Y30.706 Z-14.008
N14175 X-22.068 Y30.412 Z-14.016
N14180 X-22.672 Y29.981 Z-14.032
N14185 X-23.146 Y29.632 Z-14.044
N14190 X-23.738 Y29.177 Z-14.057
N14195 X-24.267 Y28.756 Z-14.073
N14200 X-24.843 Y28.279 Z-14.084
N14205 X-25.33 Y27.86 Z-14.1
N14210 X-25.827 Y27.417 Z-14.111
N14215 X-26.361 Y26.924 Z-14.126
N14220 X-26.757 Y26.545 Z-14.137
N14225 X-27.294 Y26.013 Z-14.15
N14230 X-27.741 Y25.554 Z-14.166
N14235 X-28.266 Y24.994 Z-14.177
N14240 X-28.711 Y24.501 Z-14.194
N14245 X-29.102 Y24.053 Z-14.203
N14250 X-29.565 Y23.504 Z-14.219
N14255 X-29.908 Y23.083 Z-14.228
N14260 X-30.281 Y22.61 Z-14.241
N14265 X-30.622 Y22.164 Z-14.251
N14270 X-31.031 Y21.61 Z-14.265
N14275 X-31.34 Y21.178 Z-14.275
N14280 X-31.681 Y20.685 Z-14.288
N14285 X-31.984 Y20.232 Z-14.297
N14290 X-32.344 Y19.677 Z-14.311
N14295 X-32.646 Y19.191 Z-14.321
N14300 X-33.011 Y18.584 Z-14.336
N14305 X-33.306 Y18.074 Z-14.347
N14310 X-33.671 Y17.416 Z-14.36
N14315 X-33.985 Y16.822 Z-14.376
N14320 X-34.324 Y16.153 Z-14.388
N14325 X-34.65 Y15.476 Z-14.405
N14330 X-34.895 Y14.944 Z-14.415
N14335 X-35.193 Y14.264 Z-14.43
N14340 X-35.385 Y13.808 Z-14.439
N14345 X-35.659 Y13.123 Z-14.453
N14350 X-35.88 Y12.543 Z-14.467
N14355 X-36.129 Y11.851 Z-14.478
N14360 X-36.334 Y11.247 Z-14.494
N14365 X-36.565 Y10.524 Z-14.506
N14370 X-36.76 Y9.87 Z-14.521
N14375 X-36.905 Y9.355 Z-14.53
N14380 X-37.056 Y8.784 Z-14.544
N14385 X-37.202 Y8.2 Z-14.553
N14390 X-37.37 Y7.469 Z-14.569
N14395 X-37.494 Y6.882 Z-14.581
N14400 X-37.638 Y6.135 Z-14.594
N14405 X-37.764 Y5.404 Z-14.611
N14410 X-37.872 Y4.694 Z-14.622
N14415 X-37.964 Y4.002 Z-14.639
N14420 X-38.031 Y3.431 Z-14.649
N14425 X-38.093 Y2.821 Z-14.664
N14430 X-38.143 Y2.229 Z-14.674
N14435 X-38.192 Y1.514 Z-14.69
N14440 X-38.218 Y1.006 Z-14.699
N14445 X-38.244 Y0.266 Z-14.715
N14450 X-38.254 Y-0.293 Z-14.727
N14455 X-38.255 Y-1.031 Z-14.741
N14460 X-38.246 Y-1.607 Z-14.755
N14465 X-38.223 Y-2.321 Z-14.767
N14470 X-38.191 Y-2.953 Z-14.783
N14475 X-38.14 Y-3.709 Z-14.795
N14480 X-38.085 Y-4.333 Z-14.811
N14485 X-38.019 Y-4.979 Z-14.822
N14490 X-37.932 Y-5.693 Z-14.839
N14495 X-37.853 Y-6.262 Z-14.849
N14500 X-37.761 Y-6.86 Z-14.863
N14505 X-37.67 Y-7.394 Z-14.872
N14510 X-37.542 Y-8.082 Z-14.888
N14515 X-37.428 Y-8.639 Z-14.899
N14520 X-37.304 Y-9.204 Z-14.912
N14525 X-37.166 Y-9.792 Z-14.923
N14530 X-36.986 Y-10.501 Z-14.939
N14535 X-36.836 Y-11.056 Z-14.95
N14540 X-36.657 Y-11.674 Z-14.964
N14545 X-36.489 Y-12.221 Z-14.975
N14550 X-36.262 Y-12.92 Z-14.989
N14555 X-36.069 Y-13.481 Z-15.003
N14560 X-35.805 Y-14.206 Z-15.016
N14565 X-35.557 Y-14.849 Z-15.034
N14570 X-35.286 Y-15.515 Z-15.045
N14575 X-35.001 Y-16.18 Z-15.062
N14580 X-34.789 Y-16.654 Z-15.071
N14585 X-34.49 Y-17.294 Z-15.087
N14590 X-34.24 Y-17.807 Z-15.098
N14595 X-33.975 Y-18.331 Z-15.111
N14600 X-33.704 Y-18.845 Z-15.121
N14605 X-33.41 Y-19.385 Z-15.136
N14610 X-33.257 Y-19.658 Z-15.139
N14615 X-32.903 Y-20.269 Z-15.157
N14620 X-32.501 Y-20.935 Z-15.17
N14625 X-32.181 Y-21.443 Z-15.185
N14630 X-31.836 Y-21.973 Z-15.195
N14635 X-31.497 Y-22.475 Z-15.21
N14640 X-31.138 Y-22.989 Z-15.22
N14645 X-30.78 Y-23.486 Z-15.235
N14650 X-30.425 Y-23.961 Z-15.245
N14655 X-30.014 Y-24.494 Z-15.261
N14660 X-29.661 Y-24.937 Z-15.27
N14665 X-29.211 Y-25.483 Z-15.286
N14670 X-28.835 Y-25.923 Z-15.297
N14675 X-28.443 Y-26.368 Z-15.31
N14680 X-28.066 Y-26.784 Z-15.319
N14685 X-27.588 Y-27.295 Z-15.336
N14690 X-27.188 Y-27.708 Z-15.346
N14695 X-26.647 Y-28.249 Z-15.362
N14700 X-26.3 Y-28.584 Z-15.371
N14705 X-25.868 Y-28.99 Z-15.385
N14710 X-25.453 Y-29.369 Z-15.394
N14715 X-24.929 Y-29.832 Z-15.41
N14720 X-24.469 Y-30.224 Z-15.421
N14725 X-24.023 Y-30.594 Z-15.434
N14730 X-23.569 Y-30.958 Z-15.444
N14735 X-23.097 Y-31.326 Z-15.458
N14740 X-22.593 Y-31.706 Z-15.469
N14745 X-22.096 Y-32.067 Z-15.484
N14750 X-21.609 Y-32.411 Z-15.493
N14755 X-21.054 Y-32.789 Z-15.509
N14760 X-20.589 Y-33.094 Z-15.518
N14765 X-20.025 Y-33.453 Z-15.534
N14770 X-19.527 Y-33.758 Z-15.543
N14775 X-18.891 Y-34.134 Z-15.561
N14780 X-18.441 Y-34.39 Z-15.57
N14785 X-17.848 Y-34.715 Z-15.587
N14790 X-17.38 Y-34.963 Z-15.596
N14795 X-16.718 Y-35.3 Z-15.614
N14800 X-16.254 Y-35.526 Z-15.623
N14805 X-15.642 Y-35.813 Z-15.639
N14810 X-15.175 Y-36.024 Z-15.648
N14815 X-14.572 Y-36.285 Z-15.665
N14820 X-14.02 Y-36.514 Z-15.675
N14825 X-13.342 Y-36.781 Z-15.693
N14830 X-12.826 Y-36.975 Z-15.703
N14835 X-12.15 Y-37.216 Z-15.72
N14840 X-11.608 Y-37.399 Z-15.732
N14845 X-11.044 Y-37.581 Z-15.745
N14850 X-10.533 Y-37.738 Z-15.754
N14855 X-9.829 Y-37.941 Z-15.772
N14860 X-9.294 Y-38.086 Z-15.783
N14865 X-8.695 Y-38.239 Z-15.798
N14870 X-8.14 Y-38.371 Z-15.807
N14875 X-7.518 Y-38.51 Z-15.824
N14880 X-6.918 Y-38.634 Z-15.834
N14885 X-6.203 Y-38.768 Z-15.852
N14890 X-5.715 Y-38.852 Z-15.86
N14895 X-5.092 Y-38.951 Z-15.876
N14900 X-4.45 Y-39.041 Z-15.888
N14905 X-3.783 Y-39.124 Z-15.904
N14910 X-3.246 Y-39.182 Z-15.913
N14915 X-2.51 Y-39.249 Z-15.931
N14920 X-1.951 Y-39.291 Z-15.942
N14925 X-1.244 Y-39.333 Z-15.958
N14930 X-0.737 Y-39.355 Z-15.967
N14935 X-0.062 Y-39.374 Z-15.984
N14940 X0.486 Y-39.381 Z-15.993
N14945 X1.244 Y-39.378 Z-16.011
N14950 X1.75 Y-39.368 Z-16.02
N14955 X2.424 Y-39.344 Z-16.037
N14960 X2.971 Y-39.317 Z-16.046
N14965 X3.704 Y-39.268 Z-16.063
N14970 X4.26 Y-39.222 Z-16.074
N14975 X4.963 Y-39.152 Z-16.09
N14980 X5.479 Y-39.093 Z-16.1
N14985 X6.153 Y-39.005 Z-16.116
N14990 X6.668 Y-38.929 Z-16.125
N14995 X7.311 Y-38.826 Z-16.141
N15000 X7.9 Y-38.721 Z-16.151
N15005 X8.638 Y-38.577 Z-16.169
N15010 X9.121 Y-38.475 Z-16.178
N15015 X9.723 Y-38.339 Z-16.194
N15020 X10.338 Y-38.19 Z-16.204
N15025 X11.031 Y-38.009 Z-16.222
N15030 X11.557 Y-37.863 Z-16.231
N15035 X12.273 Y-37.651 Z-16.249
N15040 X12.804 Y-37.484 Z-16.259
N15045 X13.474 Y-37.262 Z-16.275
N15050 X13.975 Y-37.087 Z-16.285
N15055 X14.621 Y-36.851 Z-16.302
N15060 X15.169 Y-36.64 Z-16.313
N15065 X15.817 Y-36.379 Z-16.328
N15070 X16.306 Y-36.173 Z-16.338
N15075 X16.936 Y-35.896 Z-16.354
N15080 X17.432 Y-35.669 Z-16.364
N15085 X18.125 Y-35.337 Z-16.382
N15090 X18.639 Y-35.081 Z-16.394
N15095 X19.171 Y-34.805 Z-16.407
N15100 X19.655 Y-34.546 Z-16.417
N15105 X20.293 Y-34.19 Z-16.434
N15110 X20.786 Y-33.904 Z-16.445
N15115 X21.385 Y-33.545 Z-16.461
N15120 X21.817 Y-33.276 Z-16.469
N15125 X22.36 Y-32.928 Z-16.486
N15130 X22.863 Y-32.594 Z-16.496
N15135 X23.445 Y-32.193 Z-16.514
N15140 X23.899 Y-31.87 Z-16.523
N15145 X24.43 Y-31.48 Z-16.541
N15150 X24.907 Y-31.118 Z-16.552
N15155 X25.425 Y-30.711 Z-16.569
N15160 X25.891 Y-30.334 Z-16.58
N15165 X26.396 Y-29.912 Z-16.598
N15170 X26.849 Y-29.52 Z-16.608
N15175 X27.339 Y-29.083 Z-16.626
N15180 X27.781 Y-28.676 Z-16.636
N15185 X28.255 Y-28.225 Z-16.654
N15190 X28.709 Y-27.78 Z-16.665
N15195 X29.137 Y-27.347 Z-16.682
N15200 X29.588 Y-26.875 Z-16.694
N15205 X30.003 Y-26.428 Z-16.71
N15210 X30.417 Y-25.968 Z-16.721
N15215 X30.845 Y-25.476 Z-16.738
N15220 X31.236 Y-25.012 Z-16.749
N15225 X31.648 Y-24.509 Z-16.766
N15230 X32.03 Y-24.025 Z-16.777
N15235 X32.426 Y-23.508 Z-16.795
N15240 X32.79 Y-23.017 Z-16.805
N15245 X33.169 Y-22.488 Z-16.823
N15250 X33.54 Y-21.951 Z-16.835
N15255 X33.964 Y-21.316 Z-16.853
N15260 X34.239 Y-20.888 Z-16.863
N15265 X34.566 Y-20.365 Z-16.88
N15270 X34.879 Y-19.845 Z-16.89
N15275 X35.207 Y-19.281 Z-16.908
N15280 X35.526 Y-18.712 Z-16.919
N15285 X35.817 Y-18.174 Z-16.936
N15290 X36.119 Y-17.591 Z-16.948
N15295 X36.46 Y-16.906 Z-16.966
N15300 X36.68 Y-16.446 Z-16.976
N15305 X36.938 Y-15.885 Z-16.992
N15310 X37.185 Y-15.328 Z-17.003
N15315 X37.434 Y-14.74 Z-17.02
N15320 X37.672 Y-14.152 Z-17.031
N15325 X37.908 Y-13.542 Z-17.049
N15330 X38.12 Y-12.967 Z-17.059
N15335 X38.332 Y-12.365 Z-17.077
N15340 X38.534 Y-11.757 Z-17.088
N15345 X38.732 Y-11.131 Z-17.105
N15350 X38.907 Y-10.546 Z-17.116
N15355 X39.08 Y-9.93 Z-17.133
N15360 X39.243 Y-9.314 Z-17.144
N15365 X39.4 Y-8.678 Z-17.162
N15370 X39.539 Y-8.08 Z-17.172
N15375 X39.673 Y-7.455 Z-17.19
N15380 X39.797 Y-6.825 Z-17.201
N15385 X39.915 Y-6.177 Z-17.218
N15390 X40.015 Y-5.573 Z-17.229
N15395 X40.109 Y-4.939 Z-17.246
N15400 X40.193 Y-4.307 Z-17.257
N15405 X40.27 Y-3.654 Z-17.275
N15410 X40.332 Y-3.042 Z-17.285
N15415 X40.387 Y-2.39 Z-17.303
N15420 X40.43 Y-1.769 Z-17.313
N15425 X40.465 Y-1.116 Z-17.331
N15430 X40.488 Y-0.492 Z-17.341
N15435 X40.503 Y0.163 Z-17.359
N15440 X40.506 Y0.787 Z-17.37
N15445 X40.5 Y1.427 Z-17.387
N15450 X40.483 Y2.077 Z-17.398
N15455 X40.457 Y2.723 Z-17.416
N15460 X40.421 Y3.345 Z-17.426
N15465 X40.373 Y3.999 Z-17.444
N15470 X40.318 Y4.623 Z-17.454
N15475 X40.249 Y5.274 Z-17.472
N15480 X40.174 Y5.896 Z-17.483
N15485 X40.071 Y6.642 Z-17.503
N15490 X39.988 Y7.176 Z-17.513
N15495 X39.874 Y7.848 Z-17.532
N15500 X39.767 Y8.426 Z-17.543
N15505 X39.619 Y9.155 Z-17.563
N15510 X39.498 Y9.703 Z-17.574
N15515 X39.34 Y10.374 Z-17.593
N15520 X39.195 Y10.947 Z-17.604
N15525 X38.997 Y11.68 Z-17.624
N15530 X38.853 Y12.18 Z-17.633
N15535 X38.658 Y12.825 Z-17.653
N15540 X38.465 Y13.427 Z-17.664
N15545 X38.24 Y14.09 Z-17.683
N15550 X38.048 Y14.627 Z-17.694
N15555 X37.809 Y15.266 Z-17.713
N15560 X37.582 Y15.845 Z-17.725
N15565 X37.316 Y16.493 Z-17.744
N15570 X37.09 Y17.019 Z-17.754
N15575 X36.81 Y17.643 Z-17.773
N15580 X36.56 Y18.179 Z-17.784
N15585 X36.233 Y18.852 Z-17.804
N15590 X35.98 Y19.351 Z-17.815
N15595 X35.622 Y20.029 Z-17.835
N15600 X35.374 Y20.483 Z-17.844
N15605 X35.064 Y21.031 Z-17.863
N15610 X34.729 Y21.6 Z-17.874
N15615 X34.36 Y22.205 Z-17.894
N15620 X34.042 Y22.71 Z-17.905
N15625 X33.618 Y23.355 Z-17.925
N15630 X33.312 Y23.807 Z-17.936
N15635 X32.893 Y24.403 Z-17.955
N15640 X32.584 Y24.83 Z-17.965
N15645 X32.185 Y25.364 Z-17.984
N15650 X31.803 Y25.859 Z-17.995
N15655 X31.352 Y26.423 Z-18.015
N15660 X30.987 Y26.866 Z-18.025
N15665 X30.553 Y27.376 Z-18.044
N15670 X30.128 Y27.859 Z-18.056
N15675 X29.655 Y28.38 Z-18.075
N15680 X29.261 Y28.8 Z-18.085
N15685 X28.796 Y29.282 Z-18.104
N15690 X28.341 Y29.738 Z-18.116
N15695 X27.836 Y30.228 Z-18.135
N15700 X27.416 Y30.623 Z-18.146
N15705 X26.91 Y31.084 Z-18.165
N15710 X26.462 Y31.48 Z-18.175
N15715 X25.906 Y31.955 Z-18.195
N15720 X25.466 Y32.32 Z-18.205
N15725 X24.952 Y32.732 Z-18.224
N15730 X24.448 Y33.124 Z-18.235
N15735 X23.822 Y33.594 Z-18.256
N15740 X23.394 Y33.905 Z-18.266
N15745 X22.837 Y34.297 Z-18.285
N15750 X22.322 Y34.647 Z-18.296
N15755 X21.728 Y35.037 Z-18.316
N15760 X21.22 Y35.359 Z-18.327
N15765 X20.56 Y35.762 Z-18.347
N15770 X20.116 Y36.024 Z-18.356
N15775 X19.552 Y36.346 Z-18.375
N15780 X18.989 Y36.656 Z-18.386
N15785 X18.421 Y36.957 Z-18.405
N15790 X17.831 Y37.258 Z-18.416
N15795 X17.174 Y37.58 Z-18.436
N15800 X16.653 Y37.824 Z-18.446
N15805 X16.037 Y38.102 Z-18.465
N15810 X15.465 Y38.35 Z-18.476
N15815 X14.813 Y38.619 Z-18.497
N15820 X14.233 Y38.848 Z-18.508
N15825 X13.502 Y39.123 Z-18.53
N15830 X13.013 Y39.297 Z-18.54
N15835 X12.277 Y39.548 Z-18.562
N15840 X11.777 Y39.709 Z-18.572
N15845 X11.045 Y39.933 Z-18.594
N15850 X10.508 Y40.087 Z-18.605
N15855 X9.894 Y40.254 Z-18.624
N15860 X9.269 Y40.414 Z-18.636
N15865 X8.509 Y40.595 Z-18.659
N15870 X7.994 Y40.709 Z-18.668
N15875 X7.259 Y40.859 Z-18.69
N15880 X6.708 Y40.963 Z-18.701
N15885 X6.025 Y41.081 Z-18.721
N15890 X5.409 Y41.178 Z-18.733
N15895 X4.748 Y41.271 Z-18.753
N15900 X4.125 Y41.348 Z-18.764
N15905 X3.421 Y41.425 Z-18.786
N15910 X2.806 Y41.482 Z-18.797
N15915 X2.113 Y41.535 Z-18.818
N15920 X1.487 Y41.573 Z-18.83
N15925 X0.831 Y41.602 Z-18.85
N15930 X0.226 Y41.62 Z-18.86
N15935 X-0.445 Y41.63 Z-18.881
N15940 X-1.123 Y41.629 Z-18.893
N15945 X-1.813 Y41.617 Z-18.914
N15950 X-2.447 Y41.595 Z-18.926
N15955 X-3.176 Y41.558 Z-18.947
N15960 X-3.765 Y41.519 Z-18.958
N15965 X-4.42 Y41.466 Z-18.978
N15970 X-5.039 Y41.406 Z-18.989
N15975 X-5.78 Y41.322 Z-19.011
N15980 X-6.384 Y41.244 Z-19.023
N15985 X-7.164 Y41.129 Z-19.045
N15990 X-7.694 Y41.043 Z-19.055
N15995 X-8.339 Y40.928 Z-19.075
N16000 X-8.936 Y40.813 Z-19.085
N16005 X-9.583 Y40.677 Z-19.106
N16010 X-10.249 Y40.526 Z-19.118
N16015 X-11.004 Y40.342 Z-19.141
N16020 X-11.548 Y40.199 Z-19.151
N16025 X-12.276 Y39.997 Z-19.173
N16030 X-12.829 Y39.833 Z-19.184
N16035 X-13.516 Y39.618 Z-19.205
N16040 X-14.081 Y39.432 Z-19.216
N16045 X-14.701 Y39.217 Z-19.236
N16050 X-15.298 Y39. Z-19.246
N16055 X-15.935 Y38.756 Z-19.268
N16060 X-16.532 Y38.517 Z-19.279
N16065 X-17.255 Y38.214 Z-19.302
N16070 X-17.771 Y37.987 Z-19.312
N16075 X-18.443 Y37.679 Z-19.334
N16080 X-18.973 Y37.427 Z-19.344
N16085 X-19.573 Y37.129 Z-19.365
N16090 X-20.118 Y36.849 Z-19.375
N16095 X-20.706 Y36.535 Z-19.396
N16100 X-21.317 Y36.195 Z-19.408
N16105 X-21.999 Y35.801 Z-19.431
N16110 X-22.469 Y35.518 Z-19.441
N16115 X-23.067 Y35.147 Z-19.462
N16120 X-23.592 Y34.81 Z-19.473
N16125 X-24.253 Y34.37 Z-19.495
N16130 X-24.686 Y34.071 Z-19.505
N16135 X-25.23 Y33.684 Z-19.526
N16140 X-25.742 Y33.308 Z-19.537
N16145 X-26.335 Y32.858 Z-19.561
N16150 X-26.814 Y32.481 Z-19.573
N16155 X-27.379 Y32.023 Z-19.596
N16160 X-27.847 Y31.63 Z-19.608
N16165 X-28.384 Y31.166 Z-19.63
N16170 X-28.839 Y30.759 Z-19.642
N16175 X-29.385 Y30.256 Z-19.665
N16180 X-29.825 Y29.837 Z-19.677
N16185 X-30.324 Y29.346 Z-19.699
N16190 X-30.762 Y28.903 Z-19.711
N16195 X-31.239 Y28.404 Z-19.733
N16200 X-31.65 Y27.961 Z-19.744
N16205 X-32.16 Y27.393 Z-19.768
N16210 X-32.556 Y26.937 Z-19.779
N16215 X-33.031 Y26.373 Z-19.803
N16220 X-33.417 Y25.898 Z-19.815
N16225 X-33.851 Y25.348 Z-19.837
N16230 X-34.225 Y24.859 Z-19.848
N16235 X-34.675 Y24.249 Z-19.872
N16240 X-35.022 Y23.763 Z-19.883
N16245 X-35.421 Y23.186 Z-19.905
N16250 X-35.764 Y22.674 Z-19.917
N16255 X-36.175 Y22.036 Z-19.941
N16260 X-36.485 Y21.538 Z-19.952
N16265 X-36.852 Y20.928 Z-19.974
N16270 X-37.158 Y20.401 Z-19.985
N16275 X-37.536 Y19.725 Z-20.01
N16280 X-37.807 Y19.223 Z-20.02
N16285 X-38.152 Y18.558 Z-20.044
N16290 X-38.421 Y18.017 Z-20.055
N16295 X-38.723 Y17.387 Z-20.077
N16300 X-38.99 Y16.809 Z-20.089
N16305 X-39.281 Y16.148 Z-20.112
N16310 X-39.521 Y15.58 Z-20.124
N16315 X-39.792 Y14.908 Z-20.147
N16320 X-40.014 Y14.333 Z-20.158
N16325 X-40.27 Y13.637 Z-20.181
N16330 X-40.474 Y13.053 Z-20.193
N16335 X-40.691 Y12.398 Z-20.215
N16340 X-40.882 Y11.792 Z-20.227
N16345 X-41.098 Y11.067 Z-20.25
N16350 X-41.257 Y10.497 Z-20.262
N16355 X-41.438 Y9.809 Z-20.284
N16360 X-41.58 Y9.237 Z-20.294
N16365 X-41.737 Y8.556 Z-20.317
N16370 X-41.88 Y7.89 Z-20.33
N16375 X-42.022 Y7.17 Z-20.353
N16380 X-42.131 Y6.562 Z-20.365
N16385 X-42.249 Y5.846 Z-20.388
N16390 X-42.335 Y5.268 Z-20.398
N16395 X-42.438 Y4.488 Z-20.422
N16400 X-42.507 Y3.894 Z-20.433
N16405 X-42.577 Y3.188 Z-20.456
N16410 X-42.631 Y2.551 Z-20.468
N16415 X-42.681 Y1.814 Z-20.491
N16420 X-42.713 Y1.205 Z-20.502
N16425 X-42.739 Y0.48 Z-20.525
N16430 X-42.752 Y-0.139 Z-20.537
N16435 X-42.756 Y-0.9 Z-20.56
N16440 X-42.749 Y-1.491 Z-20.571
N16445 X-42.728 Y-2.276 Z-20.597
N16450 X-42.704 Y-2.829 Z-20.608
N16455 X-42.665 Y-3.499 Z-20.631
N16460 X-42.618 Y-4.149 Z-20.643
N16465 X-42.556 Y-4.852 Z-20.668
N16470 X-42.487 Y-5.506 Z-20.681
N16475 X-42.402 Y-6.212 Z-20.706
N16480 X-42.311 Y-6.868 Z-20.718
N16485 X-42.194 Y-7.628 Z-20.744
N16490 X-42.095 Y-8.209 Z-20.756
N16495 X-41.949 Y-8.989 Z-20.782
N16500 X-41.838 Y-9.532 Z-20.792
N16505 X-41.695 Y-10.189 Z-20.816
N16510 X-41.54 Y-10.847 Z-20.829
N16515 X-41.345 Y-11.618 Z-20.855
N16520 X-41.193 Y-12.18 Z-20.867
N16525 X-40.981 Y-12.918 Z-20.892
N16530 X-40.809 Y-13.482 Z-20.904
N16535 X-40.574 Y-14.213 Z-20.929
N16540 X-40.384 Y-14.773 Z-20.941
N16545 X-40.128 Y-15.491 Z-20.966
N16550 X-39.92 Y-16.045 Z-20.977
N16555 X-39.639 Y-16.759 Z-21.003
N16560 X-39.411 Y-17.314 Z-21.015
N16565 X-39.112 Y-18.01 Z-21.039
N16570 X-38.865 Y-18.56 Z-21.052
N16575 X-38.549 Y-19.234 Z-21.076
N16580 X-38.291 Y-19.765 Z-21.087
N16585 X-37.988 Y-20.364 Z-21.111
N16590 X-37.684 Y-20.944 Z-21.123
N16595 X-37.348 Y-21.562 Z-21.148
N16600 X-37.009 Y-22.161 Z-21.161
N16605 X-36.605 Y-22.847 Z-21.187
N16610 X-36.298 Y-23.35 Z-21.199
N16615 X-35.894 Y-23.988 Z-21.224
N16620 X-35.571 Y-24.482 Z-21.235
N16625 X-35.129 Y-25.134 Z-21.261
N16630 X-34.789 Y-25.62 Z-21.273
N16635 X-34.346 Y-26.231 Z-21.298
N16640 X-33.989 Y-26.708 Z-21.309
N16645 X-33.577 Y-27.242 Z-21.333
N16650 X-33.166 Y-27.758 Z-21.344
N16655 X-32.716 Y-28.305 Z-21.369
N16660 X-32.289 Y-28.808 Z-21.381
N16665 X-31.829 Y-29.332 Z-21.406
N16670 X-31.365 Y-29.844 Z-21.419
N16675 X-30.819 Y-30.427 Z-21.446
N16680 X-30.407 Y-30.852 Z-21.457
N16685 X-29.873 Y-31.387 Z-21.482
N16690 X-29.439 Y-31.807 Z-21.494
N16695 X-28.858 Y-32.353 Z-21.52
N16700 X-28.442 Y-32.732 Z-21.53
N16705 X-27.937 Y-33.178 Z-21.554
N16710 X-27.436 Y-33.608 Z-21.565
N16715 X-26.902 Y-34.052 Z-21.59
N16720 X-26.354 Y-34.492 Z-21.604
N16725 X-25.735 Y-34.972 Z-21.63
N16730 X-25.258 Y-35.33 Z-21.641
N16735 X-24.677 Y-35.753 Z-21.668
N16740 X-24.153 Y-36.122 Z-21.68
N16745 X-23.497 Y-36.567 Z-21.708
N16750 X-23.016 Y-36.883 Z-21.719
N16755 X-22.375 Y-37.29 Z-21.747
N16760 X-21.855 Y-37.609 Z-21.759
N16765 X-21.174 Y-38.011 Z-21.788
N16770 X-20.659 Y-38.305 Z-21.799
N16775 X-19.987 Y-38.674 Z-21.827
N16780 X-19.458 Y-38.954 Z-21.838
N16785 X-18.776 Y-39.301 Z-21.866
N16790 X-18.232 Y-39.567 Z-21.878
N16795 X-17.517 Y-39.903 Z-21.906
N16800 X-16.988 Y-40.141 Z-21.917
N16805 X-16.289 Y-40.444 Z-21.945
N16810 X-15.714 Y-40.682 Z-21.957
N16815 X-15.011 Y-40.96 Z-21.985
N16820 X-14.415 Y-41.184 Z-21.997
N16825 X-13.663 Y-41.453 Z-22.026
N16830 X-13.112 Y-41.641 Z-22.037
N16835 X-12.43 Y-41.862 Z-22.064
N16840 X-11.811 Y-42.052 Z-22.076
N16845 X-11.081 Y-42.263 Z-22.104
N16850 X-10.471 Y-42.429 Z-22.116
N16855 X-9.777 Y-42.606 Z-22.143
N16860 X-9.166 Y-42.752 Z-22.154
N16865 X-8.438 Y-42.914 Z-22.182
N16870 X-7.811 Y-43.043 Z-22.194
N16875 X-7.087 Y-43.181 Z-22.222
N16880 X-6.456 Y-43.29 Z-22.234
N16885 X-5.731 Y-43.404 Z-22.262
N16890 X-5.064 Y-43.498 Z-22.274
N16895 X-4.36 Y-43.586 Z-22.301
N16900 X-3.69 Y-43.659 Z-22.314
N16905 X-2.983 Y-43.725 Z-22.341
N16910 X-2.311 Y-43.776 Z-22.354
N16915 X-1.613 Y-43.819 Z-22.38
N16920 X-0.928 Y-43.85 Z-22.393
N16925 X-0.218 Y-43.871 Z-22.42
N16930 X0.457 Y-43.88 Z-22.433
N16935 X1.168 Y-43.879 Z-22.46
N16940 X1.843 Y-43.866 Z-22.473
N16945 X2.543 Y-43.843 Z-22.499
N16950 X3.229 Y-43.809 Z-22.512
N16955 X3.938 Y-43.762 Z-22.539
N16960 X4.612 Y-43.708 Z-22.552
N16965 X5.31 Y-43.64 Z-22.578
N16970 X5.993 Y-43.563 Z-22.592
N16975 X6.687 Y-43.473 Z-22.618
N16980 X7.369 Y-43.374 Z-22.631
N16985 X8.062 Y-43.262 Z-22.658
N16990 X8.739 Y-43.142 Z-22.671
N16995 X9.438 Y-43.006 Z-22.698
N17000 X10.102 Y-42.867 Z-22.711
N17005 X10.772 Y-42.715 Z-22.737
N17010 X11.431 Y-42.554 Z-22.751
N17015 X12.139 Y-42.37 Z-22.78
N17020 X12.772 Y-42.195 Z-22.793
N17025 X13.456 Y-41.994 Z-22.823
N17030 X14.109 Y-41.791 Z-22.836
N17035 X14.793 Y-41.566 Z-22.866
N17040 X15.43 Y-41.345 Z-22.879
N17045 X16.103 Y-41.101 Z-22.908
N17050 X16.733 Y-40.86 Z-22.921
N17055 X17.401 Y-40.592 Z-22.951
N17060 X18.001 Y-40.341 Z-22.963
N17065 X18.66 Y-40.054 Z-22.993
N17070 X19.31 Y-39.758 Z-23.007
N17075 X19.967 Y-39.445 Z-23.037
N17080 X20.569 Y-39.147 Z-23.05
N17085 X21.218 Y-38.812 Z-23.08
N17090 X21.809 Y-38.496 Z-23.093
N17095 X22.449 Y-38.14 Z-23.123
N17100 X23.007 Y-37.818 Z-23.135
N17105 X23.673 Y-37.419 Z-23.166
N17110 X24.205 Y-37.09 Z-23.178
N17115 X24.862 Y-36.668 Z-23.209
N17120 X25.373 Y-36.328 Z-23.22
N17125 X26.004 Y-35.895 Z-23.251
N17130 X26.536 Y-35.516 Z-23.264
