%
O01003
(Using high feed G1 F500. instead of G0.)
(T0 D=6.74 CR=0. - ZMIN=-80.375 - right hand tap)
(T1 D=50. CR=0. - ZMIN=-2.27 - face mill)
(T2 D=16. CR=0. - ZMIN=-80.375 - flat end mill)
(T3 D=12.7 CR=0. TAPER=118deg - ZMIN=-20.925 - drill)
(T4 D=8. CR=4. - ZMIN=-20.532 - lollipop mill)
(T5 D=5. CR=0. - ZMIN=-20.955 - flat end mill)
(T6 D=1.587 CR=0. - ZMIN=-20.955 - flat end mill)
(T60 D=12.87 CR=0. TAPER=80deg - ZMIN=-71.2 - countersink)
N10 G90 G17
N15 G21
N20 G53 G0 Z0.

(Face1)
N25 T1 M6
N30 S955 M3
N35 G54
N40 M8
N45 G1 X70.6 Y-37.696 F500.
N50 G0 G43 Z15. H1
N55 T2
N60 G0 Z5.
N65 G1 Z4. F460.
N70 G18 G3 X65.6 Z-1. I-5. K0.
N75 G1 X63.11
N80 X-63.11
N85 G17 G2 Y-11.054 I0. J13.321
N90 G1 X63.11
N95 G3 Y15.587 I0. J13.321
N100 G1 X40.885
N105 X-40.885
N110 G18 G3 X-45.885 Z4. I0. K5.
N115 G0 Z15.
N120 M9
N125 M5
N130 G53 G0 Z0.

(2D Contour3)
N135 M1
N140 T2 M6
N145 S5000 M3
N150 G54
N155 M8
N160 G17
N165 G1 X-40.175 Y-2.737 F500.
N170 G0 G43 Z15. H2
N175 T3
N180 G0 Z5.
N185 G1 Z1. F333.33
N190 Z-13.37
N195 G19 G2 Y-4.338 Z-14.97 J-1.6 K0. F1000.
N200 G1 Y-5.938
N205 G17 G3 X-38.575 Y-7.537 I1.6 J0.
N210 G2 X-37.084 Y-7.56 I0. J-50.392
N215 G3 X-35.594 Y-7.582 I1.491 J50.37
N220 X-35.281 Y-7.269 I0. J0.313
N225 G1 X-35.325 Y23.813
N230 G2 X35.325 I35.325 J0.
N235 G1 X35.281 Y-7.269
N240 G3 X35.594 Y-7.582 I0.313 J0.
N245 X37.084 Y-7.56 I0. J50.392
N250 G2 X38.575 Y-7.537 I1.491 J-50.37
N255 G3 X40.175 Y-5.938 I0. J1.6
N260 G1 Y-4.338
N265 G19 G3 Y-2.737 Z-13.37 J0. K1.6
N270 G1 Y-7.637
N275 G2 Y-9.238 Z-14.97 J-1.6 K0.
N280 G1 Y-10.837
N285 G17 G2 X38.575 Y-12.438 I-1.6 J0.
N290 G3 X34.637 Y-12.46 I0. J-344.599
N295 G2 X30.699 Y-12.483 I-3.938 J344.577
N300 X30.38 Y-12.163 I0. J0.319
N305 G1 X30.425 Y23.813
N310 G3 X-30.425 I-30.425 J0.
N315 G1 X-30.38 Y-12.163
N320 G2 X-30.699 Y-12.483 I-0.319 J0.
N325 X-34.637 Y-12.46 I0. J344.599
N330 G3 X-38.575 Y-12.438 I-3.938 J-344.577
N335 G2 X-40.175 Y-10.837 I0. J1.6
N340 G1 Y-9.238
N345 G19 G3 Y-7.637 Z-13.37 J0. K1.6
N350 G1 Y-12.587
N355 G2 Y-14.188 Z-14.97 J-1.6 K0.
N360 G1 Y-15.788
N365 G17 G3 X-38.575 Y-17.388 I1.6 J0.
N370 G1 X-28.575
N375 G3 X-25.475 Y-14.288 I0. J3.1
N380 G1 Y23.813
N385 G2 X25.475 I25.475 J0.
N390 G1 Y-14.288
N395 G3 X28.575 Y-17.388 I3.1 J0.
N400 G1 X38.575
N405 G3 X40.175 Y-15.788 I0. J1.6
N410 G1 Y-14.188
N415 G19 G3 Y-12.587 Z-13.37 J0. K1.6
N420 G1 Y-14.188
N425 G2 Y-15.788 Z-14.97 J-1.6 K0.
N430 G1 Y-17.388
N435 G17 G2 X38.575 Y-18.987 I-1.6 J0.
N440 G1 X28.575
N445 G2 X23.875 Y-14.288 I0. J4.7
N450 G1 Y23.813
N455 G3 X-23.875 I-23.875 J0.
N460 G1 Y-14.288
N465 G2 X-28.575 Y-18.987 I-4.7 J0.
N470 G1 X-38.575
N475 G2 X-40.175 Y-17.388 I0. J1.6
N480 G1 Y-15.788
N485 G19 G3 Y-14.188 Z-13.37 J0. K1.6
N490 G0 Z15.

(2D Adaptive6)
N495 G1 X-48.601 Y-21.705 F500.
N500 G0 Z15.
N505 Z5.
N510 Z-4.15
N515 G1 Z-5.75 F1000.
N520 X-48.6 Y-21.712 Z-5.907
N525 X-48.596 Y-21.735 Z-6.062
N530 X-48.589 Y-21.773 Z-6.214
N535 X-48.58 Y-21.825 Z-6.362
N540 X-48.568 Y-21.891 Z-6.504
N545 X-48.553 Y-21.97 Z-6.639
N550 X-48.537 Y-22.062 Z-6.765
N555 X-48.518 Y-22.166 Z-6.881
N560 X-48.498 Y-22.281 Z-6.987
N565 X-48.476 Y-22.405 Z-7.08
N570 X-48.452 Y-22.537 Z-7.161
N575 X-48.427 Y-22.677 Z-7.228
N580 X-48.401 Y-22.823 Z-7.281
N585 X-48.374 Y-22.973 Z-7.319
N590 X-48.346 Y-23.125 Z-7.342
N595 X-48.319 Y-23.28 Z-7.35
N600 G17 G3 X-45.945 Y-25.337 I2.461 J0.441
N605 G1 X-35.701
N610 X-34.252 Y-25.265
N615 X-32.802 Y-25.252
N620 X-31.353 Y-25.169
N625 X-29.913 Y-24.996
N630 X-29.201 Y-24.857
N635 X-27.978 Y-24.562
N640 X-26.884 Y-24.203
N645 X-25.97 Y-23.819
N650 X-25.023 Y-23.328
N655 X-24.283 Y-22.866
N660 X-23.514 Y-22.295
N665 X-22.878 Y-21.739
N670 X-22.261 Y-21.104
N675 X-21.741 Y-20.475
N680 X-21.22 Y-19.732
N685 X-20.725 Y-18.888
N690 X-20.199 Y-17.798
N695 X-19.675 Y-16.446
N700 X-19.255 Y-15.057
N705 X-18.918 Y-13.646
N710 X-18.645 Y-12.221
N715 X-18.425 Y-10.787
N720 X-18.247 Y-9.347
N725 X-18.103 Y-7.903
N730 X-17.986 Y-6.457
N735 X-17.89 Y-5.009
N740 X-17.813 Y-3.561
N745 X-17.75 Y-2.111
N750 X-17.699 Y-0.661
N755 X-17.658 Y0.789
N760 X-17.624 Y2.239
N765 X-17.596 Y3.69
N770 X-17.574 Y5.141
N775 X-17.557 Y6.424
N780 X-17.586 Y6.897
N785 X-17.681 Y7.362
N790 X-17.843 Y7.808
N795 X-18.066 Y8.227
N800 X-18.348 Y8.609
N805 X-18.45 Y8.728
N810 X-18.622 Y8.936
N815 X-19.014 Y9.415
N820 X-19.396 Y9.895
N825 X-19.408 Y9.912
N830 X-19.704 Y10.374
N835 X-19.887 Y10.668
N840 X-20.002 Y10.853
N845 X-20.59 Y11.812
N850 X-21.159 Y12.771
N855 X-21.325 Y13.099
N860 X-21.397 Y13.25
N865 X-21.613 Y13.729
N870 X-22.283 Y15.351
N875 X-22.406 Y15.647
N880 X-22.596 Y16.126
N885 X-22.763 Y16.653
N890 X-22.886 Y17.085
N895 X-23.118 Y18.044
N900 X-23.348 Y19.002
N905 X-23.557 Y19.961
N910 X-23.622 Y20.44
N915 X-23.67 Y20.92
N920 X-23.721 Y21.543
N925 X-23.823 Y22.837
N930 X-23.828 Y22.917
N935 G3 X-25.568 Y24.361 Z-7.15 I-1.593 J-0.149
N940 X-26.983 Y23.112 I0.148 J-1.593
N945 G1 X-37.208 Y-23.395
N950 G3 X-37.245 Y-23.684 I1.563 J-0.344
N955 X-35.701 Y-25.337 Z-7.35 I1.599 J-0.055
N960 G1 X-24.2
N965 X-23.814 Y-25.318
N970 X-23.264 Y-25.246
N975 X-22.697 Y-25.125
N980 X-22.094 Y-24.944
N985 X-21.449 Y-24.693
N990 X-20.806 Y-24.381
N995 X-20.106 Y-23.969
N1000 X-19.412 Y-23.482
N1005 X-18.68 Y-22.873
N1010 X-17.931 Y-22.143
N1015 X-17.19 Y-21.294
N1020 X-16.427 Y-20.262
N1025 X-15.66 Y-19.03
N1030 X-14.994 Y-17.741
N1035 X-14.418 Y-16.41
N1040 X-13.922 Y-15.047
N1045 X-13.495 Y-13.66
N1050 X-13.129 Y-12.256
N1055 X-12.816 Y-10.839
N1060 X-12.549 Y-9.413
N1065 X-12.321 Y-7.98
N1070 X-12.127 Y-6.543
N1075 X-11.963 Y-5.101
N1080 X-11.823 Y-3.657
N1085 X-11.705 Y-2.211
N1090 X-11.605 Y-0.764
N1095 X-11.525 Y0.685
N1100 X-11.518 Y1.002
N1105 X-11.543 Y1.493
N1110 X-11.641 Y1.975
N1115 X-11.81 Y2.437
N1120 X-12.045 Y2.869
N1125 X-12.342 Y3.261
N1130 X-12.694 Y3.604
N1135 X-13.093 Y3.892
N1140 X-13.178 Y3.944
N1145 X-13.488 Y4.142
N1150 X-14.193 Y4.622
N1155 X-14.616 Y4.965
N1160 X-14.777 Y5.101
N1165 X-16.054 Y6.191
N1170 X-16.462 Y6.539
N1175 X-16.533 Y6.603
N1180 X-16.942 Y7.018
N1185 X-17.397 Y7.498
N1190 X-17.491 Y7.606
N1195 X-18.348 Y8.609
N1200 G3 X-20.608 Y8.708 Z-7.15 I-1.18 J-1.081
N1205 X-21.11 Y7.761 I1.08 J-1.181
N1210 G1 X-25.727 Y-23.505
N1215 X-25.738 Y-23.594
N1220 X-25.744 Y-23.684
N1225 G3 X-24.2 Y-25.337 Z-7.35 I1.599 J-0.055
N1230 G1 X-18.929
N1235 X-18.619 Y-25.322
N1240 X-18.114 Y-25.256
N1245 X-17.56 Y-25.137
N1250 X-16.97 Y-24.961
N1255 X-16.314 Y-24.705
N1260 X-15.644 Y-24.38
N1265 X-14.915 Y-23.951
N1270 X-14.153 Y-23.415
N1275 X-13.37 Y-22.766
N1280 X-12.543 Y-21.959
N1285 X-11.69 Y-20.981
N1290 X-10.827 Y-19.814
N1295 X-10.059 Y-18.583
N1300 X-9.379 Y-17.301
N1305 X-8.778 Y-15.981
N1310 X-8.248 Y-14.63
N1315 X-7.782 Y-13.257
N1320 X-7.372 Y-11.865
N1325 X-7.014 Y-10.459
N1330 X-6.7 Y-9.043
N1335 X-6.426 Y-7.618
N1340 X-6.187 Y-6.187
N1345 X-5.988 Y-4.75
N1350 X-5.854 Y-3.305
N1355 X-5.817 Y-1.925
N1360 X-5.841 Y-1.481
N1365 X-5.899 Y-1.025
N1370 X-6.023 Y-0.582
N1375 X-6.209 Y-0.163
N1380 X-6.455 Y0.226
N1385 X-6.754 Y0.574
N1390 X-7.101 Y0.875
N1395 X-7.488 Y1.123
N1400 X-7.907 Y1.312
N1405 X-8.386 Y1.497
N1410 X-10.303 Y2.292
N1415 X-10.782 Y2.519
N1420 X-11.142 Y2.704
N1425 X-11.262 Y2.772
N1430 X-12.22 Y3.357
N1435 X-13.093 Y3.892
N1440 G3 X-15.273 Y3.288 Z-7.15 I-0.788 J-1.393
N1445 X-15.452 Y2.798 I1.392 J-0.789
N1450 G1 X-20.445 Y-23.439
N1455 X-20.463 Y-23.561
N1460 X-20.472 Y-23.684
N1465 G3 X-18.929 Y-25.337 Z-7.35 I1.599 J-0.055
N1470 G1 X-13.658
N1475 X-13.353 Y-25.322
N1480 X-12.845 Y-25.256
N1485 X-12.247 Y-25.128
N1490 X-11.639 Y-24.946
N1495 X-10.947 Y-24.676
N1500 X-10.243 Y-24.334
N1505 X-9.46 Y-23.873
N1510 X-8.66 Y-23.312
N1515 X-7.814 Y-22.61
N1520 X-6.924 Y-21.741
N1525 X-6.003 Y-20.685
N1530 X-5.14 Y-19.519
N1535 X-4.364 Y-18.293
N1540 X-3.669 Y-17.02
N1545 X-3.046 Y-15.709
N1550 X-2.489 Y-14.37
N1555 X-1.993 Y-13.006
N1560 X-1.552 Y-11.624
N1565 X-1.167 Y-10.225
N1570 X-0.84 Y-8.812
N1575 X-0.575 Y-7.385
N1580 X-0.39 Y-5.946
N1585 X-0.325 Y-4.686
N1590 X-0.356 Y-3.587
N1595 X-0.465 Y-2.584
N1600 X-0.55 Y-2.139
N1605 X-0.674 Y-1.694
N1610 X-0.868 Y-1.275
N1615 X-1.127 Y-0.893
N1620 X-1.445 Y-0.558
N1625 X-1.813 Y-0.278
N1630 X-2.221 Y-0.062
N1635 X-2.659 Y0.084
N1640 X-3.115 Y0.158
N1645 X-4.073 Y0.295
N1650 X-4.133 Y0.308
N1655 X-5.032 Y0.518
N1660 X-6.154 Y0.787
N1665 X-6.327 Y0.831
N1670 G3 X-8.197 Y-0.271 Z-7.16 I-0.338 J-1.564
N1675 G1 X-8.234 Y-0.393 Z-7.15
N1680 X-15.134 Y-23.277
N1685 G3 X-15.201 Y-23.684 I1.532 J-0.462
N1690 X-13.658 Y-25.337 Z-7.35 I1.599 J-0.055
N1695 G1 X-8.386
N1700 X-7.899 Y-25.313
N1705 X-7.368 Y-25.243
N1710 X-6.766 Y-25.115
N1715 X-6.119 Y-24.921
N1720 X-5.414 Y-24.646
N1725 X-4.669 Y-24.285
N1730 X-3.851 Y-23.804
N1735 X-3.015 Y-23.216
N1740 X-2.123 Y-22.476
N1745 X-1.184 Y-21.559
N1750 X-0.23 Y-20.466
N1755 X0.635 Y-19.301
N1760 X1.418 Y-18.08
N1765 X2.124 Y-16.813
N1770 X2.758 Y-15.508
N1775 X3.322 Y-14.171
N1780 X3.816 Y-12.807
N1785 X4.238 Y-11.419
N1790 X4.585 Y-10.01
N1795 X4.849 Y-8.583
N1800 X5.022 Y-7.143
N1805 X5.082 Y-5.858
N1810 X5.045 Y-4.739
N1815 X4.929 Y-3.732
N1820 X4.753 Y-2.834
N1825 X4.524 Y-2.021
N1830 X4.337 Y-1.61
N1835 X4.093 Y-1.23
N1840 X3.797 Y-0.89
N1845 X3.456 Y-0.595
N1850 X3.076 Y-0.352
N1855 X2.665 Y-0.166
N1860 X2.232 Y-0.041
N1865 X1.785 Y0.021
N1870 X1.334 Y0.018
N1875 X1.198 Y0.007
N1880 X0.719 Y-0.023
N1885 X0.24 Y-0.048
N1890 X-0.24
N1895 X-0.719 Y-0.023
N1900 X-1.198 Y0.007
N1905 X-3.115 Y0.158
N1910 G3 X-4.745 Y-1.08 Z-7.173 I-0.071 J-1.598
N1915 G1 X-4.81 Y-1.363 Z-7.15
N1920 X-9.889 Y-23.379
N1925 G3 X-9.929 Y-23.684 I1.559 J-0.36
N1930 X-8.386 Y-25.337 Z-7.35 I1.599 J-0.055
N1935 G1 X-2.851
N1940 X-2.315 Y-25.311
N1945 X-2.165 Y-25.302
N1950 X-2.016 Y-25.29
N1955 X-1.867 Y-25.275
N1960 X-1.718 Y-25.257
N1965 X-1.569 Y-25.235
N1970 X-1.421 Y-25.21
N1975 X-1.274 Y-25.182
N1980 X-1.127 Y-25.151
N1985 X-0.981 Y-25.117
N1990 X-0.836 Y-25.081
N1995 X-0.691 Y-25.042
N2000 X-0.546 Y-25.001
N2005 X-0.403 Y-24.957
N2010 X-0.26 Y-24.911
N2015 X-0.118 Y-24.862
N2020 X0.023 Y-24.811
N2025 X0.163 Y-24.758
N2030 X0.302 Y-24.702
N2035 X0.441 Y-24.644
N2040 X0.578 Y-24.585
N2045 X0.715 Y-24.523
N2050 X0.851 Y-24.46
N2055 X0.986 Y-24.395
N2060 X1.12 Y-24.327
N2065 X1.253 Y-24.258
N2070 X1.385 Y-24.187
N2075 X1.516 Y-24.114
N2080 X1.646 Y-24.04
N2085 X1.776 Y-23.963
N2090 X1.904 Y-23.886
N2095 X2.032 Y-23.807
N2100 X2.158 Y-23.726
N2105 X2.283 Y-23.644
N2110 X2.408 Y-23.56
N2115 X2.531 Y-23.475
N2120 X2.654 Y-23.388
N2125 X2.775 Y-23.3
N2130 X2.896 Y-23.211
N2135 X3.015 Y-23.121
N2140 X3.134 Y-23.029
N2145 X3.252 Y-22.936
N2150 X3.369 Y-22.842
N2155 X3.484 Y-22.746
N2160 X3.599 Y-22.65
N2165 X3.713 Y-22.552
N2170 X3.826 Y-22.453
N2175 X3.937 Y-22.353
N2180 X4.048 Y-22.252
N2185 X4.158 Y-22.15
N2190 X4.267 Y-22.047
N2195 X4.375 Y-21.943
N2200 X4.482 Y-21.838
N2205 X4.588 Y-21.732
N2210 X4.693 Y-21.625
N2215 X4.798 Y-21.517
N2220 X4.901 Y-21.408
N2225 X5.003 Y-21.298
N2230 X5.104 Y-21.187
N2235 X5.205 Y-21.076
N2240 X5.304 Y-20.964
N2245 X5.403 Y-20.851
N2250 X5.501 Y-20.737
N2255 X5.598 Y-20.622
N2260 X5.693 Y-20.507
N2265 X5.788 Y-20.391
N2270 X5.882 Y-20.274
N2275 X5.975 Y-20.156
N2280 X6.067 Y-20.038
N2285 X6.159 Y-19.919
N2290 X6.25 Y-19.798
N2295 X6.343 Y-19.673
N2300 X6.437 Y-19.544
N2305 X6.527 Y-19.419
N2310 X6.614 Y-19.296
N2315 X6.7 Y-19.173
N2320 X6.785 Y-19.05
N2325 X6.869 Y-18.925
N2330 X6.955 Y-18.796
N2335 X7.041 Y-18.664
N2340 X7.129 Y-18.528
N2345 X7.218 Y-18.387
N2350 X7.308 Y-18.243
N2355 X7.399 Y-18.095
N2360 X7.485 Y-17.953
N2365 X7.565 Y-17.818
N2370 X7.643 Y-17.684
N2375 X7.722 Y-17.547
N2380 X7.801 Y-17.405
N2385 X7.882 Y-17.26
N2390 X7.964 Y-17.11
N2395 X8.088 Y-16.876
N2400 X8.173 Y-16.714
N2405 X8.257 Y-16.55
N2410 X8.335 Y-16.394
N2415 X8.408 Y-16.246
N2420 X8.479 Y-16.1
N2425 X8.55 Y-15.95
N2430 X8.623 Y-15.795
N2435 X8.695 Y-15.636
N2440 X8.769 Y-15.472
N2445 X8.843 Y-15.303
N2450 X8.918 Y-15.129
N2455 X8.994 Y-14.951
N2460 X9.064 Y-14.781
N2465 X9.129 Y-14.621
N2470 X9.189 Y-14.468
N2475 X9.25 Y-14.314
N2480 X9.31 Y-14.154
N2485 X9.371 Y-13.99
N2490 X9.433 Y-13.821
N2495 X9.494 Y-13.647
N2500 X9.557 Y-13.468
N2505 X9.618 Y-13.288
N2510 X9.674 Y-13.118
N2515 X9.725 Y-12.958
N2520 X9.773 Y-12.805
N2525 X9.821 Y-12.65
N2530 X9.868 Y-12.491
N2535 X9.916 Y-12.327
N2540 X9.964 Y-12.158
N2545 X10.011 Y-11.984
N2550 X10.058 Y-11.807
N2555 X10.102 Y-11.638
N2560 X10.142 Y-11.478
N2565 X10.179 Y-11.325
N2570 X10.215 Y-11.175
N2575 X10.25 Y-11.02
N2580 X10.285 Y-10.861
N2585 X10.32 Y-10.698
N2590 X10.354 Y-10.531
N2595 X10.388 Y-10.36
N2600 X10.419 Y-10.195
N2605 X10.447 Y-10.038
N2610 X10.473 Y-9.888
N2615 X10.498 Y-9.74
N2620 X10.522 Y-9.591
N2625 X10.545 Y-9.438
N2630 X10.568 Y-9.281
N2635 X10.59 Y-9.119
N2640 X10.611 Y-8.955
N2645 X10.63 Y-8.798
N2650 X10.647 Y-8.647
N2655 X10.663 Y-8.498
N2660 X10.678 Y-8.349
N2665 X10.691 Y-8.199
N2670 X10.704 Y-8.05
N2675 X10.715 Y-7.898
N2680 X10.726 Y-7.743
N2685 X10.736 Y-7.588
N2690 X10.744 Y-7.438
N2695 X10.751 Y-7.288
N2700 X10.756 Y-7.138
N2705 X10.761 Y-6.988
N2710 X10.764 Y-6.838
N2715 X10.767 Y-6.688
N2720 Y-6.538
N2725 Y-6.388
N2730 X10.765 Y-6.238
N2735 X10.761 Y-6.088
N2740 X10.757 Y-5.938
N2745 X10.751 Y-5.788
N2750 X10.743 Y-5.639
N2755 X10.734 Y-5.489
N2760 X10.724 Y-5.339
N2765 X10.712 Y-5.19
N2770 X10.698 Y-5.04
N2775 X10.683 Y-4.891
N2780 X10.666 Y-4.742
N2785 X10.648 Y-4.593
N2790 X10.628 Y-4.444
N2795 X10.606 Y-4.296
N2800 X10.583 Y-4.148
N2805 X10.558 Y-4.
N2810 X10.532 Y-3.852
N2815 X10.503 Y-3.705
N2820 X10.473 Y-3.558
N2825 X10.441 Y-3.411
N2830 X10.408 Y-3.265
N2835 X10.372 Y-3.12
N2840 X10.335 Y-2.974
N2845 X10.296 Y-2.829
N2850 X10.255 Y-2.685
N2855 X10.212 Y-2.541
N2860 X10.168 Y-2.398
N2865 X10.121 Y-2.255
N2870 X10.073 Y-2.113
N2875 X10.023 Y-1.972
N2880 X9.971 Y-1.831
N2885 X9.917 Y-1.691
N2890 X9.861 Y-1.552
N2895 X9.803 Y-1.414
N2900 X9.743 Y-1.276
N2905 X9.681 Y-1.14
N2910 X9.617 Y-1.004
N2915 X9.552 Y-0.869
N2920 X9.484 Y-0.735
N2925 X9.415 Y-0.602
N2930 X9.343 Y-0.47
N2935 X9.27 Y-0.339
N2940 X9.246 Y-0.299
N2945 X9.016 Y0.033
N2950 X8.735 Y0.322
N2955 X8.411 Y0.563
N2960 X8.053 Y0.749
N2965 X7.669 Y0.874
N2970 X7.271 Y0.937
N2975 X6.867 Y0.934
N2980 X6.469 Y0.867
N2985 X6.154 Y0.787
N2990 X5.032 Y0.518
N2995 X4.133 Y0.308
N3000 X4.073 Y0.295
N3005 X3.115 Y0.158
N3010 X1.334 Y0.018
N3015 G3 X-0.056 Y-1.267 Z-7.189 I0.181 J-1.59
N3020 G1 X-0.149 Y-1.745 Z-7.15
N3025 X-4.366 Y-23.433
N3030 G3 X-4.395 Y-23.684 I1.571 J-0.305
N3035 X-2.851 Y-25.337 Z-7.35 I1.599 J-0.055
N3040 G1 X3.115
N3045 X3.65 Y-25.311
N3050 X4.217 Y-25.236
N3055 X4.839 Y-25.103
N3060 X5.517 Y-24.9
N3065 X6.248 Y-24.616
N3070 X7.031 Y-24.235
N3075 X7.861 Y-23.747
N3080 X8.735 Y-23.133
N3085 X9.187 Y-22.757
N3090 X9.457 Y-22.515
N3095 X9.786 Y-22.203
N3100 X10.072 Y-21.979
N3105 X10.378 Y-21.784
N3110 X10.701 Y-21.62
N3115 X11.039 Y-21.489
N3120 X11.388 Y-21.39
N3125 X12.816 Y-21.133
N3130 X12.906 Y-21.147
N3135 X14.338 Y-21.381
N3140 X15.746 Y-21.73
N3145 X17.134 Y-22.153
N3150 X18.51 Y-22.611
N3155 X19.89 Y-23.059
N3160 X21.28 Y-23.476
N3165 X22.685 Y-23.837
N3170 X24.106 Y-24.13
N3175 X25.537 Y-24.367
N3180 X26.975 Y-24.559
N3185 X28.418 Y-24.714
N3190 X29.863 Y-24.839
N3195 X31.31 Y-24.942
N3200 X31.819 Y-25.131
N3205 X32.193 Y-25.245
N3210 X32.578 Y-25.314
N3215 X32.969 Y-25.337
N3220 X38.098
N3225 G3 X39.641 Y-23.684 Z-7.15 I-0.056 J1.599
N3230 X39.589 Y-23.33 I-1.599 J-0.055
N3235 G1 X27.014 Y24.346
N3240 G3 X25.556 Y25.536 I-1.547 J-0.408
N3245 X23.87 Y24.028 Z-7.35 I-0.089 J-1.598
N3250 G1 X23.865 Y23.796
N3255 X23.851 Y23.317
N3260 X23.823 Y22.837
N3265 X23.71 Y21.399
N3270 X23.67 Y20.92
N3275 X23.622 Y20.44
N3280 X23.557 Y19.961
N3285 X23.348 Y19.002
N3290 X23.002 Y17.564
N3295 X22.886 Y17.085
N3300 X22.763 Y16.653
N3305 X22.596 Y16.126
N3310 X22.406 Y15.647
N3315 X21.804 Y14.192
N3320 X21.613 Y13.729
N3325 X21.397 Y13.25
N3330 X21.325 Y13.099
N3335 X21.159 Y12.771
N3340 X20.875 Y12.291
N3345 X20.432 Y11.452
N3350 X20.362 Y11.286
N3355 X20.222 Y10.951
N3360 X20.09 Y10.613
N3365 X19.926 Y10.29
N3370 X19.731 Y9.984
N3375 X19.507 Y9.698
N3380 X19.257 Y9.436
N3385 X18.871 Y9.103
N3390 X18.718 Y8.992
N3395 X18.577 Y8.867
N3400 X18.45 Y8.728
N3405 G3 X19.683 Y7.544 Z-7.15 I0.682 J-0.524
N3410 G1 X19.741 Y7.597
N3415 X19.795 Y7.656
N3420 X19.843 Y7.72
N3425 X22.31 Y11.343
N3430 X22.364 Y11.435
N3435 X22.407 Y11.533
N3440 G3 X20.875 Y12.291 Z-7.35 I-0.808 J0.294
N3445 G1 X20.59 Y11.812
N3450 X20.002 Y10.853
N3455 X19.887 Y10.668
N3460 X19.704 Y10.374
N3465 X19.693 Y10.353
N3470 G2 X19.58 Y10.092 I-3.042 J1.17
N3475 X19.42 Y9.832 I-1.438 J0.702
N3480 G1 X19.317 Y9.695
N3485 X19.14 Y9.46
N3490 X19.04 Y9.328
N3495 G2 X18.834 Y9.102 I-1.278 J0.963
N3500 X18.615 Y8.921 I-2.183 J2.421
N3505 G1 X18.593 Y8.901
N3510 X18.45 Y8.728
N3515 X17.491 Y7.606
N3520 X17.397 Y7.498
N3525 X16.942 Y7.018
N3530 X16.533 Y6.603
N3535 X16.462 Y6.539
N3540 X15.095 Y5.372
N3545 X14.777 Y5.101
N3550 X14.616 Y4.965
N3555 X14.193 Y4.622
N3560 X13.488 Y4.142
N3565 X13.178 Y3.944
N3570 X11.936 Y3.184
N3575 X11.262 Y2.772
N3580 X11.142 Y2.704
N3585 X10.782 Y2.519
N3590 X10.303 Y2.292
N3595 X8.386 Y1.497
N3600 X8.123 Y1.395
N3605 G3 X7.194 Y0.291 Z-7.231 I0.629 J-1.471
N3610 G1 X6.961 Y-0.697 Z-7.15
N3615 X1.613 Y-23.371
N3620 G3 X1.572 Y-23.684 I1.557 J-0.367
N3625 X3.115 Y-25.337 Z-7.35 I1.599 J-0.055
N3630 G1 X32.969
N3635 G3 X33.716 Y-25.122 I-0.056 J1.599
N3640 G1 X33.852 Y-25.044 Z-7.342
N3645 X33.986 Y-24.966 Z-7.319
N3650 X34.118 Y-24.889 Z-7.281
N3655 X34.246 Y-24.815 Z-7.228
N3660 X34.368 Y-24.744 Z-7.161
N3665 X34.485 Y-24.676 Z-7.08
N3670 X34.594 Y-24.613 Z-6.987
N3675 X34.694 Y-24.555 Z-6.881
N3680 X34.786 Y-24.502 Z-6.765
N3685 X34.867 Y-24.455 Z-6.639
N3690 X34.936 Y-24.414 Z-6.504
N3695 X34.994 Y-24.38 Z-6.362
N3700 X35.04 Y-24.354 Z-6.214
N3705 X35.073 Y-24.335 Z-6.062
N3710 X35.093 Y-24.323 Z-5.907
N3715 X35.1 Y-24.319 Z-5.75
N3720 G0 Z15.
N3725 M9
N3730 M5
N3735 G53 G0 Z0.

(Drill1)
N3740 M1
N3745 T3 M6
N3750 S5000 M3
N3755 G54
N3760 M8
N3765 G1 X0. Y23.813 F500.
N3770 G0 G43 Z15. H3
N3775 T1
N3780 G0 Z5.
N3785 G98 G81 X0. Y23.813 Z-20.925 R2.73 F1000.
N3790 G80
N3795 G0 Z15.
N3800 M9
N3805 M5
N3810 G53 G0 Z0.

(Face4)
N3815 M1
N3820 T1 M6
N3825 S955 M3
N3830 G54
N3835 M8
N3840 G1 X48.375 Y23.813 F500.
N3845 G0 G43 Z15. H1
N3850 T2
N3855 G0 Z5.
N3860 G1 Z2.73 F460.
N3865 G18 G3 X43.375 Z-2.27 I-5. K0.
N3870 G1 X40.885
N3875 X-40.885
N3880 G3 X-45.885 Z2.73 I0. K5.
N3885 G0 Z15.
N3890 M9
N3895 M5
N3900 G53 G0 Z0.

(Adaptive2)
N3905 M1
N3910 T2 M6
N3915 S5000 M3
N3920 G54
N3925 M8
N3930 G17
N3935 G1 X-1.633 Y-18.248 F500.
N3940 G0 G43 Z15. H2
N3945 T5
N3950 G0 Z5.
N3955 Z-31.725
N3960 G1 Z-33.325 F1000.
N3965 X-1.631 Y-18.241 Z-33.482
N3970 X-1.625 Y-18.219 Z-33.637
N3975 X-1.616 Y-18.182 Z-33.789
N3980 X-1.603 Y-18.13 Z-33.937
N3985 X-1.586 Y-18.065 Z-34.079
N3990 X-1.566 Y-17.987 Z-34.214
N3995 X-1.543 Y-17.897 Z-34.34
N4000 X-1.517 Y-17.794 Z-34.456
N4005 X-1.488 Y-17.682 Z-34.562
N4010 X-1.456 Y-17.56 Z-34.655
N4015 X-1.423 Y-17.429 Z-34.736
N4020 X-1.388 Y-17.292 Z-34.803
N4025 X-1.351 Y-17.148 Z-34.856
N4030 X-1.313 Y-17.001 Z-34.894
N4035 X-1.275 Y-16.85 Z-34.917
N4040 X-1.236 Y-16.698 Z-34.925
N4045 G3 X0.017 Y-7.988 I-39.57 J10.136
N4050 G1 Y-7.838
N4055 X-0.273 Y-6.416
N4060 X-0.51 Y-4.985
N4065 X-0.706 Y-3.548
N4070 X-0.865 Y-2.106
N4075 X-0.996 Y-0.661
N4080 X-1.103 Y0.786
N4085 X-1.191 Y2.234
N4090 X-1.263 Y3.683
N4095 X-1.321 Y5.133
N4100 X-1.369 Y6.583
N4105 X-1.408 Y8.033
N4110 X-1.439 Y9.484
N4115 X-1.465 Y10.935
N4120 X-1.487 Y12.385
N4125 X-1.504 Y13.836
N4130 X-1.518 Y15.287
N4135 X-1.529 Y16.737
N4140 X-1.539 Y18.188
N4145 X-1.546 Y19.639
N4150 X-1.553 Y21.09
N4155 X-1.562 Y23.992
N4160 X-1.568 Y26.893
N4165 X-1.574 Y31.246
N4170 X-1.578 Y37.049
N4175 X-1.58 Y42.852
N4180 X-1.582 Y58.046
N4185 X-1.617 Y58.525
N4190 X-1.721 Y58.994
N4195 X-1.892 Y59.442
N4200 X-2.126 Y59.861
N4205 X-2.419 Y60.242
N4210 X-2.764 Y60.576
N4215 X-3.153 Y60.857
N4220 X-3.512 Y61.078
N4225 X-3.75 Y61.242
N4230 X-4.153 Y61.558
N4235 X-4.229 Y61.626
N4240 X-4.674 Y62.037
N4245 X-5.113 Y62.517
N4250 X-5.489 Y62.997
N4255 X-5.666 Y63.276
N4260 X-5.79 Y63.477
N4265 X-6.073 Y63.957
N4270 X-6.297 Y64.436
N4275 X-6.498 Y64.916
N4280 X-6.653 Y65.396
N4285 X-6.783 Y65.876
N4290 X-6.877 Y66.355
N4295 X-6.943 Y66.835
N4300 X-6.981 Y67.315
N4305 X-6.998 Y67.795
N4310 X-7. Y68.754
N4315 Y79.309
N4320 X-6.998 Y80.269
N4325 X-6.98 Y80.749
N4330 X-6.942 Y81.228
N4335 X-6.875 Y81.708
N4340 X-6.78 Y82.188
N4345 X-6.648 Y82.668
N4350 X-6.494 Y83.147
N4355 X-6.29 Y83.627
N4360 X-6.067 Y84.107
N4365 X-5.782 Y84.587
N4370 X-5.666 Y84.774
N4375 X-5.48 Y85.067
N4380 X-5.102 Y85.546
N4385 X-4.662 Y86.026
N4390 X-4.229 Y86.424
N4395 X-4.136 Y86.506
N4400 X-3.75 Y86.808
N4405 X-3.49 Y86.986
N4410 X-2.793 Y87.415
N4415 X-2.314 Y87.636
N4420 X-1.835 Y87.849
N4425 X-1.357 Y88.002
N4430 X-0.878 Y88.143
N4435 X-0.399 Y88.236
N4440 X0.08 Y88.312
N4445 X0.559 Y88.349
N4450 X1.037 Y88.374
N4455 X2.474 Y88.375
N4460 X76.205
N4465 X77.163 Y88.374
N4470 X77.641 Y88.349
N4475 X78.12 Y88.312
N4480 X78.599 Y88.236
N4485 X79.078 Y88.143
N4490 X79.557 Y88.002
N4495 X80.035 Y87.849
N4500 X80.514 Y87.636
N4505 X80.993 Y87.415
N4510 X81.69 Y86.986
N4515 X81.95 Y86.808
N4520 X82.336 Y86.506
N4525 X82.429 Y86.424
N4530 X82.862 Y86.026
N4535 X83.302 Y85.546
N4540 X83.68 Y85.067
N4545 X83.866 Y84.774
N4550 X83.982 Y84.587
N4555 X84.267 Y84.107
N4560 X84.49 Y83.627
N4565 X84.694 Y83.147
N4570 X84.848 Y82.668
N4575 X84.98 Y82.188
N4580 X85.075 Y81.708
N4585 X85.142 Y81.228
N4590 X85.18 Y80.749
N4595 X85.198 Y80.269
N4600 X85.2 Y79.309
N4605 Y68.754
N4610 X85.198 Y67.795
N4615 X85.181 Y67.315
N4620 X85.143 Y66.835
N4625 X85.077 Y66.355
N4630 X84.983 Y65.876
N4635 X84.853 Y65.396
N4640 X84.698 Y64.916
N4645 X84.497 Y64.436
N4650 X84.273 Y63.957
N4655 X83.99 Y63.477
N4660 X83.866 Y63.276
N4665 X83.689 Y62.997
N4670 X83.239 Y62.284
N4675 X82.725 Y61.305
N4680 X82.182 Y60.031
N4685 X81.722 Y58.655
N4690 X81.353 Y57.252
N4695 X81.056 Y55.832
N4700 X80.816 Y54.402
N4705 X80.622 Y52.964
N4710 X80.464 Y51.521
N4715 X80.337 Y50.076
N4720 X80.233 Y48.629
N4725 X80.149 Y47.181
N4730 X80.08 Y45.732
N4735 X80.025 Y44.282
N4740 X79.98 Y42.832
N4745 X79.943 Y41.381
N4750 X79.913 Y39.931
N4755 X79.889 Y38.48
N4760 X79.869 Y37.029
N4765 X79.853 Y35.579
N4770 X79.839 Y34.128
N4775 X79.829 Y32.677
N4780 X79.82 Y31.226
N4785 X79.813 Y29.776
N4790 X79.807 Y28.325
N4795 X79.799 Y25.423
N4800 X79.793 Y22.521
N4805 X79.788 Y18.169
N4810 X79.785 Y12.366
N4815 X79.784 Y7.65
N4820 X79.749 Y7.289
N4825 X79.679 Y6.934
N4830 X79.262 Y5.544
N4835 X78.435 Y4.352
N4840 X77.398 Y3.337
N4845 X76.225 Y2.483
N4850 X74.962 Y1.768
N4855 X73.639 Y1.174
N4860 X72.275 Y0.681
N4865 X70.882 Y0.273
N4870 X69.471 Y-0.063
N4875 X68.047 Y-0.339
N4880 X66.614 Y-0.566
N4885 X65.175 Y-0.752
N4890 X63.732 Y-0.905
N4895 X62.287 Y-1.03
N4900 X60.839 Y-1.132
N4905 X59.391 Y-1.215
N4910 X57.942 Y-1.284
N4915 X56.492 Y-1.339
N4920 X55.534 Y-1.369
N4925 X55.097 Y-1.412
N4930 X54.67 Y-1.513
N4935 X54.26 Y-1.669
N4940 X53.874 Y-1.878
N4945 X53.52 Y-2.136
N4950 X53.381 Y-2.252
N4955 X53.224 Y-2.363
N4960 X52.68 Y-2.732
N4965 X52.266 Y-3.001
N4970 X51.138 Y-3.692
N4975 X50.351 Y-4.171
N4980 X49.872 Y-4.423
N4985 X49.391 Y-4.651
N4990 X47.479 Y-5.444
N4995 X47.049 Y-5.611
N5000 X46.521 Y-5.803
N5005 X46.042 Y-5.951
N5010 X45.493 Y-6.09
N5015 X45.085 Y-6.191
N5020 X44.127 Y-6.421
N5025 X43.488 Y-6.57
N5030 X43.17 Y-6.644
N5035 X42.212 Y-6.779
N5040 X40.297 Y-6.931
N5045 X39.818 Y-6.961
N5050 X39.339 Y-6.986
N5055 X38.861
N5060 X38.382 Y-6.961
N5065 X37.903 Y-6.931
N5070 X35.988 Y-6.779
N5075 X35.03 Y-6.644
N5080 X34.552 Y-6.533
N5085 X34.073 Y-6.421
N5090 X33.115 Y-6.191
N5095 X32.637 Y-6.072
N5100 X32.158 Y-5.951
N5105 X31.679 Y-5.803
N5110 X31.151 Y-5.611
N5115 X30.721 Y-5.444
N5120 X28.806 Y-4.65
N5125 X27.465 Y-4.096
N5130 X26.097 Y-3.615
N5135 X24.698 Y-3.228
N5140 X23.281 Y-2.918
N5145 X21.852 Y-2.667
N5150 X20.416 Y-2.464
N5155 X18.974 Y-2.299
N5160 X17.529 Y-2.166
N5165 X16.083 Y-2.058
N5170 X14.634 Y-1.97
N5175 X14.273 Y-1.94
N5180 X12.846 Y-1.679
N5185 X11.575 Y-0.979
N5190 X10.476 Y-0.032
N5195 X9.537 Y1.074
N5200 X8.742 Y2.288
N5205 X8.074 Y3.576
N5210 X7.515 Y4.914
N5215 X7.048 Y6.288
N5220 X6.66 Y7.686
N5225 X6.338 Y9.101
N5230 X6.071 Y10.527
N5235 X5.85 Y11.961
N5240 X5.668 Y13.4
N5245 X5.517 Y14.843
N5250 X5.393 Y16.288
N5255 X5.291 Y17.736
N5260 X5.207 Y19.184
N5265 X5.138 Y20.633
N5270 X5.081 Y22.083
N5275 X5.034 Y23.533
N5280 X4.996 Y24.983
N5285 X4.964 Y26.434
N5290 X4.938 Y27.884
N5295 X4.917 Y29.335
N5300 X4.899 Y30.786
N5305 X4.885 Y32.237
N5310 X4.873 Y33.687
N5315 X4.863 Y35.138
N5320 X4.855 Y36.589
N5325 X4.849 Y38.04
N5330 X4.839 Y40.941
N5335 X4.832 Y43.843
N5340 X4.826 Y48.195
N5345 X4.823 Y51.097
N5350 X4.814 Y52.548
N5355 X4.766 Y53.998
N5360 X4.647 Y55.444
N5365 X4.444 Y56.767
N5370 X4.273 Y57.492
N5375 X4.146 Y57.894
N5380 X3.961 Y58.272
N5385 X3.722 Y58.618
N5390 X3.434 Y58.926
N5395 X3.104 Y59.187
N5400 X2.739 Y59.397
N5405 X2.346 Y59.55
N5410 X1.936 Y59.644
N5415 X1.516 Y59.676
N5420 X1.037
N5425 G3 X0.29 Y59.462 I0.053 J-1.599
N5430 G1 X0.154 Y59.384 Z-34.917
N5435 X0.02 Y59.306 Z-34.894
N5440 X-0.112 Y59.23 Z-34.856
N5445 X-0.24 Y59.156 Z-34.803
N5450 X-0.363 Y59.085 Z-34.736
N5455 X-0.48 Y59.018 Z-34.655
N5460 X-0.589 Y58.954 Z-34.562
N5465 X-0.69 Y58.896 Z-34.456
N5470 X-0.781 Y58.843 Z-34.34
N5475 X-0.862 Y58.797 Z-34.214
N5480 X-0.932 Y58.756 Z-34.079
N5485 X-0.99 Y58.723 Z-33.937
N5490 X-1.036 Y58.696 Z-33.789
N5495 X-1.069 Y58.677 Z-33.637
N5500 X-1.089 Y58.666 Z-33.482
N5505 X-1.095 Y58.662 Z-33.325
N5510 G0 Z5.
N5515 G1 X30.287 Y-6.499 F500.
N5520 G0 Z-31.725
N5525 G1 Z-33.325 F1000.
N5530 X30.282 Y-6.493 Z-33.482
N5535 X30.269 Y-6.474 Z-33.637
N5540 X30.248 Y-6.442 Z-33.789
N5545 X30.219 Y-6.398 Z-33.937
N5550 X30.181 Y-6.343 Z-34.079
N5555 X30.136 Y-6.276 Z-34.214
N5560 X30.084 Y-6.198 Z-34.34
N5565 X30.025 Y-6.111 Z-34.456
N5570 X29.96 Y-6.014 Z-34.562
N5575 X29.889 Y-5.909 Z-34.655
N5580 X29.814 Y-5.798 Z-34.736
N5585 X29.735 Y-5.68 Z-34.803
N5590 X29.652 Y-5.557 Z-34.856
N5595 X29.567 Y-5.431 Z-34.894
N5600 X29.481 Y-5.302 Z-34.917
N5605 X29.393 Y-5.172 Z-34.925
N5610 G3 X28.806 Y-4.65 I-1.313 J-0.884
N5615 G1 X28.328 Y-4.423
N5620 X27.849 Y-4.171
N5625 X26.891 Y-3.587
N5630 X25.934 Y-3.001
N5635 X25.52 Y-2.732
N5640 X24.976 Y-2.363
N5645 X24.819 Y-2.252
N5650 X24.497 Y-1.984
N5655 X24.247 Y-1.772
N5660 X23.061 Y-0.76
N5665 X22.582 Y-0.348
N5670 X21.907 Y0.198
N5675 X20.709 Y1.017
N5680 X19.539 Y1.876
N5685 X18.464 Y2.85
N5690 X17.492 Y3.926
N5695 X16.625 Y5.09
N5700 X15.859 Y6.322
N5705 X15.188 Y7.608
N5710 X14.605 Y8.937
N5715 X14.099 Y10.297
N5720 X13.664 Y11.681
N5725 X13.291 Y13.083
N5730 X12.972 Y14.498
N5735 X12.699 Y15.923
N5740 X12.468 Y17.355
N5745 X12.271 Y18.793
N5750 X12.104 Y20.234
N5755 X11.963 Y21.678
N5760 X11.844 Y23.124
N5765 X11.743 Y24.571
N5770 X11.659 Y26.019
N5775 X11.587 Y27.468
N5780 X11.527 Y28.918
N5785 X11.477 Y30.368
N5790 X11.435 Y31.818
N5795 X11.399 Y33.269
N5800 X11.37 Y34.719
N5805 X11.345 Y36.17
N5810 X11.324 Y37.62
N5815 X11.306 Y39.071
N5820 X11.292 Y40.522
N5825 X11.28 Y41.973
N5830 X11.269 Y43.423
N5835 X11.252 Y46.325
N5840 X11.236 Y47.776
N5845 X11.203 Y49.226
N5850 X11.144 Y50.676
N5855 X11.05 Y52.124
N5860 X10.902 Y53.567
N5865 X10.675 Y55.
N5870 X10.388 Y56.21
N5875 X10.051 Y57.248
N5880 X9.888 Y57.642
N5885 X9.669 Y58.075
N5890 X9.39 Y58.471
N5895 X9.055 Y58.822
N5900 X8.672 Y59.12
N5905 X8.25 Y59.359
N5910 X7.798 Y59.533
N5915 X7.324 Y59.639
N5920 X6.841 Y59.675
N5925 X1.613 Y59.676
N5930 X1.516
N5935 G3 X0.769 Y59.461 I0.054 J-1.599
N5940 G1 X0.633 Y59.383 Z-34.917
N5945 X0.498 Y59.305 Z-34.894
N5950 X0.367 Y59.229 Z-34.856
N5955 X0.239 Y59.155 Z-34.803
N5960 X0.116 Y59.084 Z-34.736
N5965 X-0.001 Y59.016 Z-34.655
N5970 X-0.11 Y58.953 Z-34.562
N5975 X-0.211 Y58.895 Z-34.456
N5980 X-0.302 Y58.842 Z-34.34
N5985 X-0.383 Y58.795 Z-34.214
N5990 X-0.453 Y58.755 Z-34.079
N5995 X-0.511 Y58.721 Z-33.937
N6000 X-0.557 Y58.695 Z-33.789
N6005 X-0.59 Y58.676 Z-33.637
N6010 X-0.61 Y58.664 Z-33.482
N6015 X-0.616 Y58.66 Z-33.325
N6020 G0 Z5.
N6025 G1 X23.476 Y-2.542 F500.
N6030 G0 Z-31.725
N6035 G1 Z-33.325 F1000.
N6040 X23.474 Y-2.534 Z-33.482
N6045 X23.467 Y-2.512 Z-33.637
N6050 X23.456 Y-2.476 Z-33.789
N6055 X23.44 Y-2.425 Z-33.937
N6060 X23.42 Y-2.361 Z-34.079
N6065 X23.395 Y-2.284 Z-34.214
N6070 X23.367 Y-2.195 Z-34.34
N6075 X23.336 Y-2.094 Z-34.456
N6080 X23.301 Y-1.983 Z-34.562
N6085 X23.263 Y-1.863 Z-34.655
N6090 X23.223 Y-1.735 Z-34.736
N6095 X23.18 Y-1.599 Z-34.803
N6100 X23.136 Y-1.458 Z-34.856
N6105 X23.09 Y-1.313 Z-34.894
N6110 X23.043 Y-1.165 Z-34.917
N6115 X22.996 Y-1.015 Z-34.925
N6120 G3 X22.582 Y-0.348 I-1.51 J-0.475
N6125 G1 X22.566 Y-0.333
N6130 X22.095 Y0.147
N6135 X21.644 Y0.626
N6140 X20.667 Y1.77
N6145 X20.423 Y2.066
N6150 X20.03 Y2.545
N6155 X19.71 Y2.949
N6160 X19.656 Y3.025
N6165 X19.231 Y3.701
N6170 X19.055 Y3.985
N6175 X18.468 Y4.944
N6180 X17.899 Y5.904
N6185 X17.794 Y6.118
N6190 X17.667 Y6.384
N6195 X17.458 Y6.863
N6200 X16.837 Y8.364
N6205 X16.664 Y8.783
N6210 X16.484 Y9.262
N6215 X16.33 Y9.742
N6220 X16.196 Y10.222
N6225 X15.849 Y11.661
N6230 X15.735 Y12.141
N6235 X15.526 Y13.101
N6240 X15.422 Y14.06
N6245 X15.271 Y15.979
N6250 X15.247 Y16.459
N6255 X15.233 Y16.939
N6260 X15.225 Y17.418
N6265 Y54.361
N6270 X15.194 Y54.841
N6275 X15.16 Y55.321
N6280 X15.107 Y55.8
N6285 X14.989 Y56.28
N6290 X14.922 Y56.521
N6295 X14.821 Y56.76
N6300 X14.6 Y57.24
N6305 X14.443 Y57.489
N6310 X14.282 Y57.719
N6315 X14.142 Y57.917
N6320 X13.964 Y58.114
N6325 X13.876 Y58.199
N6330 X13.485 Y58.572
N6335 X13.345 Y58.679
N6340 X13.007 Y58.915
N6345 X12.56 Y59.159
N6350 X12.528 Y59.174
N6355 X12.049 Y59.381
N6360 X11.57 Y59.51
N6365 X11.092 Y59.582
N6370 X10.613 Y59.63
N6375 X9.655 Y59.673
N6380 X9.177 Y59.675
N6385 X6.841
N6390 G3 X6.093 Y59.46 I0.056 J-1.599
N6395 G1 X5.958 Y59.381 Z-34.917
N6400 X5.823 Y59.303 Z-34.894
N6405 X5.692 Y59.227 Z-34.856
N6410 X5.564 Y59.153 Z-34.803
N6415 X5.441 Y59.081 Z-34.736
N6420 X5.325 Y59.014 Z-34.655
N6425 X5.215 Y58.95 Z-34.562
N6430 X5.115 Y58.892 Z-34.456
N6435 X5.024 Y58.839 Z-34.34
N6440 X4.943 Y58.792 Z-34.214
N6445 X4.873 Y58.752 Z-34.079
N6450 X4.815 Y58.718 Z-33.937
N6455 X4.769 Y58.691 Z-33.789
N6460 X4.736 Y58.672 Z-33.637
N6465 X4.716 Y58.661 Z-33.482
N6470 X4.709 Y58.657 Z-33.325
N6475 G0 Z5.
N6480 G1 X85.82 Y64.031 F500.
N6485 G0 Z-31.725
N6490 G1 Z-33.325 F1000.
N6495 X85.813 Y64.028 Z-33.482
N6500 X85.792 Y64.02 Z-33.637
N6505 X85.756 Y64.006 Z-33.789
N6510 X85.707 Y63.987 Z-33.937
N6515 X85.644 Y63.963 Z-34.079
N6520 X85.569 Y63.934 Z-34.214
N6525 X85.482 Y63.9 Z-34.34
N6530 X85.383 Y63.862 Z-34.456
N6535 X85.275 Y63.82 Z-34.562
N6540 X85.157 Y63.774 Z-34.655
N6545 X85.032 Y63.726 Z-34.736
N6550 X84.899 Y63.674 Z-34.803
N6555 X84.762 Y63.621 Z-34.856
N6560 X84.619 Y63.566 Z-34.894
N6565 X84.475 Y63.51 Z-34.917
N6570 X84.328 Y63.453 Z-34.925
N6575 G3 X83.689 Y62.997 I0.571 J-1.476
N6580 G1 X83.313 Y62.517
N6585 X82.874 Y62.037
N6590 X82.429 Y61.626
N6595 X82.353 Y61.558
N6600 X81.95 Y61.242
N6605 X81.712 Y61.078
N6610 X80.993 Y60.635
N6615 X80.949 Y60.615
N6620 X80.755 Y60.513
N6625 X80.346 Y60.256
N6630 X79.896 Y59.919
N6635 X79.412 Y59.491
N6640 X78.885 Y58.945
N6645 X78.333 Y58.273
N6650 X77.748 Y57.429
N6655 X77.134 Y56.373
N6660 X76.509 Y55.064
N6665 X75.988 Y53.71
N6670 X75.554 Y52.325
N6675 X75.193 Y50.92
N6680 X74.891 Y49.501
N6685 X74.64 Y48.072
N6690 X74.43 Y46.636
N6695 X74.255 Y45.196
N6700 X74.109 Y43.753
N6705 X73.988 Y42.307
N6710 X73.886 Y40.86
N6715 X73.802 Y39.411
N6720 X73.731 Y37.962
N6725 X73.672 Y36.513
N6730 X73.623 Y35.063
N6735 X73.583 Y33.612
N6740 X73.549 Y32.162
N6745 X73.521 Y30.711
N6750 X73.497 Y29.261
N6755 X73.478 Y27.81
N6760 X73.461 Y26.359
N6765 X73.448 Y24.909
N6770 X73.437 Y23.458
N6775 X73.427 Y22.007
N6780 X73.42 Y20.556
N6785 X73.413 Y19.105
N6790 X73.404 Y16.204
N6795 X73.208 Y14.766
N6800 X72.687 Y13.412
N6805 X71.913 Y12.185
N6810 X70.954 Y11.097
N6815 X69.858 Y10.146
N6820 X68.663 Y9.323
N6825 X67.396 Y8.616
N6830 X66.077 Y8.012
N6835 X64.72 Y7.499
N6840 X63.335 Y7.065
N6845 X61.932 Y6.697
N6850 X61.517 Y6.572
N6855 X61.122 Y6.392
N6860 X60.756 Y6.161
N6865 X60.424 Y5.882
N6870 X60.132 Y5.561
N6875 X59.886 Y5.204
N6880 X59.732 Y4.944
N6885 X59.145 Y3.985
N6890 X58.969 Y3.701
N6895 X58.544 Y3.025
N6900 X58.49 Y2.949
N6905 X58.17 Y2.545
N6910 X57.777 Y2.066
N6915 X57.533 Y1.77
N6920 X56.556 Y0.626
N6925 X56.097 Y0.138
N6930 X55.634 Y-0.333
N6935 X55.077 Y-0.813
N6940 X53.953 Y-1.772
N6945 X53.52 Y-2.136
N6950 G3 X53.085 Y-2.781 I1.069 J-1.191
N6955 G1 X53.031 Y-2.928 Z-34.917
N6960 X52.978 Y-3.074 Z-34.894
N6965 X52.926 Y-3.217 Z-34.856
N6970 X52.876 Y-3.356 Z-34.803
N6975 X52.827 Y-3.49 Z-34.736
N6980 X52.781 Y-3.616 Z-34.655
N6985 X52.738 Y-3.735 Z-34.562
N6990 X52.698 Y-3.844 Z-34.456
N6995 X52.662 Y-3.943 Z-34.34
N7000 X52.63 Y-4.031 Z-34.214
N7005 X52.603 Y-4.107 Z-34.079
N7010 X52.58 Y-4.17 Z-33.937
N7015 X52.562 Y-4.22 Z-33.789
N7020 X52.549 Y-4.256 Z-33.637
N7025 X52.541 Y-4.277 Z-33.482
N7030 X52.538 Y-4.285 Z-33.325
N7035 G0 Z5.
N7040 G1 X83.317 Y60.563 F500.
N7045 G0 Z-31.725
N7050 G1 Z-33.325 F1000.
N7055 X83.309 Y60.564 Z-33.482
N7060 X83.286 Y60.566 Z-33.637
N7065 X83.248 Y60.57 Z-33.789
N7070 X83.196 Y60.575 Z-33.937
N7075 X83.129 Y60.582 Z-34.079
N7080 X83.049 Y60.591 Z-34.214
N7085 X82.956 Y60.601 Z-34.34
N7090 X82.851 Y60.612 Z-34.456
N7095 X82.735 Y60.624 Z-34.562
N7100 X82.61 Y60.637 Z-34.655
N7105 X82.476 Y60.651 Z-34.736
N7110 X82.335 Y60.666 Z-34.803
N7115 X82.188 Y60.681 Z-34.856
N7120 X82.036 Y60.697 Z-34.894
N7125 X81.882 Y60.713 Z-34.917
N7130 X81.726 Y60.729 Z-34.925
N7135 G3 X80.949 Y60.615 I-0.165 J-1.574
N7140 G1 X80.514 Y60.414
N7145 X80.035 Y60.201
N7150 X79.557 Y60.048
N7155 X79.078 Y59.907
N7160 X78.599 Y59.814
N7165 X78.12 Y59.738
N7170 X78.041 Y59.732
N7175 X77.84 Y59.706
N7180 X77.467 Y59.628
N7185 X77.029 Y59.499
N7190 X76.586 Y59.328
N7195 X76.072 Y59.082
N7200 X75.545 Y58.774
N7205 X74.959 Y58.365
N7210 X74.359 Y57.872
N7215 X73.71 Y57.243
N7220 X73.033 Y56.474
N7225 X72.336 Y55.54
N7230 X71.611 Y54.385
N7235 X70.94 Y53.099
N7240 X70.364 Y51.767
N7245 X69.87 Y50.403
N7250 X69.446 Y49.016
N7255 X69.083 Y47.611
N7260 X68.772 Y46.194
N7265 X68.506 Y44.768
N7270 X68.278 Y43.335
N7275 X68.084 Y41.897
N7280 X67.918 Y40.456
N7285 X67.777 Y39.012
N7290 X67.656 Y37.566
N7295 X67.554 Y36.119
N7300 X67.466 Y34.67
N7305 X67.392 Y33.222
N7310 X67.329 Y31.772
N7315 X67.275 Y30.322
N7320 X67.23 Y28.872
N7325 X67.191 Y27.422
N7330 X67.159 Y25.971
N7335 X67.131 Y24.521
N7340 X67.08 Y23.071
N7345 X66.762 Y21.655
N7350 X66.187 Y20.323
N7355 X65.399 Y19.106
N7360 X64.455 Y18.004
N7365 X63.852 Y17.41
N7370 X63.54 Y17.056
N7375 X63.283 Y16.662
N7380 X63.084 Y16.235
N7385 X62.948 Y15.783
N7390 X62.877 Y15.317
N7395 X62.778 Y14.06
N7400 X62.674 Y13.101
N7405 X62.465 Y12.141
N7410 X62.321 Y11.533
N7415 X62.004 Y10.222
N7420 X61.87 Y9.742
N7425 X61.716 Y9.262
N7430 X61.536 Y8.783
N7435 X60.884 Y7.206
N7440 X60.742 Y6.863
N7445 X60.627 Y6.6
N7450 G3 X60.525 Y5.829 I1.488 J-0.589
N7455 G1 X60.543 Y5.673 Z-34.917
N7460 X60.56 Y5.519 Z-34.894
N7465 X60.578 Y5.367 Z-34.856
N7470 X60.594 Y5.22 Z-34.803
N7475 X60.611 Y5.079 Z-34.736
N7480 X60.626 Y4.946 Z-34.655
N7485 X60.64 Y4.82 Z-34.562
N7490 X60.653 Y4.705 Z-34.456
N7495 X60.665 Y4.6 Z-34.34
N7500 X60.676 Y4.507 Z-34.214
N7505 X60.685 Y4.427 Z-34.079
N7510 X60.693 Y4.36 Z-33.937
N7515 X60.699 Y4.308 Z-33.789
N7520 X60.703 Y4.27 Z-33.637
N7525 X60.706 Y4.247 Z-33.482
N7530 X60.707 Y4.239 Z-33.325
N7535 G0 Z5.
N7540 G1 X80.242 Y58.858 F500.
N7545 G0 Z-31.725
N7550 G1 Z-33.325 F1000.
N7555 X80.236 Y58.861 Z-33.482
N7560 X80.215 Y58.872 Z-33.637
N7565 X80.181 Y58.889 Z-33.789
N7570 X80.133 Y58.912 Z-33.937
N7575 X80.073 Y58.942 Z-34.079
N7580 X80.001 Y58.978 Z-34.214
N7585 X79.917 Y59.019 Z-34.34
N7590 X79.823 Y59.066 Z-34.456
N7595 X79.718 Y59.118 Z-34.562
N7600 X79.605 Y59.174 Z-34.655
N7605 X79.485 Y59.233 Z-34.736
N7610 X79.357 Y59.297 Z-34.803
N7615 X79.225 Y59.362 Z-34.856
N7620 X79.089 Y59.43 Z-34.894
N7625 X78.949 Y59.499 Z-34.917
N7630 X78.809 Y59.568 Z-34.925
N7635 G3 X78.041 Y59.732 I-0.703 J-1.418
N7640 G1 X77.641 Y59.701
N7645 X77.163 Y59.676
N7650 X75.726 Y59.675
N7655 X74.29
N7660 X73.827 Y59.652
N7665 X73.388 Y59.594
N7670 X72.886 Y59.487
N7675 X72.343 Y59.324
N7680 X71.764 Y59.099
N7685 X71.129 Y58.791
N7690 X70.469 Y58.402
N7695 X69.766 Y57.908
N7700 X69.016 Y57.286
N7705 X68.257 Y56.545
N7710 X67.458 Y55.63
N7715 X66.632 Y54.513
N7720 X65.865 Y53.281
N7725 X65.19 Y51.997
N7730 X64.596 Y50.673
N7735 X64.075 Y49.319
N7740 X63.618 Y47.942
N7745 X63.218 Y46.548
N7750 X63.072 Y45.962
N7755 X63.018 Y45.7
N7760 X62.986 Y45.434
N7765 X62.975 Y45.167
N7770 Y17.418
N7775 X62.967 Y16.939
N7780 X62.953 Y16.459
N7785 X62.929 Y15.979
N7790 X62.877 Y15.317
N7795 G3 X64.405 Y13.649 Z-34.725 I1.598 J-0.07
N7800 X66.036 Y14.892 I0.071 J1.598
N7805 G1 X75.794 Y57.721
N7810 G3 X75.833 Y58.021 I-1.56 J0.355
N7815 X74.29 Y59.675 Z-34.925 I-1.599 J0.055
N7820 G1 X69.502
N7825 X68.876 Y59.644
N7830 X68.372 Y59.578
N7835 X67.808 Y59.457
N7840 X67.218 Y59.28
N7845 X66.554 Y59.021
N7850 X65.872 Y58.691
N7855 X65.128 Y58.253
N7860 X64.34 Y57.699
N7865 X64.197 Y57.581
N7870 X63.892 Y57.292
N7875 X63.626 Y56.968
N7880 X63.403 Y56.612
N7885 X63.227 Y56.231
N7890 X63.101 Y55.831
N7895 G3 X64.369 Y54.908 Z-34.768 I0.842 J-0.176
N7900 G1 X64.835 Y55.174 Z-34.725
N7905 X69.65 Y57.927
N7910 X69.899 Y58.069 Z-34.748
N7915 G3 X69.502 Y59.675 Z-34.925 I-0.427 J0.747
N7920 G1 X69.023
N7925 X68.545 Y59.673
N7930 X67.587 Y59.63
N7935 X67.108 Y59.582
N7940 X66.63 Y59.51
N7945 X66.151 Y59.381
N7950 X65.672 Y59.174
N7955 X65.64 Y59.159
N7960 X65.193 Y58.915
N7965 X64.855 Y58.679
N7970 X64.715 Y58.572
N7975 X64.324 Y58.199
N7980 X64.236 Y58.114
N7985 X64.058 Y57.917
N7990 X63.918 Y57.719
N7995 X63.757 Y57.489
N8000 X63.6 Y57.24
N8005 X63.379 Y56.76
N8010 X63.278 Y56.521
N8015 X63.211 Y56.28
N8020 X63.093 Y55.8
N8025 X63.04 Y55.321
N8030 X63.006 Y54.841
N8035 X62.975 Y54.361
N8040 Y45.167
N8045 X62.988 Y45.075 Z-34.919
N8050 X63.002 Y44.985 Z-34.903
N8055 X63.015 Y44.898 Z-34.876
N8060 X63.027 Y44.814 Z-34.839
N8065 X63.06 Y44.73 Z-34.785
N8070 X63.089 Y44.654 Z-34.719
N8075 X63.116 Y44.586 Z-34.643
N8080 X63.138 Y44.528 Z-34.558
N8085 X63.156 Y44.482 Z-34.466
N8090 X63.171 Y44.455 Z-34.388
N8095 X63.181 Y44.435 Z-34.307
N8100 X63.188 Y44.424 Z-34.224
N8105 X63.19 Y44.42 Z-34.14
N8110 G0 Z5.
N8115 G1 X79.24 Y58.025 F500.
N8120 G0 Z-17.755
N8125 G1 Z-19.355 F1000.
N8130 X79.233 Y58.027 Z-19.512
N8135 X79.21 Y58.033 Z-19.667
N8140 X79.173 Y58.042 Z-19.819
N8145 X79.122 Y58.056 Z-19.967
N8150 X79.057 Y58.072 Z-20.109
N8155 X78.979 Y58.092 Z-20.244
N8160 X78.888 Y58.115 Z-20.37
N8165 X78.786 Y58.142 Z-20.486
N8170 X78.673 Y58.17 Z-20.592
N8175 X78.551 Y58.202 Z-20.685
N8180 X78.421 Y58.235 Z-20.766
N8185 X78.283 Y58.27 Z-20.833
N8190 X78.14 Y58.307 Z-20.886
N8195 X77.992 Y58.345 Z-20.924
N8200 X77.842 Y58.383 Z-20.947
N8205 X77.69 Y58.422 Z-20.955
N8210 G3 X68.98 Y59.675 I-10.136 J-39.57
N8215 G1 X64.451
N8220 X64.148 Y59.66
N8225 X63.873 Y59.624
N8230 X63.592 Y59.564
N8235 X63.311 Y59.48
N8240 X63. Y59.358
N8245 X62.701 Y59.213
N8250 X62.39 Y59.03
N8255 X62.054 Y58.794
N8260 X61.703 Y58.503
N8265 X61.334 Y58.142
N8270 X60.923 Y57.672
N8275 X60.475 Y57.066
N8280 X59.991 Y56.288
N8285 X59.475 Y55.287
N8290 X58.929 Y53.983
N8295 X58.479 Y52.604
N8300 X58.117 Y51.199
N8305 X57.826 Y49.777
N8310 X57.59 Y48.346
N8315 X57.4 Y46.908
N8320 X57.245 Y45.465
N8325 X57.12 Y44.02
N8330 X57.019 Y42.572
N8335 X56.936 Y41.124
N8340 X56.869 Y39.675
N8345 X56.814 Y38.225
N8350 X56.77 Y36.775
N8355 X56.734 Y35.324
N8360 X56.704 Y33.874
N8365 X56.68 Y32.423
N8370 X56.661 Y30.972
N8375 X56.645 Y29.522
N8380 X56.632 Y28.071
N8385 X56.621 Y26.62
N8390 X56.613 Y25.169
N8395 X56.605 Y23.719
N8400 X56.586 Y22.268
N8405 X56.547 Y20.818
N8410 X56.457 Y19.369
N8415 X56.315 Y17.926
N8420 X56.097 Y16.491
N8425 X55.799 Y15.071
N8430 X55.415 Y13.672
N8435 X54.935 Y12.303
N8440 X54.363 Y10.97
N8445 X53.689 Y9.685
N8450 X52.92 Y8.455
N8455 X52.053 Y7.292
N8460 X51.094 Y6.203
N8465 X50.049 Y5.197
N8470 X48.92 Y4.286
N8475 X47.719 Y3.471
N8480 X46.45 Y2.769
N8485 X45.125 Y2.178
N8490 X43.752 Y1.708
N8495 X42.343 Y1.363
N8500 X40.909 Y1.141
N8505 X39.461 Y1.056
N8510 X38.01 Y1.095
N8515 X36.57 Y1.271
N8520 X35.152 Y1.575
N8525 X33.766 Y2.005
N8530 X32.427 Y2.564
N8535 X31.141 Y3.236
N8540 X29.926 Y4.029
N8545 X28.787 Y4.927
N8550 X27.735 Y5.926
N8555 X26.78 Y7.018
N8560 X25.925 Y8.19
N8565 X25.187 Y9.439
N8570 X24.558 Y10.747
N8575 X24.035 Y12.1
N8580 X23.602 Y13.485
N8585 X23.245 Y14.891
N8590 X22.952 Y16.312
N8595 X22.71 Y17.742
N8600 X22.512 Y19.18
N8605 X22.35 Y20.621
N8610 X22.217 Y22.066
N8615 X22.108 Y23.513
N8620 X22.019 Y24.961
N8625 X21.947 Y26.41
N8630 X21.887 Y27.86
N8635 X21.839 Y29.31
N8640 X21.799 Y30.76
N8645 X21.767 Y32.21
N8650 X21.741 Y33.661
N8655 X21.72 Y35.112
N8660 X21.702 Y36.562
N8665 X21.688 Y38.013
N8670 X21.676 Y39.464
N8675 X21.667 Y40.915
N8680 X21.659 Y42.366
N8685 X21.653 Y43.816
N8690 X21.643 Y46.718
N8695 X21.64 Y48.169
N8700 X21.619 Y49.62
N8705 X21.564 Y51.069
N8710 X21.447 Y52.515
N8715 X21.238 Y53.951
N8720 X20.951 Y55.232
N8725 X20.612 Y56.326
N8730 X20.201 Y57.351
N8735 X19.955 Y57.845
N8740 X19.723 Y58.239
N8745 X19.44 Y58.598
N8750 X19.109 Y58.913
N8755 X18.738 Y59.18
N8760 X18.334 Y59.394
N8765 X17.904 Y59.549
N8770 X17.456 Y59.643
N8775 X17. Y59.675
N8780 X10.134
N8785 X10.043 Y59.662 Z-20.949
N8790 X9.953 Y59.648 Z-20.933
N8795 X9.865 Y59.635 Z-20.906
N8800 X9.781 Y59.623 Z-20.869
N8805 X9.697 Y59.59 Z-20.815
N8810 X9.621 Y59.561 Z-20.749
N8815 X9.553 Y59.534 Z-20.673
N8820 X9.496 Y59.512 Z-20.588
N8825 X9.449 Y59.494 Z-20.496
N8830 X9.422 Y59.479 Z-20.418
N8835 X9.403 Y59.469 Z-20.337
N8840 X9.391 Y59.462 Z-20.254
N8845 X9.387 Y59.46 Z-20.17
N8850 G0 Z5.
N8855 G1 X66.58 Y58.636 F500.
N8860 G0 Z-17.755
N8865 G1 Z-19.355 F1000.
N8870 X66.573 Y58.64 Z-19.512
N8875 X66.554 Y58.652 Z-19.667
N8880 X66.521 Y58.671 Z-19.819
N8885 X66.475 Y58.698 Z-19.967
N8890 X66.418 Y58.733 Z-20.109
N8895 X66.348 Y58.774 Z-20.244
N8900 X66.268 Y58.822 Z-20.37
N8905 X66.177 Y58.875 Z-20.486
N8910 X66.077 Y58.935 Z-20.592
N8915 X65.969 Y58.999 Z-20.685
N8920 X65.853 Y59.068 Z-20.766
N8925 X65.731 Y59.141 Z-20.833
N8930 X65.604 Y59.216 Z-20.886
N8935 X65.473 Y59.294 Z-20.924
N8940 X65.34 Y59.374 Z-20.947
N8945 X65.205 Y59.454 Z-20.955
N8950 G3 X64.451 Y59.675 I-0.809 J-1.36
N8955 G1 X61.363
N8960 X61.006 Y59.657
N8965 X60.665 Y59.612
N8970 X60.259 Y59.526
N8975 X59.842 Y59.401
N8980 X59.368 Y59.216
N8985 X58.86 Y58.97
N8990 X58.33 Y58.657
N8995 X57.754 Y58.253
N9000 X57.158 Y57.758
N9005 X56.534 Y57.149
N9010 X55.875 Y56.394
N9015 X55.201 Y55.483
N9020 X54.509 Y54.371
N9025 X53.844 Y53.082
N9030 X53.712 Y52.772
N9035 X53.567 Y52.355
N9040 X53.479 Y51.923
N9045 X53.45 Y51.483
N9050 Y24.135
N9055 X53.448 Y23.656
N9060 X53.441 Y23.176
N9065 X53.431 Y22.696
N9070 X53.384 Y22.216
N9075 X53.307 Y21.736
N9080 X53.224 Y21.344
N9085 X53.2 Y21.257
N9090 X53.06 Y20.777
N9095 X52.893 Y20.297
N9100 X52.745 Y19.959
N9105 X52.424 Y19.338
N9110 X52.266 Y19.043
N9115 X52.146 Y18.858
N9120 X51.807 Y18.378
N9125 X50.994 Y17.176
N9130 X50.168 Y15.984
N9135 X49.289 Y14.83
N9140 X48.336 Y13.735
N9145 X47.295 Y12.725
N9150 X46.157 Y11.825
N9155 X44.921 Y11.065
N9160 X43.595 Y10.476
N9165 X42.197 Y10.089
N9170 X40.755 Y9.93
N9175 X39.307 Y10.021
N9180 X37.901 Y10.38
N9185 X36.586 Y10.991
N9190 X35.39 Y11.813
N9195 X34.325 Y12.799
N9200 X33.391 Y13.908
N9205 X33.332 Y13.995
N9210 X33.066 Y14.338
N9215 X32.756 Y14.643
N9220 X32.41 Y14.905
N9225 X32.031 Y15.119
N9230 X31.628 Y15.281
N9235 X31.207 Y15.389
N9240 X30.721 Y15.491
N9245 X30.243 Y15.646
N9250 X29.764 Y15.812
N9255 X29.285 Y16.035
N9260 X28.806 Y16.267
N9265 X28.495 Y16.459
N9270 X28.328 Y16.571
N9275 X27.849 Y16.915
N9280 X27.37 Y17.306
N9285 X27.251 Y17.418
N9290 X26.891 Y17.797
N9295 X26.8 Y17.898
N9300 X26.412 Y18.352
N9305 X26.393 Y18.378
N9310 X26.054 Y18.858
N9315 X25.934 Y19.043
N9320 X25.776 Y19.338
N9325 X25.455 Y19.959
N9330 X25.307 Y20.297
N9335 X25.14 Y20.777
N9340 X25. Y21.257
N9345 X24.976 Y21.344
N9350 X24.893 Y21.736
N9355 X24.816 Y22.216
N9360 X24.769 Y22.696
N9365 X24.759 Y23.176
N9370 X24.752 Y23.656
N9375 X24.75 Y24.135
N9380 Y55.321
N9385 X24.712 Y56.086
N9390 X24.62 Y56.783
N9395 X24.477 Y57.455
N9400 X24.439 Y57.58
N9405 X24.269 Y58.018
N9410 X24.031 Y58.423
N9415 X23.732 Y58.784
N9420 X23.379 Y59.094
N9425 X22.981 Y59.343
N9430 X22.549 Y59.526
N9435 X22.093 Y59.637
N9440 X21.625 Y59.675
N9445 G3 X20.081 Y58.021 Z-20.755 I0.056 J-1.599
N9450 X20.275 Y57.311 I1.599 J0.055
N9455 G1 X21.746 Y54.611
N9460 G3 X23.096 Y53.777 I1.405 J0.765
N9465 X24.75 Y55.321 Z-20.955 I0.055 J1.599
N9470 G1 Y57.719
N9475 X24.744 Y58.199
N9480 X24.705 Y58.439
N9485 X24.626 Y58.679
N9490 X24.497 Y58.924
N9495 X24.414 Y59.041
N9500 X24.314 Y59.159
N9505 X24.166 Y59.299
N9510 X24.019 Y59.409
N9515 X23.779 Y59.54
N9520 X23.54 Y59.623
N9525 X23.475 Y59.639
N9530 X23.268 Y59.67
N9535 X23.061 Y59.675
N9540 X17.
N9545 X16.909 Y59.662 Z-20.949
N9550 X16.819 Y59.648 Z-20.933
N9555 X16.731 Y59.635 Z-20.906
N9560 X16.648 Y59.623 Z-20.869
N9565 X16.564 Y59.59 Z-20.815
N9570 X16.487 Y59.561 Z-20.749
N9575 X16.419 Y59.534 Z-20.673
N9580 X16.362 Y59.512 Z-20.588
N9585 X16.315 Y59.494 Z-20.496
N9590 X16.288 Y59.479 Z-20.418
N9595 X16.269 Y59.469 Z-20.337
N9600 X16.257 Y59.462 Z-20.254
N9605 X16.253 Y59.46 Z-20.17
N9610 G0 Z5.
N9615 G1 X63.492 Y58.636 F500.
N9620 G0 Z-17.755
N9625 G1 Z-19.355 F1000.
N9630 X63.485 Y58.64 Z-19.512
N9635 X63.465 Y58.652 Z-19.667
N9640 X63.433 Y58.671 Z-19.819
N9645 X63.387 Y58.698 Z-19.967
N9650 X63.33 Y58.733 Z-20.109
N9655 X63.26 Y58.774 Z-20.244
N9660 X63.18 Y58.822 Z-20.37
N9665 X63.089 Y58.875 Z-20.486
N9670 X62.989 Y58.935 Z-20.592
N9675 X62.881 Y58.999 Z-20.685
N9680 X62.765 Y59.068 Z-20.766
N9685 X62.643 Y59.141 Z-20.833
N9690 X62.516 Y59.216 Z-20.886
N9695 X62.385 Y59.294 Z-20.924
N9700 X62.251 Y59.374 Z-20.947
N9705 X62.117 Y59.454 Z-20.955
N9710 G3 X61.363 Y59.675 I-0.809 J-1.36
N9715 G1 X57.054
N9720 X56.739 Y59.659
N9725 X56.294 Y59.601
N9730 X55.797 Y59.495
N9735 X55.252 Y59.331
N9740 X54.87 Y59.149
N9745 X54.519 Y58.911
N9750 X54.208 Y58.623
N9755 X53.944 Y58.292
N9760 X53.731 Y57.925
N9765 X53.576 Y57.531
N9770 X53.482 Y57.118
N9775 X53.45 Y56.695
N9780 G3 X55.104 Y55.152 Z-20.755 I1.599 J0.056
N9785 X55.948 Y55.428 I-0.055 J1.599
N9790 G1 X57.898 Y56.753
N9795 G3 X58.597 Y58.021 I-0.899 J1.323
N9800 X57.054 Y59.675 Z-20.955 I-1.599 J0.055
N9805 G1 X55.139
N9810 X54.932 Y59.67
N9815 X54.725 Y59.639
N9820 X54.66 Y59.623
N9825 X54.421 Y59.54
N9830 X54.181 Y59.409
N9835 X54.034 Y59.299
N9840 X53.886 Y59.159
N9845 X53.786 Y59.041
N9850 X53.703 Y58.924
N9855 X53.574 Y58.679
N9860 X53.495 Y58.439
N9865 X53.456 Y58.199
N9870 X53.45 Y57.719
N9875 Y51.483
N9880 X53.459 Y51.437 Z-20.951
N9885 X53.482 Y51.396 Z-20.948
N9890 X53.516 Y51.364 Z-20.944
N9895 G2 X55.395 Y49.921 Z-20.755 I-10.773 J-15.972
N9900 X57.283 Y48.031 I-12.653 J-14.529
N9905 X57.673 Y46.901 I-1.208 J-1.05
N9910 G1 X56.438 Y22.437
N9915 G2 X55.936 Y21.352 I-1.598 J0.081
N9920 X53.934 Y19.71 I-13.194 J14.04
N9925 X51.853 Y18.416 Z-20.95 I-11.192 J15.682
N9930 G1 X51.828 Y18.399 Z-20.953
N9935 X51.807 Y18.378 Z-20.955
N9940 X51.788 Y18.352
N9945 X51.4 Y17.898
N9950 X51.309 Y17.797
N9955 X50.949 Y17.418
N9960 X50.83 Y17.306
N9965 X50.351 Y16.915
N9970 X49.872 Y16.571
N9975 X49.705 Y16.459
N9980 X49.394 Y16.267
N9985 X48.915 Y16.035
N9990 X48.436 Y15.812
N9995 X47.957 Y15.646
N10000 X47.479 Y15.491
N10005 X47. Y15.39
N10010 X46.521 Y15.301
N10015 X46.042 Y15.263
N10020 X45.563 Y15.227
N10025 X44.606 Y15.225
N10030 X33.594
N10035 X33.115 Y15.226
N10040 X33.024 Y15.213 Z-20.949
N10045 X32.934 Y15.2 Z-20.933
N10050 X32.846 Y15.187 Z-20.906
N10055 X32.763 Y15.175 Z-20.869
N10060 X32.678 Y15.142 Z-20.815
N10065 X32.602 Y15.113 Z-20.749
N10070 X32.534 Y15.087 Z-20.673
N10075 X32.476 Y15.065 Z-20.588
N10080 X32.43 Y15.047 Z-20.496
N10085 X32.403 Y15.032 Z-20.418
N10090 X32.383 Y15.021 Z-20.337
N10095 X32.372 Y15.015 Z-20.254
N10100 X32.368 Y15.013 Z-20.17
N10105 G0 Z5.
N10110 G1 X55.613 Y40.056 F500.
N10115 G0 Z-14.537
N10120 G1 Z-16.137 F1000.
N10125 X55.61 Y40.049 Z-16.294
N10130 X55.603 Y40.027 Z-16.449
N10135 X55.592 Y39.991 Z-16.601
N10140 X55.576 Y39.94 Z-16.749
N10145 X55.556 Y39.876 Z-16.891
N10150 X55.533 Y39.799 Z-17.026
N10155 X55.505 Y39.71 Z-17.152
N10160 X55.473 Y39.609 Z-17.268
N10165 X55.439 Y39.498 Z-17.374
N10170 X55.402 Y39.377 Z-17.467
N10175 X55.362 Y39.249 Z-17.548
N10180 X55.319 Y39.113 Z-17.615
N10185 X55.276 Y38.972 Z-17.668
N10190 X55.23 Y38.827 Z-17.706
N10195 X55.184 Y38.678 Z-17.729
N10200 X55.138 Y38.529 Z-17.737
N10205 G3 X53.447 Y29.893 I39.007 J-12.122
N10210 G1 X53.422 Y29.413
N10215 X53.37 Y28.933
N10220 X53.288 Y28.453
N10225 X53.224 Y28.18
N10230 X53.174 Y27.973
N10235 X53.029 Y27.494
N10240 X52.844 Y27.014
N10245 X52.745 Y26.783
N10250 X52.625 Y26.534
N10255 X52.266 Y25.891
N10260 X52.078 Y25.575
N10265 X51.788 Y25.191
N10270 X51.712 Y25.095
N10275 X51.309 Y24.613
N10280 X50.83 Y24.145
N10285 X50.351 Y23.734
N10290 X50.251 Y23.656
N10295 X49.872 Y23.409
N10300 X49.394 Y23.105
N10305 X48.915 Y22.856
N10310 X48.436 Y22.637
N10315 X47.957 Y22.473
N10320 X47.479 Y22.318
N10325 X46.983 Y22.216
N10330 X46.521 Y22.126
N10335 X46.042 Y22.079
N10340 X45.563 Y22.054
N10345 X44.606 Y22.052
N10350 X33.594
N10355 X32.852 Y22.053
N10360 X32.761 Y22.04 Z-17.731
N10365 X32.671 Y22.027 Z-17.715
N10370 X32.583 Y22.014 Z-17.688
N10375 X32.499 Y22.002 Z-17.651
N10380 X32.415 Y21.97 Z-17.597
N10385 X32.339 Y21.94 Z-17.531
N10390 X32.271 Y21.914 Z-17.455
N10395 X32.213 Y21.892 Z-17.37
N10400 X32.167 Y21.874 Z-17.278
N10405 X32.14 Y21.859 Z-17.199
N10410 X32.12 Y21.848 Z-17.118
N10415 X32.108 Y21.842 Z-17.035
N10420 X32.104 Y21.84 Z-16.951
N10425 G0 Z5.
N10430 G1 X55.364 Y48.263 F500.
N10435 G0 Z-10.803
N10440 G1 Z-12.403 F1000.
N10445 X55.362 Y48.256 Z-12.56
N10450 X55.356 Y48.233 Z-12.715
N10455 X55.345 Y48.197 Z-12.867
N10460 X55.331 Y48.146 Z-13.015
N10465 X55.313 Y48.081 Z-13.157
N10470 X55.291 Y48.004 Z-13.292
N10475 X55.265 Y47.914 Z-13.418
N10480 X55.236 Y47.812 Z-13.534
N10485 X55.205 Y47.7 Z-13.64
N10490 X55.17 Y47.579 Z-13.733
N10495 X55.133 Y47.449 Z-13.814
N10500 X55.095 Y47.313 Z-13.881
N10505 X55.054 Y47.171 Z-13.934
N10510 X55.013 Y47.024 Z-13.972
N10515 X54.97 Y46.875 Z-13.995
N10520 X54.927 Y46.724 Z-14.003
N10525 G3 X53.45 Y38.049 I39.295 J-11.155
N10530 G1 X53.438 Y37.569
N10535 X53.399 Y37.089
N10540 X53.332 Y36.609
N10545 X53.234 Y36.13
N10550 X53.104 Y35.65
N10555 X52.943 Y35.17
N10560 X52.731 Y34.69
N10565 X52.499 Y34.211
N10570 X52.21 Y33.731
N10575 X51.89 Y33.251
N10580 X51.309 Y32.536
N10585 X51.076 Y32.291
N10590 X50.351 Y31.663
N10595 X49.872 Y31.329
N10600 X49.394 Y31.025
N10605 X49.084 Y30.852
N10610 X48.915 Y30.768
N10615 X48.436 Y30.552
N10620 X47.957 Y30.393
N10625 X47.479 Y30.238
N10630 X47. Y30.14
N10635 X45.591 Y29.794
N10640 X44.161 Y29.55
N10645 X42.724 Y29.349
N10650 X41.282 Y29.185
N10655 X40.56 Y29.118
N10660 X40.197 Y29.124
N10665 X39.837 Y29.165
N10670 X39.482 Y29.241
N10675 X38.1 Y29.682
N10680 X37.83 Y29.841
N10685 X37.533 Y29.939
N10690 X37.222 Y29.972
N10695 X33.594
N10700 X32.852 Y29.973
N10705 G3 X31.305 Y28.323 Z-13.803 I0.052 J-1.599
N10710 X32.925 Y26.774 I1.599 J0.051
N10715 G1 X47.269 Y26.959
N10720 G3 X48.828 Y28.809 I-0.021 J1.6
N10725 X47. Y30.14 Z-14.003 I-1.58 J-0.249
N10730 G1 X46.521 Y30.047
N10735 X46.042 Y30.009
N10740 X45.563 Y29.974
N10745 X44.606 Y29.972
N10750 X37.222
N10755 X37.13 Y29.958 Z-13.997
N10760 X37.04 Y29.945 Z-13.981
N10765 X36.953 Y29.932 Z-13.954
N10770 X36.869 Y29.92 Z-13.917
N10775 X36.785 Y29.887 Z-13.863
N10780 X36.709 Y29.857 Z-13.797
N10785 X36.641 Y29.831 Z-13.721
N10790 X36.583 Y29.809 Z-13.636
N10795 X36.537 Y29.791 Z-13.544
N10800 X36.51 Y29.776 Z-13.466
N10805 X36.49 Y29.765 Z-13.385
N10810 X36.478 Y29.759 Z-13.302
N10815 X36.475 Y29.757 Z-13.218
N10820 G0 Z5.
N10825 G1 X54.087 Y45.6 F500.
N10830 G0 Z-8.607
N10835 G1 Z-10.207 F1000.
N10840 G2 X53.672 Y45.841 Z-10.245 I10.305 J18.22
N10845 G3 X53.446 Y45.725 Z-10.269 I-0.077 J-0.128
N10850 G1 X53.422 Y45.245
N10855 X53.369 Y44.766
N10860 X53.286 Y44.286
N10865 X53.224 Y44.02
N10870 X53.169 Y43.806
N10875 X53.014 Y43.326
N10880 X52.839 Y42.846
N10885 X52.611 Y42.367
N10890 X52.366 Y41.887
N10895 X52.066 Y41.407
N10900 X51.788 Y41.027
N10905 X51.284 Y40.448
N10910 X50.83 Y39.998
N10915 X50.231 Y39.488
N10920 X49.872 Y39.233
N10925 X49.394 Y38.94
N10930 X48.915 Y38.701
N10935 X48.436 Y38.479
N10940 X47.957 Y38.304
N10945 X47.479 Y38.157
N10950 X47. Y38.06
N10955 X45.592 Y37.709
N10960 X44.162 Y37.465
N10965 X42.725 Y37.266
N10970 X41.283 Y37.102
N10975 X40.561 Y37.035
N10980 X40.198 Y37.041
N10985 X39.838 Y37.082
N10990 X39.483 Y37.158
N10995 X38.101 Y37.598
N11000 X37.827 Y37.759
N11005 X37.525 Y37.858
N11010 X37.209 Y37.892
N11015 X33.594
N11020 X32.852 Y37.894
N11025 G3 X31.305 Y36.243 Z-10.069 I0.052 J-1.599
N11030 X32.925 Y34.695 I1.599 J0.051
N11035 G1 X47.275 Y34.88
N11040 G3 X48.834 Y36.736 I-0.021 J1.6
N11045 X47. Y38.06 Z-10.269 I-1.579 J-0.256
N11050 G1 X46.521 Y37.968
N11055 X46.042 Y37.929
N11060 X45.563 Y37.894
N11065 X44.606 Y37.892
N11070 X37.209
N11075 X37.122 Y37.86 Z-10.264
N11080 X37.042 Y37.799 Z-10.244
N11085 X36.964 Y37.74 Z-10.212
N11090 X36.89 Y37.683 Z-10.167
N11095 X36.821 Y37.631 Z-10.111
N11100 X36.759 Y37.584 Z-10.043
N11105 X36.705 Y37.542 Z-9.966
N11110 X36.659 Y37.508 Z-9.88
N11115 X36.622 Y37.48 Z-9.788
N11120 X36.596 Y37.459 Z-9.69
N11125 X36.58 Y37.447 Z-9.589
N11130 X36.574 Y37.443 Z-9.486
N11135 G0 Z5.
N11140 G1 X53.975 Y54.115 F500.
N11145 G0 Z-4.873
N11150 G1 Z-6.473 F1000.
N11155 G2 X53.719 Y54.444 Z-6.506 I13.118 J10.486
N11160 G3 X53.45 Y54.361 Z-6.535 I-0.119 J-0.09
N11165 G1 X53.436 Y53.402
N11170 X53.399 Y52.922
N11175 X53.331 Y52.442
N11180 X53.232 Y51.962
N11185 X53.1 Y51.482
N11190 X52.937 Y51.003
N11195 X52.745 Y50.548
N11200 X52.485 Y50.043
N11205 X52.266 Y49.631
N11210 X52.222 Y49.563
N11215 X51.897 Y49.084
N11220 X51.788 Y48.938
N11225 X51.506 Y48.604
N11230 X51.074 Y48.124
N11235 X50.83 Y47.893
N11240 X50.351 Y47.502
N11245 X49.884 Y47.164
N11250 X49.394 Y46.855
N11255 X49.05 Y46.685
N11260 X48.436 Y46.399
N11265 X47.957 Y46.233
N11270 X47.479 Y46.078
N11275 X47. Y45.98
N11280 X45.59 Y45.635
N11285 X44.16 Y45.391
N11290 X42.723 Y45.19
N11295 X41.282 Y45.026
N11300 X40.56 Y44.959
N11305 X40.197 Y44.965
N11310 X39.837 Y45.006
N11315 X39.482 Y45.082
N11320 X38.1 Y45.523
N11325 X37.831 Y45.681
N11330 X37.534 Y45.779
N11335 X37.224 Y45.812
N11340 X33.594
N11345 X32.852 Y45.814
N11350 G3 X31.305 Y44.164 Z-6.335 I0.052 J-1.599
N11355 X32.925 Y42.615 I1.599 J0.051
N11360 G1 X47.267 Y42.799
N11365 G3 X48.827 Y44.647 I-0.021 J1.6
N11370 X47. Y45.98 Z-6.535 I-1.581 J-0.248
N11375 G1 X46.521 Y45.888
N11380 X46.042 Y45.85
N11385 X45.563 Y45.814
N11390 X44.606 Y45.812
N11395 X37.224
N11400 X37.201 Y45.809
N11405 X37.094 Y45.79 Z-6.524
N11410 X36.989 Y45.771 Z-6.498
N11415 X36.889 Y45.752 Z-6.457
N11420 X36.795 Y45.735 Z-6.403
N11425 X36.71 Y45.72 Z-6.336
N11430 X36.635 Y45.706 Z-6.257
N11435 X36.571 Y45.694 Z-6.169
N11440 X36.521 Y45.685 Z-6.072
N11445 X36.484 Y45.678 Z-5.969
N11450 X36.461 Y45.674 Z-5.862
N11455 X36.454 Y45.673 Z-5.752
N11460 G0 Z5.
N11465 G1 X65.356 Y58.025 F500.
N11470 G0 Z0.398
N11475 G1 Z-1.202 F1000.
N11480 X65.348 Y58.027 Z-1.358
N11485 X65.326 Y58.033 Z-1.514
N11490 X65.289 Y58.042 Z-1.666
N11495 X65.238 Y58.056 Z-1.814
N11500 X65.173 Y58.072 Z-1.956
N11505 X65.094 Y58.092 Z-2.09
N11510 X65.004 Y58.115 Z-2.217
N11515 X64.902 Y58.142 Z-2.333
N11520 X64.789 Y58.17 Z-2.438
N11525 X64.667 Y58.202 Z-2.532
N11530 X64.536 Y58.235 Z-2.613
N11535 X64.399 Y58.27 Z-2.68
N11540 X64.255 Y58.307 Z-2.733
N11545 X64.108 Y58.345 Z-2.771
N11550 X63.957 Y58.383 Z-2.794
N11555 X63.806 Y58.422 Z-2.802
N11560 G3 X55.095 Y59.675 I-10.136 J-39.57
N11565 G1 X54.66
N11570 X54.181 Y59.668
N11575 X53.991 Y59.639
N11580 X53.847 Y59.6
N11585 X53.703 Y59.547
N11590 X53.463 Y59.42
N11595 X53.344 Y59.334
N11600 X53.224 Y59.231
N11605 X53.153 Y59.159
N11610 X53.053 Y59.039
N11615 X52.97 Y58.919
N11620 X52.844 Y58.679
N11625 X52.745 Y58.45
N11630 X52.615 Y58.199
N11635 X52.266 Y57.57
N11640 X52.067 Y57.24
N11645 X51.788 Y56.871
N11650 X51.701 Y56.76
N11655 X51.309 Y56.294
N11660 X51.296 Y56.28
N11665 X50.83 Y55.825
N11670 X50.803 Y55.8
N11675 X50.351 Y55.415
N11680 X50.231 Y55.321
N11685 X49.872 Y55.09
N11690 X49.394 Y54.786
N11695 X48.915 Y54.538
N11700 X48.436 Y54.318
N11705 X47.957 Y54.153
N11710 X47.479 Y53.999
N11715 X47. Y53.9
N11720 X45.592 Y53.549
N11725 X44.162 Y53.306
N11730 X42.725 Y53.106
N11735 X41.283 Y52.943
N11740 X40.561 Y52.876
N11745 X40.198 Y52.882
N11750 X39.838 Y52.923
N11755 X39.483 Y52.999
N11760 X38.101 Y53.439
N11765 X37.819 Y53.599
N11770 X37.51 Y53.699
N11775 X37.188 Y53.732
N11780 X33.594
N11785 X32.637 Y53.734
N11790 X32.158 Y53.757
N11795 X31.679 Y53.806
N11800 X31.2 Y53.9
N11805 X30.721 Y53.999
N11810 X30.243 Y54.153
N11815 X29.764 Y54.318
N11820 X29.285 Y54.538
N11825 X28.806 Y54.786
N11830 X28.328 Y55.09
N11835 X27.969 Y55.321
N11840 X27.849 Y55.415
N11845 X27.397 Y55.8
N11850 X27.37 Y55.825
N11855 X26.904 Y56.28
N11860 X26.891 Y56.294
N11865 X26.499 Y56.76
N11870 X26.412 Y56.871
N11875 X26.133 Y57.24
N11880 X25.934 Y57.57
N11885 X25.585 Y58.199
N11890 X25.455 Y58.45
N11895 X25.356 Y58.679
N11900 X25.23 Y58.919
N11905 X25.147 Y59.039
N11910 X25.047 Y59.159
N11915 X24.976 Y59.231
N11920 X24.856 Y59.334
N11925 X24.737 Y59.42
N11930 X24.497 Y59.547
N11935 X24.353 Y59.6
N11940 X24.209 Y59.639
N11945 X24.019 Y59.668
N11950 X23.54 Y59.675
N11955 X23.276
N11960 X23.185 Y59.662 Z-2.796
N11965 X23.095 Y59.648 Z-2.78
N11970 X23.008 Y59.635 Z-2.753
N11975 X22.924 Y59.623 Z-2.716
N11980 X22.84 Y59.59 Z-2.662
N11985 X22.763 Y59.561 Z-2.596
N11990 X22.696 Y59.534 Z-2.52
N11995 X22.638 Y59.512 Z-2.435
N12000 X22.591 Y59.494 Z-2.342
N12005 X22.564 Y59.479 Z-2.264
N12010 X22.545 Y59.469 Z-2.183
N12015 X22.533 Y59.462 Z-2.1
N12020 X22.529 Y59.46 Z-2.016
N12025 G0 Z5.
N12030 G1 X49.289 Y53.293 F500.
N12035 G0 Z0.398
N12040 G1 Z-1.202 F1000.
N12045 X49.282 Y53.295 Z-1.358
N12050 X49.26 Y53.303 Z-1.514
N12055 X49.224 Y53.316 Z-1.666
N12060 X49.175 Y53.334 Z-1.814
N12065 X49.111 Y53.356 Z-1.956
N12070 X49.035 Y53.383 Z-2.09
N12075 X48.947 Y53.414 Z-2.217
N12080 X48.848 Y53.45 Z-2.333
N12085 X48.738 Y53.489 Z-2.438
N12090 X48.619 Y53.531 Z-2.532
N12095 X48.493 Y53.576 Z-2.613
N12100 X48.359 Y53.624 Z-2.68
N12105 X48.22 Y53.673 Z-2.733
N12110 X48.076 Y53.724 Z-2.771
N12115 X47.93 Y53.776 Z-2.794
N12120 X47.782 Y53.829 Z-2.802
N12125 G3 X47. Y53.9 I-0.53 J-1.491
N12130 G1 X46.521 Y53.806
N12135 X46.042 Y53.757
N12140 X45.563 Y53.734
N12145 X44.606 Y53.732
N12150 X37.188
N12155 X37.096 Y53.719 Z-2.796
N12160 X37.006 Y53.706 Z-2.78
N12165 X36.919 Y53.693 Z-2.753
N12170 X36.835 Y53.68 Z-2.716
N12175 X36.751 Y53.648 Z-2.662
N12180 X36.675 Y53.618 Z-2.596
N12185 X36.607 Y53.592 Z-2.52
N12190 X36.549 Y53.569 Z-2.435
N12195 X36.503 Y53.551 Z-2.342
N12200 X36.476 Y53.537 Z-2.264
N12205 X36.456 Y53.526 Z-2.183
N12210 X36.445 Y53.519 Z-2.1
N12215 X36.441 Y53.517 Z-2.016
N12220 G0 Z5.
N12225 G1 X-6.268 Y63.887 F500.
N12230 G0 Z-8.607
N12235 G1 Z-10.207 F1000.
N12240 G2 X-6.138 Y64.575 Z-10.263 I26.702 J-4.666
N12245 G1 X-6.136 Y64.616 Z-10.266
N12250 X-6.144 Y64.656 Z-10.269
N12255 X-6.25 Y64.916
N12260 X-6.414 Y65.396
N12265 X-6.53 Y65.876
N12270 X-6.624 Y66.355
N12275 X-6.689 Y66.835
N12280 X-6.727 Y67.315
N12285 X-6.745 Y67.795
N12290 X-6.747 Y68.754
N12295 Y79.309
N12300 X-6.745 Y80.269
N12305 X-6.758 Y80.36 Z-10.264
N12310 X-6.771 Y80.45 Z-10.247
N12315 X-6.784 Y80.538 Z-10.22
N12320 X-6.796 Y80.622 Z-10.183
N12325 X-6.829 Y80.706 Z-10.129
N12330 X-6.858 Y80.782 Z-10.064
N12335 X-6.884 Y80.85 Z-9.988
N12340 X-6.907 Y80.908 Z-9.903
N12345 X-6.925 Y80.954 Z-9.81
N12350 X-6.939 Y80.981 Z-9.732
N12355 X-6.95 Y81.001 Z-9.651
N12360 X-6.956 Y81.013 Z-9.568
N12365 X-6.959 Y81.016 Z-9.484
N12370 G0 Z5.
N12375 G1 X3.443 Y59.086 F500.
N12380 G0 Z-4.873
N12385 G1 Z-6.473 F1000.
N12390 G2 X3.066 Y59.613 Z-6.525 I27.311 J19.889
N12395 G1 X3.035 Y59.646 Z-6.528
N12400 X2.996 Y59.667 Z-6.532
N12405 X2.952 Y59.677 Z-6.535
N12410 X2.474 Y59.688
N12415 X1.995 Y59.704
N12420 X1.516 Y59.767
N12425 X1.037 Y59.839
N12430 X0.559 Y59.96
N12435 X0.08 Y60.091
N12440 X0.003 Y60.118
N12445 X-0.399 Y60.268
N12450 X-0.878 Y60.493
N12455 X-1.357 Y60.75
N12460 X-1.835 Y61.031
N12465 X-1.906 Y61.078
N12470 X-2.314 Y61.385
N12475 X-2.537 Y61.558
N12480 X-3.059 Y62.037
N12485 X-3.272 Y62.266
N12490 X-3.495 Y62.517
N12495 X-3.75 Y62.839
N12500 X-3.867 Y62.997
N12505 X-4.229 Y63.558
N12510 X-4.458 Y63.957
N12515 X-4.708 Y64.495
N12520 X-4.883 Y64.916
N12525 X-5.038 Y65.396
N12530 X-5.173 Y65.876
N12535 X-5.274 Y66.355
N12540 X-5.328 Y66.835
N12545 X-5.366 Y67.315
N12550 X-5.383 Y67.795
N12555 X-5.385 Y68.754
N12560 Y79.309
N12565 X-5.383 Y80.269
N12570 X-5.397 Y80.36 Z-6.53
N12575 X-5.41 Y80.45 Z-6.513
N12580 X-5.422 Y80.538 Z-6.487
N12585 X-5.435 Y80.622 Z-6.449
N12590 X-5.467 Y80.706 Z-6.395
N12595 X-5.497 Y80.782 Z-6.33
N12600 X-5.523 Y80.85 Z-6.254
N12605 X-5.545 Y80.908 Z-6.169
N12610 X-5.563 Y80.954 Z-6.076
N12615 X-5.578 Y80.981 Z-5.998
N12620 X-5.588 Y81.001 Z-5.917
N12625 X-5.595 Y81.013 Z-5.834
N12630 X-5.597 Y81.016 Z-5.75
N12635 G0 Z5.
N12640 G1 X16.492 Y57.859 F500.
N12645 G0 Z0.398
N12650 G1 Z-1.202 F1000.
N12655 X16.485 Y57.861 Z-1.358
N12660 X16.463 Y57.868 Z-1.514
N12665 X16.426 Y57.878 Z-1.666
N12670 X16.375 Y57.892 Z-1.814
N12675 X16.31 Y57.909 Z-1.956
N12680 X16.232 Y57.931 Z-2.09
N12685 X16.142 Y57.955 Z-2.217
N12690 X16.04 Y57.983 Z-2.333
N12695 X15.928 Y58.014 Z-2.438
N12700 X15.806 Y58.047 Z-2.532
N12705 X15.676 Y58.083 Z-2.613
N12710 X15.54 Y58.12 Z-2.68
N12715 X15.397 Y58.159 Z-2.733
N12720 X15.25 Y58.199 Z-2.771
N12725 X15.1 Y58.24 Z-2.794
N12730 X14.949 Y58.282 Z-2.802
N12735 G3 X6.26 Y59.676 I-10.778 J-39.4
N12740 G1 X5.346 Y59.691
N12745 X4.868 Y59.729
N12750 X4.389 Y59.798
N12755 X3.91 Y59.897
N12760 X3.431 Y60.03
N12765 X2.952 Y60.195
N12770 X2.474 Y60.399
N12775 X1.995 Y60.648
N12780 X1.516 Y60.911
N12785 X1.26 Y61.078
N12790 X1.037 Y61.238
N12795 X0.636 Y61.558
N12800 X0.106 Y62.037
N12805 X0.08 Y62.063
N12810 X-0.323 Y62.517
N12815 X-0.399 Y62.61
N12820 X-0.705 Y62.997
N12825 X-1.023 Y63.477
N12830 X-1.294 Y63.957
N12835 X-1.517 Y64.436
N12840 X-1.719 Y64.916
N12845 X-1.874 Y65.396
N12850 X-2.011 Y65.876
N12855 X-2.101 Y66.355
N12860 X-2.164 Y66.835
N12865 X-2.202 Y67.315
N12870 X-2.219 Y67.795
N12875 X-2.221 Y68.754
N12880 Y79.309
N12885 X-2.219 Y80.269
N12890 X-2.233 Y80.36 Z-2.796
N12895 X-2.246 Y80.45 Z-2.78
N12900 X-2.259 Y80.538 Z-2.753
N12905 X-2.271 Y80.622 Z-2.716
N12910 X-2.303 Y80.706 Z-2.662
N12915 X-2.333 Y80.782 Z-2.596
N12920 X-2.359 Y80.85 Z-2.52
N12925 X-2.381 Y80.908 Z-2.435
N12930 X-2.399 Y80.954 Z-2.342
N12935 X-2.414 Y80.981 Z-2.264
N12940 X-2.424 Y81.001 Z-2.183
N12945 X-2.431 Y81.013 Z-2.1
N12950 X-2.433 Y81.016 Z-2.016
N12955 G0 Z5.
N12960 G1 X81.986 Y93.515 F500.
N12965 G0 Z-7.069
N12970 G1 Z-8.669 F1000.
N12975 X81.987 Y93.507 Z-8.826
N12980 X81.99 Y93.484 Z-8.981
N12985 X81.996 Y93.447 Z-9.134
N12990 X82.003 Y93.394 Z-9.281
N12995 X82.012 Y93.328 Z-9.423
N13000 X82.023 Y93.248 Z-9.558
N13005 X82.036 Y93.155 Z-9.684
N13010 X82.05 Y93.051 Z-9.801
N13015 X82.066 Y92.935 Z-9.906
N13020 X82.084 Y92.81 Z-10.
N13025 X82.102 Y92.677 Z-10.08
N13030 X82.122 Y92.536 Z-10.147
N13035 X82.142 Y92.39 Z-10.2
N13040 X82.163 Y92.239 Z-10.238
N13045 X82.184 Y92.085 Z-10.261
N13050 X82.206 Y91.93 Z-10.269
N13055 G3 X84.344 Y83.394 I40.462 J5.602
N13060 G1 X84.445 Y83.147
N13065 X84.61 Y82.668
N13070 X84.727 Y82.188
N13075 X84.823 Y81.698
N13080 X84.888 Y81.228
N13085 X84.926 Y80.749
N13090 X84.945 Y80.269
N13095 X84.947 Y79.309
N13100 Y68.754
N13105 X84.945 Y67.795
N13110 X84.948 Y67.771
N13115 X84.966 Y67.664 Z-10.258
N13120 X84.984 Y67.559 Z-10.232
N13125 X85.002 Y67.459 Z-10.191
N13130 X85.018 Y67.365 Z-10.137
N13135 X85.033 Y67.28 Z-10.069
N13140 X85.046 Y67.205 Z-9.991
N13145 X85.057 Y67.141 Z-9.902
N13150 X85.066 Y67.09 Z-9.806
N13155 X85.072 Y67.053 Z-9.703
N13160 X85.076 Y67.031 Z-9.596
N13165 X85.077 Y67.023 Z-9.486
N13170 G0 Z5.
N13175 G1 X65.029 Y90.266 F500.
N13180 G0 Z-3.335
N13185 G1 Z-4.935 F1000.
N13190 X65.037 Y90.263 Z-5.092
N13195 X65.059 Y90.257 Z-5.248
N13200 X65.096 Y90.247 Z-5.4
N13205 X65.146 Y90.233 Z-5.548
N13210 X65.211 Y90.214 Z-5.69
N13215 X65.289 Y90.192 Z-5.824
N13220 X65.379 Y90.167 Z-5.95
N13225 X65.48 Y90.139 Z-6.067
N13230 X65.592 Y90.107 Z-6.172
N13235 X65.714 Y90.073 Z-6.266
N13240 X65.843 Y90.036 Z-6.346
N13245 X65.98 Y89.998 Z-6.414
N13250 X66.122 Y89.958 Z-6.466
N13255 X66.269 Y89.917 Z-6.505
N13260 X66.418 Y89.874 Z-6.528
N13265 X66.569 Y89.832 Z-6.535
N13270 G3 X75.248 Y88.373 I11.07 J39.319
N13275 G1 X75.726 Y88.362
N13280 X76.205 Y88.346
N13285 X76.684 Y88.283
N13290 X77.163 Y88.211
N13295 X77.641 Y88.09
N13300 X78.12 Y87.959
N13305 X78.158 Y87.945
N13310 X78.599 Y87.782
N13315 X79.078 Y87.557
N13320 X79.557 Y87.3
N13325 X80.035 Y87.019
N13330 X80.085 Y86.986
N13335 X80.514 Y86.665
N13340 X80.721 Y86.506
N13345 X81.244 Y86.026
N13350 X81.472 Y85.784
N13355 X81.684 Y85.546
N13360 X81.95 Y85.211
N13365 X82.059 Y85.067
N13370 X82.429 Y84.492
N13375 X82.652 Y84.107
N13380 X82.908 Y83.555
N13385 X83.079 Y83.147
N13390 X83.233 Y82.668
N13395 X83.37 Y82.188
N13400 X83.472 Y81.708
N13405 X83.527 Y81.228
N13410 X83.565 Y80.749
N13415 X83.583 Y80.269
N13420 X83.585 Y79.309
N13425 Y68.754
N13430 X83.583 Y67.795
N13435 X83.586 Y67.771
N13440 X83.604 Y67.664 Z-6.524
N13445 X83.622 Y67.559 Z-6.498
N13450 X83.639 Y67.459 Z-6.457
N13455 X83.655 Y67.365 Z-6.403
N13460 X83.669 Y67.28 Z-6.336
N13465 X83.682 Y67.204 Z-6.257
N13470 X83.693 Y67.141 Z-6.168
N13475 X83.701 Y67.09 Z-6.072
N13480 X83.707 Y67.053 Z-5.969
N13485 X83.711 Y67.03 Z-5.862
N13490 X83.712 Y67.023 Z-5.752
N13495 G0 Z5.
N13500 G1 X61.708 Y90.191 F500.
N13505 G0 Z0.398
N13510 G1 Z-1.202 F1000.
N13515 X61.715 Y90.189 Z-1.358
N13520 X61.737 Y90.182 Z-1.514
N13525 X61.774 Y90.172 Z-1.666
N13530 X61.825 Y90.158 Z-1.814
N13535 X61.89 Y90.141 Z-1.956
N13540 X61.968 Y90.119 Z-2.09
N13545 X62.058 Y90.095 Z-2.217
N13550 X62.16 Y90.067 Z-2.333
N13555 X62.272 Y90.036 Z-2.438
N13560 X62.394 Y90.003 Z-2.532
N13565 X62.524 Y89.967 Z-2.613
N13570 X62.66 Y89.93 Z-2.68
N13575 X62.803 Y89.891 Z-2.733
N13580 X62.95 Y89.851 Z-2.771
N13585 X63.1 Y89.81 Z-2.794
N13590 X63.251 Y89.768 Z-2.802
N13595 G3 X71.94 Y88.374 I10.778 J39.4
N13600 G1 X72.854 Y88.359
N13605 X73.332 Y88.321
N13610 X73.811 Y88.252
N13615 X74.29 Y88.153
N13620 X74.769 Y88.02
N13625 X75.248 Y87.855
N13630 X75.726 Y87.651
N13635 X76.205 Y87.402
N13640 X76.684 Y87.139
N13645 X76.919 Y86.986
N13650 X77.163 Y86.812
N13655 X77.549 Y86.506
N13660 X78.079 Y86.026
N13665 X78.12 Y85.987
N13670 X78.512 Y85.546
N13675 X78.599 Y85.44
N13680 X78.896 Y85.067
N13685 X79.214 Y84.587
N13690 X79.488 Y84.107
N13695 X79.71 Y83.627
N13700 X79.915 Y83.147
N13705 X80.069 Y82.668
N13710 X80.209 Y82.188
N13715 X80.299 Y81.708
N13720 X80.363 Y81.228
N13725 X80.401 Y80.749
N13730 X80.419 Y80.269
N13735 X80.421 Y79.309
N13740 Y68.754
N13745 X80.419 Y67.795
N13750 X80.433 Y67.703 Z-2.796
N13755 X80.446 Y67.613 Z-2.78
N13760 X80.459 Y67.526 Z-2.753
N13765 X80.471 Y67.442 Z-2.716
N13770 X80.503 Y67.358 Z-2.662
N13775 X80.533 Y67.281 Z-2.596
N13780 X80.559 Y67.214 Z-2.52
N13785 X80.581 Y67.156 Z-2.435
N13790 X80.599 Y67.109 Z-2.342
N13795 X80.614 Y67.082 Z-2.264
N13800 X80.624 Y67.063 Z-2.183
N13805 X80.631 Y67.051 Z-2.1
N13810 X80.633 Y67.047 Z-2.016
N13815 G0 Z5.
N13820 Z15.
N13825 M9
N13830 M5
N13835 G53 G0 Z0.

(Adaptive5)
N13840 M1
N13845 T5 M6
N13850 S5000 M3
N13855 G54
N13860 M8
N13865 G1 X52.8 Y64.591 F500.
N13870 G0 G43 Z15. H5
N13875 T6
N13880 G0 Z5.
N13885 Z-10.
N13890 G1 Z-10.5 F1000.
N13895 Z-12.5
N13900 G3 X55.492 Y65.15 I0.942 J2.224
N13905 G1 X55.446 Y65.163
N13910 X55.4 Y65.171
N13915 X55.354 Y65.175
N13920 X51.865
N13925 X51.494 Y65.156
N13930 X51.114 Y65.107
N13935 X50.739 Y65.026
N13940 X50.538 Y64.966
N13945 X50.301 Y64.874
N13950 X50.022 Y64.739
N13955 X49.692 Y64.544
N13960 X49.293 Y64.264
N13965 X48.795 Y63.851
N13970 X48.302 Y63.37
N13975 X48.153 Y63.192
N13980 X48.042 Y62.988
N13985 X47.973 Y62.766
N13990 X47.95 Y62.535
N13995 G3 X48.467 Y62.052 Z-12.3 I0.5 J0.017
N14000 X48.715 Y62.128 I-0.017 J0.5
N14005 G1 X52.112 Y64.251
N14010 G3 X52.347 Y64.658 I-0.265 J0.424
N14015 X51.865 Y65.175 Z-12.5 I-0.5 J0.017
N14020 G1 X49.477
N14025 X49.235 Y65.163
N14030 X49.007 Y65.133
N14035 X48.873 Y65.104
N14040 X48.622 Y65.02
N14045 X48.398 Y64.882
N14050 X48.21 Y64.697
N14055 X48.068 Y64.474
N14060 X47.98 Y64.226
N14065 X47.95 Y63.963
N14070 G3 X48.467 Y63.481 Z-12.3 I0.5 J0.017
N14075 X48.733 Y63.569 I-0.017 J0.5
N14080 G1 X49.743 Y64.263
N14085 G3 X49.959 Y64.658 I-0.283 J0.412
N14090 X49.477 Y65.175 Z-12.5 I-0.5 J0.017
N14095 G1 X48.467
N14100 X48.421 Y65.173
N14105 X48.375 Y65.167
N14110 X48.329 Y65.157
N14115 X48.283 Y65.141
N14120 X48.237 Y65.121
N14125 X48.191 Y65.094
N14130 X48.137 Y65.054
N14135 X48.083 Y65.001
N14140 X48.04 Y64.948
N14145 X48.008 Y64.895
N14150 X47.975 Y64.817
N14155 X47.962 Y64.772
N14160 X47.954 Y64.726
N14165 X47.95 Y64.634
N14170 Y45.373
N14175 G3 X48.039 Y45.106 I0.5 J0.017
N14180 G1 X48.087 Y45.059 Z-12.495
N14185 X48.135 Y45.013 Z-12.481
N14190 X48.181 Y44.969 Z-12.459
N14195 X48.251 Y44.942 Z-12.418
N14200 X48.313 Y44.918 Z-12.366
N14205 X48.366 Y44.897 Z-12.303
N14210 X48.401 Y44.894 Z-12.249
N14215 X48.429 Y44.892 Z-12.192
N14220 X48.45 Y44.89 Z-12.131
N14225 X48.463 Y44.891 Z-12.066
N14230 X48.467 Z-12.
N14235 G0 Z5.
N14240 G1 X52.8 Y64.591 F500.
N14245 G0 Z-18.455
N14250 G1 Z-18.955 F1000.
N14255 Z-20.955
N14260 G3 X55.492 Y65.15 I0.942 J2.224
N14265 G1 X55.446 Y65.163
N14270 X55.4 Y65.171
N14275 X55.354 Y65.175
N14280 X51.865
N14285 X51.494 Y65.156
N14290 X51.114 Y65.107
N14295 X50.739 Y65.026
N14300 X50.538 Y64.966
N14305 X50.301 Y64.874
N14310 X50.022 Y64.739
N14315 X49.692 Y64.544
N14320 X49.293 Y64.264
N14325 X48.795 Y63.851
N14330 X48.302 Y63.37
N14335 X48.153 Y63.192
N14340 X48.042 Y62.988
N14345 X47.973 Y62.766
N14350 X47.95 Y62.535
N14355 G3 X48.467 Y62.052 Z-20.755 I0.5 J0.017
N14360 X48.715 Y62.128 I-0.017 J0.5
N14365 G1 X52.112 Y64.251
N14370 G3 X52.347 Y64.658 I-0.265 J0.424
N14375 G1 Y64.682 Z-20.761
N14380 G3 X51.865 Y65.175 Z-20.955 I-0.5 J-0.007
N14385 G1 X49.477
N14390 X49.235 Y65.163
N14395 X49.007 Y65.133
N14400 X48.873 Y65.104
N14405 X48.622 Y65.02
N14410 X48.398 Y64.882
N14415 X48.21 Y64.697
N14420 X48.068 Y64.474
N14425 X47.98 Y64.226
N14430 X47.95 Y63.963
N14435 G3 X48.467 Y63.481 Z-20.755 I0.5 J0.017
N14440 X48.733 Y63.569 I-0.017 J0.5
N14445 G1 X49.743 Y64.263
N14450 G3 X49.959 Y64.658 I-0.283 J0.412
N14455 G1 X49.96 Y64.682 Z-20.761
N14460 G3 X49.477 Y65.175 Z-20.955 I-0.5 J-0.007
N14465 G1 X48.467
N14470 X48.421 Y65.173
N14475 X48.375 Y65.167
N14480 X48.329 Y65.157
N14485 X48.283 Y65.141
N14490 X48.237 Y65.121
N14495 X48.191 Y65.094
N14500 X48.137 Y65.054
N14505 X48.083 Y65.001
N14510 X48.04 Y64.948
N14515 X48.008 Y64.895
N14520 X47.975 Y64.817
N14525 X47.962 Y64.772
N14530 X47.954 Y64.726
N14535 X47.95 Y64.634
N14540 Y40.237
N14545 G3 X48.039 Y39.969 I0.5 J0.017
N14550 G1 X48.087 Y39.923 Z-20.95
N14555 X48.135 Y39.877 Z-20.936
N14560 X48.181 Y39.832 Z-20.914
N14565 X48.251 Y39.806 Z-20.873
N14570 X48.313 Y39.782 Z-20.821
N14575 X48.366 Y39.761 Z-20.758
N14580 X48.401 Y39.758 Z-20.704
N14585 X48.429 Y39.756 Z-20.647
N14590 X48.45 Y39.754 Z-20.586
N14595 X48.463 Z-20.521
N14600 X48.467 Z-20.455
N14605 G0 Z5.
N14610 G1 X29.734 Y43.267 F500.
N14615 G0 Z-11.5
N14620 G1 Z-12. F1000.
N14625 X29.736 Y43.275 Z-12.087
N14630 X29.742 Y43.296 Z-12.171
N14635 X29.751 Y43.332 Z-12.25
N14640 X29.763 Y43.381 Z-12.321
N14645 X29.779 Y43.44 Z-12.383
N14650 X29.797 Y43.509 Z-12.433
N14655 X29.816 Y43.586 Z-12.47
N14660 X29.837 Y43.667 Z-12.492
N14665 X29.859 Y43.752 Z-12.5
N14670 G3 X30.25 Y46.474 I-12.366 J3.167
N14675 G1 Y61.332
N14680 X30.234 Y61.653
N14685 X30.185 Y62.028
N14690 X30.113 Y62.365
N14695 X30.052 Y62.566
N14700 X29.96 Y62.804
N14705 X29.824 Y63.083
N14710 X29.629 Y63.415
N14715 X29.348 Y63.815
N14720 X28.933 Y64.315
N14725 X28.437 Y64.823
N14730 X28.259 Y64.972
N14735 X28.055 Y65.083
N14740 X27.833 Y65.152
N14745 X27.602 Y65.175
N14750 G3 X27.12 Y64.658 Z-12.3 I0.017 J-0.5
N14755 X27.199 Y64.406 I0.5 J0.017
N14760 G1 X29.329 Y61.08
N14765 G3 X29.733 Y60.85 I0.421 J0.27
N14770 X30.25 Y61.332 Z-12.5 I0.017 J0.5
N14775 G1 Y63.717
N14780 X30.242 Y63.878
N14785 X30.212 Y64.107
N14790 X30.163 Y64.337
N14795 X30.161 Y64.343
N14800 X30.04 Y64.615
N14805 X29.854 Y64.848
N14810 X29.615 Y65.025
N14815 X29.339 Y65.137
N14820 X29.043 Y65.175
N14825 G3 X28.561 Y64.658 Z-12.3 I0.017 J-0.5
N14830 X28.657 Y64.38 I0.5 J0.017
N14835 G1 X29.347 Y63.439
N14840 G3 X29.733 Y63.235 I0.403 J0.296
N14845 X30.25 Y63.717 Z-12.5 I0.017 J0.5
N14850 G1 Y64.634
N14855 X30.246 Y64.726
N14860 X30.238 Y64.772
N14865 X30.225 Y64.817
N14870 X30.192 Y64.895
N14875 X30.16 Y64.948
N14880 X30.117 Y65.001
N14885 X30.063 Y65.054
N14890 X30.009 Y65.094
N14895 X29.963 Y65.121
N14900 X29.917 Y65.141
N14905 X29.871 Y65.157
N14910 X29.825 Y65.167
N14915 X29.779 Y65.173
N14920 X29.733 Y65.175
N14925 X22.846
N14930 X22.8 Y65.171
N14935 G3 X22.552 Y65.037 I0.104 J-0.489
N14940 G1 X22.514 Y64.981 Z-12.495
N14945 X22.477 Y64.926 Z-12.481
N14950 X22.442 Y64.873 Z-12.459
N14955 X22.427 Y64.802 Z-12.419
N14960 X22.415 Y64.737 Z-12.368
N14965 X22.404 Y64.682 Z-12.307
N14970 Z-12.306
N14975 X22.408 Y64.637 Z-12.237
N14980 X22.412 Y64.605 Z-12.162
N14985 X22.414 Y64.585 Z-12.082
N14990 X22.415 Y64.578 Z-12.
N14995 G0 Z5.
N15000 G1 X29.734 Y42.533 F500.
N15005 G0 Z-19.955
N15010 G1 Z-20.455 F1000.
N15015 X29.736 Y42.541 Z-20.542
N15020 X29.742 Y42.563 Z-20.626
N15025 X29.751 Y42.598 Z-20.705
N15030 X29.763 Y42.647 Z-20.776
N15035 X29.779 Y42.706 Z-20.838
N15040 X29.797 Y42.776 Z-20.888
N15045 X29.816 Y42.852 Z-20.925
N15050 X29.837 Y42.934 Z-20.947
N15055 X29.859 Y43.018 Z-20.955
N15060 G3 X30.25 Y45.74 I-12.366 J3.167
N15065 G1 Y61.332
N15070 X30.235 Y61.631
N15075 X30.186 Y62.002
N15080 X30.106 Y62.379
N15085 X30.046 Y62.58
N15090 X29.954 Y62.816
N15095 X29.819 Y63.094
N15100 X29.625 Y63.424
N15105 X29.346 Y63.821
N15110 X28.934 Y64.316
N15115 X28.44 Y64.823
N15120 X28.262 Y64.972
N15125 X28.058 Y65.083
N15130 X27.836 Y65.152
N15135 X27.605 Y65.175
N15140 G3 X27.123 Y64.658 Z-20.755 I0.017 J-0.5
N15145 X27.201 Y64.406 I0.5 J0.017
N15150 G1 X29.329 Y61.08
N15155 G3 X29.733 Y60.85 I0.421 J0.269
N15160 G1 X29.757 Z-20.761
N15165 G3 X30.25 Y61.332 Z-20.955 I-0.007 J0.5
N15170 G1 Y63.717
N15175 X30.242 Y63.881
N15180 X30.212 Y64.11
N15185 X30.162 Y64.343
N15190 X30.04 Y64.615
N15195 X29.854 Y64.848
N15200 X29.615 Y65.025
N15205 X29.339 Y65.137
N15210 X29.044 Y65.175
N15215 G3 X28.562 Y64.658 Z-20.755 I0.017 J-0.5
N15220 X28.658 Y64.38 I0.5 J0.017
N15225 G1 X29.347 Y63.439
N15230 G3 X29.733 Y63.235 I0.403 J0.295
N15235 G1 X29.757 Y63.234 Z-20.761
N15240 G3 X30.25 Y63.717 Z-20.955 I-0.007 J0.5
N15245 G1 Y64.634
N15250 X30.246 Y64.726
N15255 X30.238 Y64.772
N15260 X30.225 Y64.817
N15265 X30.192 Y64.895
N15270 X30.16 Y64.948
N15275 X30.117 Y65.001
N15280 X30.063 Y65.054
N15285 X30.009 Y65.094
N15290 X29.963 Y65.121
N15295 X29.917 Y65.141
N15300 X29.871 Y65.157
N15305 X29.825 Y65.167
N15310 X29.779 Y65.173
N15315 X29.733 Y65.175
N15320 X22.846
N15325 X22.8 Y65.171
N15330 G3 X22.404 Y64.682 I0.104 J-0.489
N15335 G1 X22.406 Y64.63
N15340 X22.415 Y64.578
N15345 G0 Z15.
N15350 M9
N15355 M5
N15360 G53 G0 Z0.

(Adaptive5 2)
N15365 M1
N15370 T6 M6
N15375 S5000 M3
N15380 G54
N15385 M8
N15390 G1 X59.221 Y66.824 F500.
N15395 G0 G43 Z15. H6
N15400 T4
N15405 G0 Z5.
N15410 Z-1.413
N15415 G1 Z-1.572 F1000.
N15420 Z-3.572
N15425 G3 X60.791 Y66.849 I0.772 J0.858
N15430 G1 X60.776 Y66.859
N15435 X60.761 Y66.867
N15440 X60.746 Y66.873
N15445 X60.732 Y66.877
N15450 X60.706 Y66.881
N15455 X47.436
N15460 X47.286 Y66.874
N15465 X47.139 Y66.844
N15470 X46.995 Y66.803
N15475 X46.86 Y66.737
N15480 X46.733 Y66.656
N15485 X46.586 Y66.543
N15490 X46.394 Y66.369
N15495 X46.344 Y66.316
N15500 X46.29 Y66.241
N15505 X46.255 Y66.154
N15510 X46.244 Y66.062
N15515 X46.253 Y66.014 Z-3.532
N15520 X46.277 Y65.97 Z-3.492
N15525 X46.314 Y65.936 Z-3.452
N15530 X46.359 Y65.915 Z-3.412
N15535 X46.408 Y65.909 Z-3.372
N15540 X46.449 Y65.916
N15545 X46.488 Y65.934
N15550 X46.809 Y66.139
N15555 X47.252 Y66.421
N15560 X47.515 Y66.589
N15565 X47.545 Y66.613
N15570 X47.568 Y66.644
N15575 X47.583 Y66.679
N15580 X47.589 Y66.717
N15585 X47.583 Y66.766 Z-3.412
N15590 X47.562 Y66.811 Z-3.452
N15595 X47.528 Y66.848 Z-3.492
N15600 X47.484 Y66.872 Z-3.532
N15605 X47.436 Y66.881 Z-3.572
N15610 X46.72
N15615 X46.689
N15620 X46.649
N15625 X46.5 Y66.874
N15630 X46.366 Y66.798
N15635 X46.276 Y66.675
N15640 X46.244 Y66.526
N15645 X46.253 Y66.477 Z-3.532
N15650 X46.277 Y66.433 Z-3.492
N15655 X46.314 Y66.4 Z-3.452
N15660 X46.359 Y66.379 Z-3.412
N15665 X46.408 Y66.373 Z-3.372
N15670 X46.441 Y66.377
N15675 X46.473 Y66.389
N15680 X46.501 Y66.407
N15685 X46.743 Y66.598
N15690 X46.774 Y66.631
N15695 X46.794 Y66.672
N15700 X46.803 Y66.717
N15705 X46.796 Y66.766 Z-3.412
N15710 X46.775 Y66.811 Z-3.452
N15715 X46.742 Y66.848 Z-3.492
N15720 X46.698 Y66.872 Z-3.532
N15725 X46.649 Y66.881 Z-3.572
N15730 X46.413
N15735 X46.389 Y66.879
N15740 X46.366 Y66.874
N15745 X46.342 Y66.864
N15750 X46.33 Y66.857
N15755 X46.311 Y66.843
N15760 X46.285 Y66.819
N15765 X46.275 Y66.807
N15770 X46.267 Y66.795
N15775 X46.255 Y66.771
N15780 X46.248 Y66.747
N15785 X46.244 Y66.721
N15790 Y61.322
N15795 G3 X46.561 Y61.327 I0.159 J0.006
N15800 G1 X46.555 Y61.371
N15805 X46.537 Y61.412
N15810 X46.508 Y61.445
N15815 X46.471 Y61.46 Z-3.566
N15820 X46.437 Y61.474 Z-3.551
N15825 X46.407 Y61.486 Z-3.527
N15830 X46.402 Z-3.522
N15835 X46.379 Y61.483 Z-3.489
N15840 X46.365 Y61.481 Z-3.453
N15845 X46.36 Y61.48 Z-3.413
N15850 G0 Z5.
N15855 G1 X59.221 Y66.824 F500.
N15860 G0 Z-4.985
N15865 G1 Z-5.144 F1000.
N15870 Z-7.144
N15875 G3 X60.791 Y66.849 I0.772 J0.858
N15880 G1 X60.776 Y66.859
N15885 X60.761 Y66.867
N15890 X60.746 Y66.873
N15895 X60.732 Y66.877
N15900 X60.706 Y66.881
N15905 X47.436
N15910 X47.286 Y66.874
N15915 X47.139 Y66.844
N15920 X46.995 Y66.803
N15925 X46.86 Y66.737
N15930 X46.733 Y66.656
N15935 X46.586 Y66.543
N15940 X46.394 Y66.369
N15945 X46.344 Y66.316
N15950 X46.29 Y66.241
N15955 X46.255 Y66.154
N15960 X46.244 Y66.062
N15965 X46.253 Y66.014 Z-7.104
N15970 X46.277 Y65.97 Z-7.064
N15975 X46.314 Y65.936 Z-7.024
N15980 X46.359 Y65.915 Z-6.984
N15985 X46.408 Y65.909 Z-6.944
N15990 X46.449 Y65.916
N15995 X46.488 Y65.934
N16000 X46.809 Y66.139
N16005 X47.252 Y66.421
N16010 X47.515 Y66.589
N16015 X47.545 Y66.613
N16020 X47.568 Y66.644
N16025 X47.583 Y66.679
N16030 X47.589 Y66.717
N16035 X47.583 Y66.766 Z-6.984
N16040 X47.562 Y66.811 Z-7.024
N16045 X47.528 Y66.848 Z-7.064
N16050 X47.484 Y66.872 Z-7.104
N16055 X47.436 Y66.881 Z-7.144
N16060 X46.72
N16065 X46.689
N16070 X46.649
N16075 X46.5 Y66.874
N16080 X46.366 Y66.798
N16085 X46.276 Y66.675
N16090 X46.244 Y66.526
N16095 X46.253 Y66.477 Z-7.104
N16100 X46.277 Y66.433 Z-7.064
N16105 X46.314 Y66.4 Z-7.024
N16110 X46.359 Y66.379 Z-6.984
N16115 X46.408 Y66.373 Z-6.944
N16120 X46.441 Y66.377
N16125 X46.473 Y66.389
N16130 X46.501 Y66.407
N16135 X46.743 Y66.598
N16140 X46.774 Y66.631
N16145 X46.794 Y66.672
N16150 X46.803 Y66.717
N16155 X46.796 Y66.766 Z-6.984
N16160 X46.775 Y66.811 Z-7.024
N16165 X46.742 Y66.848 Z-7.064
N16170 X46.698 Y66.872 Z-7.104
N16175 X46.649 Y66.881 Z-7.144
N16180 X46.413
N16185 X46.389 Y66.879
N16190 X46.366 Y66.874
N16195 X46.342 Y66.864
N16200 X46.33 Y66.857
N16205 X46.311 Y66.843
N16210 X46.285 Y66.819
N16215 X46.275 Y66.807
N16220 X46.267 Y66.795
N16225 X46.255 Y66.771
N16230 X46.248 Y66.747
N16235 X46.244 Y66.721
N16240 Y57.329
N16245 G3 X46.561 Y57.334 I0.159 J0.006
N16250 G1 Y57.335
N16255 X46.555 Y57.379
N16260 X46.537 Y57.419
N16265 X46.508 Y57.453
N16270 X46.471 Y57.468 Z-7.138
N16275 X46.437 Y57.482 Z-7.123
N16280 X46.407 Y57.494 Z-7.099
N16285 X46.402 Z-7.093
N16290 X46.379 Y57.491 Z-7.061
N16295 X46.365 Y57.489 Z-7.024
N16300 X46.36 Y57.488 Z-6.985
N16305 G0 Z5.
N16310 G1 X59.221 Y66.824 F500.
N16315 G0 Z-8.557
N16320 G1 Z-8.716 F1000.
N16325 Z-10.716
N16330 G3 X60.791 Y66.849 I0.772 J0.858
N16335 G1 X60.776 Y66.859
N16340 X60.761 Y66.867
N16345 X60.746 Y66.873
N16350 X60.732 Y66.877
N16355 X60.706 Y66.881
N16360 X47.436
N16365 X47.286 Y66.874
N16370 X47.139 Y66.844
N16375 X46.995 Y66.803
N16380 X46.86 Y66.737
N16385 X46.733 Y66.656
N16390 X46.586 Y66.543
N16395 X46.394 Y66.369
N16400 X46.344 Y66.316
N16405 X46.29 Y66.241
N16410 X46.255 Y66.154
N16415 X46.244 Y66.062
N16420 X46.253 Y66.014 Z-10.676
N16425 X46.277 Y65.97 Z-10.636
N16430 X46.314 Y65.936 Z-10.596
N16435 X46.359 Y65.915 Z-10.556
N16440 X46.408 Y65.909 Z-10.516
N16445 X46.449 Y65.916
N16450 X46.488 Y65.934
N16455 X46.809 Y66.139
N16460 X47.252 Y66.421
N16465 X47.515 Y66.589
N16470 X47.545 Y66.613
N16475 X47.568 Y66.644
N16480 X47.583 Y66.679
N16485 X47.589 Y66.717
N16490 X47.583 Y66.766 Z-10.556
N16495 X47.562 Y66.811 Z-10.596
N16500 X47.528 Y66.848 Z-10.636
N16505 X47.484 Y66.872 Z-10.676
N16510 X47.436 Y66.881 Z-10.716
N16515 X46.72
N16520 X46.689
N16525 X46.649
N16530 X46.5 Y66.874
N16535 X46.366 Y66.798
N16540 X46.276 Y66.675
N16545 X46.244 Y66.526
N16550 X46.253 Y66.477 Z-10.676
N16555 X46.277 Y66.433 Z-10.636
N16560 X46.314 Y66.4 Z-10.596
N16565 X46.359 Y66.379 Z-10.556
N16570 X46.408 Y66.373 Z-10.516
N16575 X46.441 Y66.377
N16580 X46.473 Y66.389
N16585 X46.501 Y66.407
N16590 X46.743 Y66.598
N16595 X46.774 Y66.631
N16600 X46.794 Y66.672
N16605 X46.803 Y66.717
N16610 X46.796 Y66.766 Z-10.556
N16615 X46.775 Y66.811 Z-10.596
N16620 X46.742 Y66.848 Z-10.636
N16625 X46.698 Y66.872 Z-10.676
N16630 X46.649 Y66.881 Z-10.716
N16635 X46.413
N16640 X46.389 Y66.879
N16645 X46.366 Y66.874
N16650 X46.342 Y66.864
N16655 X46.33 Y66.857
N16660 X46.311 Y66.843
N16665 X46.285 Y66.819
N16670 X46.275 Y66.807
N16675 X46.267 Y66.795
N16680 X46.255 Y66.771
N16685 X46.248 Y66.747
N16690 X46.244 Y66.721
N16695 Y55.282
N16700 G3 X46.561 Y55.287 I0.159 J0.006
N16705 G1 Y55.288
N16710 X46.555 Y55.332
N16715 X46.537 Y55.372
N16720 X46.508 Y55.406
N16725 X46.471 Y55.421 Z-10.71
N16730 X46.437 Y55.434 Z-10.695
N16735 X46.407 Y55.446 Z-10.67
N16740 X46.402 Z-10.665
N16745 X46.379 Y55.443 Z-10.633
N16750 X46.365 Y55.441 Z-10.596
N16755 X46.36 Z-10.557
N16760 G0 Z5.
N16765 G1 X59.221 Y66.824 F500.
N16770 G0 Z-12.129
N16775 G1 Z-12.287 F1000.
N16780 Z-14.287
N16785 G3 X60.791 Y66.849 I0.772 J0.858
N16790 G1 X60.776 Y66.859
N16795 X60.761 Y66.867
N16800 X60.746 Y66.873
N16805 X60.732 Y66.877
N16810 X60.706 Y66.881
N16815 X47.436
N16820 X47.286 Y66.874
N16825 X47.139 Y66.844
N16830 X46.995 Y66.803
N16835 X46.86 Y66.737
N16840 X46.733 Y66.656
N16845 X46.586 Y66.543
N16850 X46.394 Y66.369
N16855 X46.344 Y66.316
N16860 X46.29 Y66.241
N16865 X46.255 Y66.154
N16870 X46.244 Y66.062
N16875 X46.253 Y66.014 Z-14.247
N16880 X46.277 Y65.97 Z-14.207
N16885 X46.314 Y65.936 Z-14.167
N16890 X46.359 Y65.915 Z-14.127
N16895 X46.408 Y65.909 Z-14.087
N16900 X46.449 Y65.916
N16905 X46.488 Y65.934
N16910 X46.809 Y66.139
N16915 X47.252 Y66.421
N16920 X47.515 Y66.589
N16925 X47.545 Y66.613
N16930 X47.568 Y66.644
N16935 X47.583 Y66.679
N16940 X47.589 Y66.717
N16945 X47.583 Y66.766 Z-14.127
N16950 X47.562 Y66.811 Z-14.167
N16955 X47.528 Y66.848 Z-14.207
N16960 X47.484 Y66.872 Z-14.247
N16965 X47.436 Y66.881 Z-14.287
N16970 X46.72
N16975 X46.689
N16980 X46.649
N16985 X46.5 Y66.874
N16990 X46.366 Y66.798
N16995 X46.276 Y66.675
N17000 X46.244 Y66.526
N17005 X46.253 Y66.477 Z-14.247
N17010 X46.277 Y66.433 Z-14.207
N17015 X46.314 Y66.4 Z-14.167
N17020 X46.359 Y66.379 Z-14.127
N17025 X46.408 Y66.373 Z-14.087
N17030 X46.441 Y66.377
N17035 X46.473 Y66.389
N17040 X46.501 Y66.407
N17045 X46.743 Y66.598
N17050 X46.774 Y66.631
N17055 X46.794 Y66.672
N17060 X46.803 Y66.717
N17065 X46.796 Y66.766 Z-14.127
N17070 X46.775 Y66.811 Z-14.167
N17075 X46.742 Y66.848 Z-14.207
N17080 X46.698 Y66.872 Z-14.247
N17085 X46.649 Y66.881 Z-14.287
N17090 X46.413
N17095 X46.389 Y66.879
N17100 X46.366 Y66.874
N17105 X46.342 Y66.864
N17110 X46.33 Y66.857
N17115 X46.311 Y66.843
N17120 X46.285 Y66.819
N17125 X46.275 Y66.807
N17130 X46.267 Y66.795
N17135 X46.255 Y66.771
N17140 X46.248 Y66.747
N17145 X46.244 Y66.721
N17150 Y52.314
N17155 G3 X46.561 Y52.319 I0.159 J0.006
N17160 G1 X46.555 Y52.363
N17165 X46.537 Y52.403
N17170 X46.508 Y52.437
N17175 X46.471 Y52.452 Z-14.282
N17180 X46.437 Y52.466 Z-14.266
N17185 X46.407 Y52.478 Z-14.242
N17190 X46.402 Z-14.237
N17195 X46.379 Y52.475 Z-14.205
N17200 X46.365 Y52.473 Z-14.168
N17205 X46.36 Y52.472 Z-14.129
N17210 G0 Z5.
N17215 G1 X59.221 Y66.824 F500.
N17220 G0 Z-15.701
N17225 G1 Z-15.859 F1000.
N17230 Z-17.859
N17235 G3 X60.791 Y66.849 I0.772 J0.858
N17240 G1 X60.776 Y66.859
N17245 X60.761 Y66.867
N17250 X60.746 Y66.873
N17255 X60.732 Y66.877
N17260 X60.706 Y66.881
N17265 X47.436
N17270 X47.286 Y66.874
N17275 X47.139 Y66.844
N17280 X46.995 Y66.803
N17285 X46.86 Y66.737
N17290 X46.733 Y66.656
N17295 X46.586 Y66.543
N17300 X46.394 Y66.369
N17305 X46.344 Y66.316
N17310 X46.29 Y66.241
N17315 X46.255 Y66.154
N17320 X46.244 Y66.062
N17325 X46.253 Y66.014 Z-17.819
N17330 X46.277 Y65.97 Z-17.779
N17335 X46.314 Y65.936 Z-17.739
N17340 X46.359 Y65.915 Z-17.699
N17345 X46.408 Y65.909 Z-17.659
N17350 X46.449 Y65.916
N17355 X46.488 Y65.934
N17360 X46.809 Y66.139
N17365 X47.252 Y66.421
N17370 X47.515 Y66.589
N17375 X47.545 Y66.613
N17380 X47.568 Y66.644
N17385 X47.583 Y66.679
N17390 X47.589 Y66.717
N17395 X47.583 Y66.766 Z-17.699
N17400 X47.562 Y66.811 Z-17.739
N17405 X47.528 Y66.848 Z-17.779
N17410 X47.484 Y66.872 Z-17.819
N17415 X47.436 Y66.881 Z-17.859
N17420 X46.72
N17425 X46.689
N17430 X46.649
N17435 X46.5 Y66.874
N17440 X46.366 Y66.798
N17445 X46.276 Y66.675
N17450 X46.244 Y66.526
N17455 X46.253 Y66.477 Z-17.819
N17460 X46.277 Y66.433 Z-17.779
N17465 X46.314 Y66.4 Z-17.739
N17470 X46.359 Y66.379 Z-17.699
N17475 X46.408 Y66.373 Z-17.659
N17480 X46.441 Y66.377
N17485 X46.473 Y66.389
N17490 X46.501 Y66.407
N17495 X46.743 Y66.598
N17500 X46.774 Y66.631
N17505 X46.794 Y66.672
N17510 X46.803 Y66.717
N17515 X46.796 Y66.766 Z-17.699
N17520 X46.775 Y66.811 Z-17.739
N17525 X46.742 Y66.848 Z-17.779
N17530 X46.698 Y66.872 Z-17.819
N17535 X46.649 Y66.881 Z-17.859
N17540 X46.413
N17545 X46.389 Y66.879
N17550 X46.366 Y66.874
N17555 X46.342 Y66.864
N17560 X46.33 Y66.857
N17565 X46.311 Y66.843
N17570 X46.285 Y66.819
N17575 X46.275 Y66.807
N17580 X46.267 Y66.795
N17585 X46.255 Y66.771
N17590 X46.248 Y66.747
N17595 X46.244 Y66.721
N17600 Y50.573
N17605 G3 X46.561 Y50.578 I0.159 J0.006
N17610 G1 Y50.579
N17615 X46.555 Y50.623
N17620 X46.537 Y50.663
N17625 X46.508 Y50.697
N17630 X46.471 Y50.712 Z-17.854
N17635 X46.437 Y50.726 Z-17.838
N17640 X46.407 Y50.738 Z-17.814
N17645 X46.402 Z-17.809
N17650 X46.379 Y50.735 Z-17.777
N17655 X46.365 Y50.733 Z-17.74
N17660 X46.36 Y50.732 Z-17.701
N17665 G0 Z5.
N17670 G1 X59.221 Y66.824 F500.
N17675 G0 Z-18.796
N17680 G1 Z-18.955 F1000.
N17685 Z-20.955
N17690 G3 X60.791 Y66.849 I0.772 J0.858
N17695 G1 X60.776 Y66.859
N17700 X60.761 Y66.867
N17705 X60.746 Y66.873
N17710 X60.732 Y66.877
N17715 X60.706 Y66.881
N17720 X47.436
N17725 X47.286 Y66.874
N17730 X47.139 Y66.844
N17735 X46.995 Y66.803
N17740 X46.86 Y66.737
N17745 X46.733 Y66.656
N17750 X46.586 Y66.543
N17755 X46.395 Y66.369
N17760 X46.344 Y66.316
N17765 X46.29 Y66.24
N17770 X46.255 Y66.154
N17775 X46.244 Y66.062
N17780 X46.253 Y66.013 Z-20.915
N17785 X46.277 Y65.97 Z-20.875
N17790 X46.314 Y65.936 Z-20.835
N17795 X46.359 Y65.915 Z-20.795
N17800 X46.408 Y65.909 Z-20.755
N17805 X46.449 Y65.916
N17810 X46.488 Y65.934
N17815 X46.809 Y66.139
N17820 X47.252 Y66.421
N17825 X47.515 Y66.589
N17830 X47.545 Y66.613
N17835 X47.568 Y66.644
N17840 X47.583 Y66.679
N17845 X47.589 Y66.717
N17850 X47.583 Y66.766 Z-20.795
N17855 X47.562 Y66.811 Z-20.835
N17860 X47.528 Y66.848 Z-20.875
N17865 X47.484 Y66.872 Z-20.915
N17870 X47.436 Y66.881 Z-20.955
N17875 X46.72
N17880 X46.689
N17885 X46.649
N17890 X46.5 Y66.874
N17895 X46.366 Y66.798
N17900 X46.276 Y66.675
N17905 X46.244 Y66.526
N17910 X46.253 Y66.477 Z-20.915
N17915 X46.277 Y66.433 Z-20.875
N17920 X46.314 Y66.399 Z-20.835
N17925 X46.359 Y66.378 Z-20.795
N17930 X46.408 Y66.372 Z-20.755
N17935 X46.441 Y66.377
N17940 X46.473 Y66.389
N17945 X46.501 Y66.407
N17950 X46.743 Y66.598
N17955 X46.774 Y66.631
N17960 X46.794 Y66.672
N17965 X46.803 Y66.717
N17970 X46.796 Y66.766 Z-20.795
N17975 X46.775 Y66.811 Z-20.835
N17980 X46.742 Y66.848 Z-20.875
N17985 X46.698 Y66.872 Z-20.915
N17990 X46.649 Y66.881 Z-20.955
N17995 X46.413
N18000 X46.389 Y66.879
N18005 X46.366 Y66.874
N18010 X46.342 Y66.864
N18015 X46.33 Y66.857
N18020 X46.311 Y66.843
N18025 X46.285 Y66.819
N18030 X46.275 Y66.807
N18035 X46.267 Y66.795
N18040 X46.255 Y66.771
N18045 X46.248 Y66.747
N18050 X46.244 Y66.721
N18055 Y50.573
N18060 G3 X46.561 Y50.578 I0.159 J0.006
N18065 G1 Y50.579
N18070 X46.555 Y50.623
N18075 X46.537 Y50.663
N18080 X46.508 Y50.697
N18085 X46.471 Y50.712 Z-20.949
N18090 X46.437 Y50.726 Z-20.934
N18095 X46.407 Y50.738 Z-20.91
N18100 X46.402 Z-20.905
N18105 X46.379 Y50.735 Z-20.873
N18110 X46.365 Y50.733 Z-20.836
N18115 X46.36 Y50.732 Z-20.796
N18120 G0 Z5.
N18125 G1 X31.432 Y62.442 F500.
N18130 G0 Z-3.254
N18135 G1 Z-3.413 F1000.
N18140 X31.436 Y62.449 Z-3.462
N18145 X31.448 Y62.468 Z-3.506
N18150 X31.466 Y62.498 Z-3.542
N18155 X31.489 Y62.536 Z-3.564
N18160 X31.514 Y62.578 Z-3.572
N18165 G3 X31.956 Y64.085 I-2.721 J1.618
N18170 G1 Y65.677
N18175 X31.949 Y65.827
N18180 X31.924 Y65.975
N18185 X31.883 Y66.119
N18190 X31.818 Y66.254
N18195 X31.737 Y66.381
N18200 X31.625 Y66.528
N18205 X31.452 Y66.72
N18210 X31.388 Y66.78
N18215 X31.313 Y66.835
N18220 X31.226 Y66.87
N18225 X31.134 Y66.881
N18230 X31.085 Y66.872 Z-3.532
N18235 X31.041 Y66.848 Z-3.492
N18240 X31.008 Y66.811 Z-3.452
N18245 X30.987 Y66.766 Z-3.412
N18250 X30.98 Y66.717 Z-3.372
N18255 X30.987 Y66.676
N18260 X31.005 Y66.638
N18265 X31.209 Y66.315
N18270 X31.497 Y65.861
N18275 X31.663 Y65.598
N18280 X31.688 Y65.568
N18285 X31.719 Y65.545
N18290 X31.754 Y65.53
N18295 X31.792 Y65.524
N18300 X31.841 Y65.53 Z-3.412
N18305 X31.886 Y65.551 Z-3.452
N18310 X31.923 Y65.585 Z-3.492
N18315 X31.947 Y65.628 Z-3.532
N18320 X31.956 Y65.677 Z-3.572
N18325 Y66.44
N18330 Y66.471
N18335 Y66.51
N18340 X31.949 Y66.66
N18345 X31.876 Y66.776
N18350 X31.764 Y66.854
N18355 X31.63 Y66.881
N18360 X31.581 Y66.872 Z-3.532
N18365 X31.537 Y66.848 Z-3.492
N18370 X31.503 Y66.811 Z-3.452
N18375 X31.482 Y66.766 Z-3.412
N18380 X31.476 Y66.717 Z-3.372
N18385 X31.486 Y66.668
N18390 X31.51 Y66.625
N18395 X31.673 Y66.418
N18400 X31.706 Y66.386
N18405 X31.747 Y66.365
N18410 X31.792 Y66.357
N18415 X31.841 Y66.363 Z-3.412
N18420 X31.886 Y66.384 Z-3.452
N18425 X31.923 Y66.418 Z-3.492
N18430 X31.947 Y66.461 Z-3.532
N18435 X31.956 Y66.51 Z-3.572
N18440 Y66.721
N18445 X31.952 Y66.747
N18450 X31.945 Y66.771
N18455 X31.933 Y66.795
N18460 X31.925 Y66.807
N18465 X31.915 Y66.819
N18470 X31.889 Y66.843
N18475 X31.87 Y66.857
N18480 X31.858 Y66.864
N18485 X31.834 Y66.874
N18490 X31.811 Y66.879
N18495 X31.787 Y66.881
N18500 X17.494
N18505 X17.468 Y66.877
N18510 G3 X17.66 Y66.657 I0.049 J-0.151
N18515 G1 X17.668 Y66.692 Z-3.567
N18520 X17.676 Y66.726 Z-3.555
N18525 X17.666 Y66.76 Z-3.53
N18530 X17.659 Y66.786 Z-3.496
N18535 X17.654 Y66.803 Z-3.456
N18540 X17.653 Y66.809 Z-3.413
N18545 G0 Z5.
N18550 G1 X31.432 Y62.339 F500.
N18555 G0 Z-6.826
N18560 G1 Z-6.985 F1000.
N18565 X31.436 Y62.346 Z-7.034
N18570 X31.448 Y62.366 Z-7.078
N18575 X31.466 Y62.396 Z-7.113
N18580 X31.489 Y62.434 Z-7.136
N18585 X31.514 Y62.476 Z-7.144
N18590 G3 X31.956 Y63.983 I-2.721 J1.618
N18595 G1 Y65.677
N18600 X31.949 Y65.827
N18605 X31.924 Y65.975
N18610 X31.883 Y66.119
N18615 X31.818 Y66.254
N18620 X31.737 Y66.381
N18625 X31.625 Y66.528
N18630 X31.452 Y66.72
N18635 X31.388 Y66.78
N18640 X31.313 Y66.835
N18645 X31.226 Y66.87
N18650 X31.134 Y66.881
N18655 X31.085 Y66.872 Z-7.104
N18660 X31.041 Y66.848 Z-7.064
N18665 X31.008 Y66.811 Z-7.024
N18670 X30.987 Y66.766 Z-6.984
N18675 X30.98 Y66.717 Z-6.944
N18680 X30.987 Y66.676
N18685 X31.005 Y66.638
N18690 X31.209 Y66.315
N18695 X31.497 Y65.861
N18700 X31.663 Y65.598
N18705 X31.688 Y65.568
N18710 X31.719 Y65.545
N18715 X31.754 Y65.53
N18720 X31.792 Y65.524
N18725 X31.841 Y65.53 Z-6.984
N18730 X31.886 Y65.551 Z-7.024
N18735 X31.923 Y65.585 Z-7.064
N18740 X31.947 Y65.628 Z-7.104
N18745 X31.956 Y65.677 Z-7.144
N18750 Y66.44
N18755 Y66.471
N18760 Y66.51
N18765 X31.949 Y66.66
N18770 X31.876 Y66.776
N18775 X31.764 Y66.854
N18780 X31.63 Y66.881
N18785 X31.581 Y66.872 Z-7.104
N18790 X31.537 Y66.848 Z-7.064
N18795 X31.503 Y66.811 Z-7.024
N18800 X31.482 Y66.766 Z-6.984
N18805 X31.476 Y66.717 Z-6.944
N18810 X31.486 Y66.668
N18815 X31.51 Y66.625
N18820 X31.673 Y66.418
N18825 X31.706 Y66.386
N18830 X31.747 Y66.365
N18835 X31.792 Y66.357
N18840 X31.841 Y66.363 Z-6.984
N18845 X31.886 Y66.384 Z-7.024
N18850 X31.923 Y66.418 Z-7.064
N18855 X31.947 Y66.461 Z-7.104
N18860 X31.956 Y66.51 Z-7.144
N18865 Y66.721
N18870 X31.952 Y66.747
N18875 X31.945 Y66.771
N18880 X31.933 Y66.795
N18885 X31.925 Y66.807
N18890 X31.915 Y66.819
N18895 X31.889 Y66.843
N18900 X31.87 Y66.857
N18905 X31.858 Y66.864
N18910 X31.834 Y66.874
N18915 X31.811 Y66.879
N18920 X31.787 Y66.881
N18925 X17.494
N18930 X17.468 Y66.877
N18935 G3 X17.66 Y66.657 I0.049 J-0.151
N18940 G1 X17.668 Y66.692 Z-7.139
N18945 X17.676 Y66.726 Z-7.127
N18950 X17.666 Y66.76 Z-7.102
N18955 X17.659 Y66.786 Z-7.068
N18960 X17.654 Y66.803 Z-7.028
N18965 X17.653 Y66.809 Z-6.985
N18970 G0 Z5.
N18975 G1 X31.432 Y62.135 F500.
N18980 G0 Z-10.398
N18985 G1 Z-10.557 F1000.
N18990 X31.436 Y62.141 Z-10.606
N18995 X31.448 Y62.161 Z-10.65
N19000 X31.466 Y62.191 Z-10.685
N19005 X31.489 Y62.229 Z-10.708
N19010 X31.514 Y62.271 Z-10.716
N19015 G3 X31.956 Y63.778 I-2.721 J1.618
N19020 G1 Y65.677
N19025 X31.949 Y65.827
N19030 X31.924 Y65.975
N19035 X31.883 Y66.119
N19040 X31.818 Y66.254
N19045 X31.737 Y66.381
N19050 X31.625 Y66.528
N19055 X31.452 Y66.72
N19060 X31.388 Y66.78
N19065 X31.313 Y66.835
N19070 X31.226 Y66.87
N19075 X31.134 Y66.881
N19080 X31.085 Y66.872 Z-10.676
N19085 X31.041 Y66.848 Z-10.636
N19090 X31.008 Y66.811 Z-10.596
N19095 X30.987 Y66.766 Z-10.556
N19100 X30.98 Y66.717 Z-10.516
N19105 X30.987 Y66.676
N19110 X31.005 Y66.638
N19115 X31.209 Y66.315
N19120 X31.497 Y65.861
N19125 X31.663 Y65.598
N19130 X31.688 Y65.568
N19135 X31.719 Y65.545
N19140 X31.754 Y65.53
N19145 X31.792 Y65.524
N19150 X31.841 Y65.53 Z-10.556
N19155 X31.886 Y65.551 Z-10.596
N19160 X31.923 Y65.585 Z-10.636
N19165 X31.947 Y65.628 Z-10.676
N19170 X31.956 Y65.677 Z-10.716
N19175 Y66.44
N19180 Y66.471
N19185 Y66.51
N19190 X31.949 Y66.66
N19195 X31.876 Y66.776
N19200 X31.764 Y66.854
N19205 X31.63 Y66.881
N19210 X31.581 Y66.872 Z-10.676
N19215 X31.537 Y66.848 Z-10.636
N19220 X31.503 Y66.811 Z-10.596
N19225 X31.482 Y66.766 Z-10.556
N19230 X31.476 Y66.717 Z-10.516
N19235 X31.486 Y66.668
N19240 X31.51 Y66.625
N19245 X31.673 Y66.418
N19250 X31.706 Y66.386
N19255 X31.747 Y66.365
N19260 X31.792 Y66.357
N19265 X31.841 Y66.363 Z-10.556
N19270 X31.886 Y66.384 Z-10.596
N19275 X31.923 Y66.418 Z-10.636
N19280 X31.947 Y66.461 Z-10.676
N19285 X31.956 Y66.51 Z-10.716
N19290 Y66.721
N19295 X31.952 Y66.747
N19300 X31.945 Y66.771
N19305 X31.933 Y66.795
N19310 X31.925 Y66.807
N19315 X31.915 Y66.819
N19320 X31.889 Y66.843
N19325 X31.87 Y66.857
N19330 X31.858 Y66.864
N19335 X31.834 Y66.874
N19340 X31.811 Y66.879
N19345 X31.787 Y66.881
N19350 X17.494
N19355 X17.468 Y66.877
N19360 G3 X17.66 Y66.657 I0.049 J-0.151
N19365 G1 X17.668 Y66.692 Z-10.711
N19370 X17.676 Y66.726 Z-10.698
