%
O01001
(Using high feed G1 F500. instead of G0.)
(T1 D=50. CR=0. - ZMIN=-1. - face mill)
(T2 D=10. CR=0. - ZMIN=-21. - flat end mill)
(T5 D=18. CR=0. - ZMIN=-21. - right hand tap)
N10 G90 G17
N15 G21
N20 G53 G0 Z0.

(Face2)
N25 T1 M6
N30 S955 M3
N35 G54
N40 M8
N45 G1 X141.92 Y-66.54 F500.
N50 G0 G43 Z15. H1
N55 T2
N60 G0 Z5.
N65 G1 Z4. F460.
N70 G18 G3 X136.92 Z-1. I-5. K0.
N75 G1 X135.01
N80 X-135.01
N85 G17 G2 Y-38.43 I0. J14.055
N90 G1 X135.01
N95 G3 Y-10.32 I0. J14.055
N100 G1 X-135.01
N105 G2 Y17.79 I0. J14.055
N110 G1 X135.01
N115 G3 Y45.9 I0. J14.055
N120 G1 X-135.01
N125 G18 G3 X-140.01 Z4. I0. K5.
N130 G0 Z15.
N135 M9
N140 M5
N145 G53 G0 Z0.

(2D Contour1)
N150 M1
N155 T2 M6
N160 S5000 M3
N165 G54
N170 M8
N175 G17
N180 G1 X-101. Y68. F500.
N185 G0 G43 Z15. H2
N190 T5
N195 G0 Z5.
N200 G1 Z1. F333.33
N205 Z-20.
N210 G19 G2 Y67. Z-21. J-1. K0. F1000.
N215 G1 Y66.
N220 G17 G3 X-100. Y65. I1. J0.
N225 G1 X100.
N230 G2 X105. Y60. I0. J-5.
N235 G1 Y-60.
N240 G2 X100. Y-65. I-5. J0.
N245 G1 X-100.
N250 G2 X-105. Y-60. I0. J5.
N255 G1 Y60.
N260 G2 X-100. Y65. I5. J0.
N265 G3 X-99. Y66. I0. J1.
N270 G1 Y67.
N275 G19 G3 Y68. Z-20. J0. K1.
N280 G0 Z15.
N285 M9
N290 M5
N295 G53 G0 Z0.

(Drill5)
N300 M1
N305 T5 M6
N310 S500 M3
N315 G54
N320 M8
N325 G17
N330 G1 X80. Y-40. F500.
N335 G0 G43 Z15. H5
N340 T1
N345 G0 Z5.
N350 G98 G84 X80. Y-40. Z-21. R4. F1000.
N355 Y40.
N360 X-80.
N365 Y-40.
N370 G80
N375 G0 Z15.

N380 M5
N385 M9
N390 G53 G0 Z0.
N395 X0.
N400 G53 G0 Y0.
N405 M30

%
